/* XPM */
static char *east[] = {
/* columns rows colors chars-per-pixel */
"128 128 226 2 ",
"   c #1B2628",
".  c #1E292B",
"X  c #222C2F",
"o  c #292E2F",
"O  c #242E31",
"+  c #263233",
"@  c #2B3435",
"#  c #2C3837",
"$  c #2C3739",
"%  c #263939",
"&  c #2C3B3B",
"*  c #313635",
"=  c #343936",
"-  c #3A3C36",
";  c #303738",
":  c #333C3C",
">  c #3A3E3B",
",  c #403F38",
"<  c #2D403F",
"1  c #3E4036",
"2  c #34403F",
"3  c #3D423D",
"4  c #424236",
"5  c #42443D",
"6  c #484739",
"7  c #46493E",
"8  c #4A4B3D",
"9  c #2E3F41",
"0  c #343E41",
"q  c #383F41",
"w  c #3E3C52",
"e  c #2D4242",
"r  c #2F4748",
"t  c #344343",
"y  c #3B4444",
"u  c #354947",
"i  c #3C4846",
"p  c #354649",
"a  c #3B4648",
"s  c #354A4B",
"d  c #3B4B4C",
"f  c #37504F",
"g  c #3D504F",
"h  c #374E50",
"j  c #3C4E51",
"k  c #3D5353",
"l  c #3C5657",
"z  c #3E5658",
"x  c #434642",
"c  c #454A44",
"v  c #4A4D44",
"b  c #424649",
"n  c #444C4B",
"m  c #4A4E4A",
"M  c #504F45",
"N  c #4D5146",
"B  c #45504C",
"V  c #4D524C",
"C  c #515246",
"Z  c #52554D",
"A  c #55594E",
"S  c #585A4E",
"D  c #434E52",
"F  c #494758",
"G  c #534B5A",
"H  c #445354",
"J  c #4C5452",
"K  c #455956",
"L  c #4E5853",
"P  c #445459",
"I  c #4B565A",
"U  c #445B5B",
"Y  c #4C5A5D",
"T  c #525652",
"R  c #585655",
"E  c #555A53",
"W  c #595C55",
"Q  c #545659",
"!  c #545C5B",
"~  c #5A5D5B",
"^  c #605E5C",
"/  c #49605E",
"(  c #576057",
")  c #5D6056",
"_  c #55605B",
"`  c #5D615B",
"'  c #65665B",
"]  c #61635C",
"[  c #4C4865",
"{  c #524C64",
"}  c #514C6B",
"|  c #455F62",
" . c #4D5C63",
".. c #535667",
"X. c #5A5464",
"o. c #525E63",
"O. c #5C5D62",
"+. c #55526B",
"@. c #5A556C",
"#. c #5E5B6D",
"$. c #534D73",
"%. c #5B5573",
"&. c #5C5876",
"*. c #625E63",
"=. c #62566B",
"-. c #625C6C",
";. c #675B75",
":. c #635C74",
">. c #645D7B",
",. c #4D6264",
"<. c #486565",
"1. c #4F6169",
"2. c #546166",
"3. c #5D6363",
"4. c #5F6866",
"5. c #54646B",
"6. c #5A666C",
"7. c #56686E",
"8. c #5B696E",
"9. c #556770",
"0. c #5A6770",
"q. c #576971",
"w. c #5C6C73",
"e. c #5D6F78",
"r. c #5E7076",
"t. c #626564",
"y. c #686465",
"u. c #646965",
"i. c #6A6B64",
"p. c #64656A",
"a. c #6A666B",
"s. c #656B6B",
"d. c #6A6C6C",
"f. c #716A6E",
"g. c #66716F",
"h. c #6B716E",
"j. c #71746D",
"k. c #666273",
"l. c #6A6475",
"z. c #636D73",
"x. c #6B6D72",
"c. c #66627C",
"v. c #6B647B",
"b. c #616F78",
"n. c #6D6B7C",
"m. c #726E73",
"M. c #756A78",
"N. c #736C7D",
"B. c #647175",
"V. c #6A7171",
"C. c #6D7271",
"Z. c #6C7373",
"A. c #6D7676",
"S. c #6D7976",
"D. c #63747B",
"F. c #6C747A",
"G. c #67787E",
"H. c #6D7A7A",
"J. c #727474",
"K. c #797476",
"L. c #747975",
"P. c #787B76",
"I. c #73757B",
"U. c #7B757C",
"Y. c #747B7B",
"T. c #7B7B7D",
"R. c #82797E",
"E. c #75817E",
"W. c #7A817D",
"Q. c #80857F",
"!. c #5F5A82",
"~. c #635C83",
"^. c #675F85",
"/. c #6B6584",
"(. c #6D6A83",
"). c #686688",
"_. c #6B668B",
"`. c #746C84",
"'. c #796D86",
"]. c #736D8A",
"[. c #6F7681",
"{. c #667880",
"}. c #6A7B82",
"|. c #747383",
" X c #7B7484",
".X c #757C81",
"XX c #7B7C82",
"oX c #76728B",
"OX c #7B738C",
"+X c #7D7A8C",
"@X c #736C92",
"#X c #7B7593",
"$X c #7B7796",
"%X c #7D7A93",
"&X c #837D83",
"*X c #857A87",
"=X c #837994",
"-X c #827B94",
";X c #837B99",
":X c #768182",
">X c #7C8284",
",X c #7C8986",
"<X c #7D8389",
"1X c #728C8C",
"2X c #7A8E8C",
"3X c #7B908F",
"4X c #788F90",
"5X c #779091",
"6X c #7B9191",
"7X c #828384",
"8X c #818985",
"9X c #8A8A85",
"0X c #83848B",
"qX c #8A848C",
"wX c #848A8C",
"eX c #8B8A8D",
"rX c #908A8B",
"tX c #83908E",
"yX c #89928F",
"uX c #868B91",
"iX c #8B8C92",
"pX c #878498",
"aX c #928B92",
"sX c #869393",
"dX c #969599",
"fX c #A1979D",
/* pixels */
"Y.S.E.Y.A.A.A.V.d.d.Z.Z.J.E.L.Z.d.V.d.s.L.S.s.V.Z.A.A.A.Z.A.Y.Y.,XY.L.J.Z.Z.J.J.J.h.d.Z.Z.Z.Z.V.Z.h.d.J.d.u.u.d.u.u.d.Z.J.J.J.g.s.s.F.V.s.3.s.V.A.A.V.x.d.d.Z.Z.Z.T.T.s.s.d.d.d.t.p.3.t.s.I.Y.I.I.Y.E.A.I.J.Z.d.Z.Z.Z.Z.J.g.g.V.V.d.Z.A.V.s.s.s.V.S.L.S.F.V.s.V.",
"Z.g.A.A.V.V.s.s.s.s.s.V.A.L.S.s.s.s.s.g.Y.S.V.V.g.g.V.Z.V.A.L.V.:XH.A.S.A.A.Z.Z.Z.h.d.d.d.V.d.s.g.Z.d.d.d.s.s.d.g.d.g.s.d.s.s.3.t.s.s.s.3.~ 3.s.s.s.u.s.Z.d.s.d.s.s.s.3.3.t.y.p.t.s.s.s.s.V.L.F.F.A.S.s.d.L.A.s.s.s.s.g.d.s.u.3.s.s.s.s.s.3.3.3.s.V.Z.s.s.s.s.s.",
"s.3.V.Z.Z.z.s.s.4.3.3.4.V.V.s.s.u.g.Z.J.Y.S.S.s.3.s.V.V.s.V.V.s.S.H.S.Y.A.V.s.g.L.A.d.u.u.s.V.Z.h.d.u.u.s.u.t.d.g.d.g.g.s.s.s.s.3.s.s.s.t.t.V.s.u.t.t.u.s.t.t.a.p.3.3.~ ~ 3.p.s.Z.V.V.V.s.F.S.L.A.V.g.s.Z.L.V.t.3.3.3.s.d.d.t.3.s.V.s.s.s.s.s.V.V.V.V.d.Z.Z.V.s.",
"s.g.S.V.Z.V.V.s.3.~ ! ` t.3.~ ` ` 3.t.s.s.u.3._ ~ 3.4.3.3.o.3.3.s.s.4.3.3.~ t.u.s.s.s.t.~ ~ 3.~ ~ ~ ~ ~ ~ ! ! ~ t.t.t.u.t.t.t.3.3.t.t.t.t.t.3.3.~ R ~ ~ ~ ~ O.3.~ ~ ! ! ~ ~ 3.3.3.t.3.t.3.s.s.s.s.s.s.s.s.u.3.~ ! ! ` 3.t.3.3.3.3.3.` 3.3.3.s.s.s.s.V.s.V.S.g.s.",
"s.Z.S.V.Z.Z.Z.s.3.T c x 3 3 3 5 5 5 5 5 5 4 > - i b D b b b a i > 3 5 5 3 3 3 - V T Q V > > > - y b b n n b a b x m m V V V V V m Z Z Z Z Z m 5 i b D D D D b b > > > - b V Q m - 3 x x x y y > i b D D D n b y > - y b y x y 3 3 3 3 5 5 5 V ` 3.3.s.s.Z.Z.s.3.",
"V.V.V.s.V.s.s.T 3 3 x x 5 5 5 x 5 5 c c 7 5 5 > D P  .Y Y  .I n 4 5 7 5 6 6 4 - *.x.a.t.4 4 5 > D H Y  .Y I H I V ~ t.i.i.i.u.u.t.u.i.i.i.i.W c H P 2.5.2.o.Y I 5 5 5 - Q a.p.T 3 x m m c c 3 - D I o.5.o. .D b 3 x x m x m n x x x x x 4 1 1 5 E 3.s.s.d.d.d.s.",
"g.V.V.s.s.3.m > c m m c c c 7 c c c N C C v v x Y 2.7.w.w.7. .I c v M M M v c 5 y.U.U.d.c c m x Y  .7.0.8.8.5.2.W h.,X,X,X,X,X,X,X,X,X,X,XW.i.Z Y Y 7.0.w.0.5.Y c c m x p.XXT.y.c B V T T L B x Y 5.0.w.7.8.o.o.m m B V V J V m x m m c 7 7 7 5 5 T s.t.V.A.d.s.",
"s.s.g.s.3.V > c V V c c V V m c 5 c C Z Z Z N c 2.w.r.D.w.7. .Y m C Z Z C Z Z c a.&X&XK.v C N c o.5.q.e.w.0.5.6.` L.2X1X1X1X1X1X1X1X1X1X4X,Xi.E o.5.r.D.r.w.0.2.m V Z m x.>XI.m.V J E _ _ _ L m 2.7.r.D.D.w.8.8.B V Z E E V m N V V V c x c v v c 5 W u.s.s.s.t.",
"s.s.s.3.! 3 c V V m R ~ B i i b c 5 7 C A A C c 5.0.w.r.w.0. .o.V C A Z Z S Z v T.aXqXU.C C C c o.7.0.w.w.w.0.8.] P.3X3X5X3X2X2X5X2X2X2X5X8Xi.E 2.w.r.D.D.r.w.5.T E E m x.XXXXJ.T E ! ` _ ( E B 5.w.G.}.}.D.w.8.B V E E Z N E ! J a i i b c c m 8 8 c ~ 3.s.t.3.",
"s.s.g.3.V 3 B B V ~ T t # # : & & y 3 c Z E Z m 2.7.w.D.D.w.5.o.V C A A S A Z V U.dXfXR.Z Z A m o.5.0.q.q.w.0.7.] j.Q.8X8X8XQ.8X8X8X,X8X8XW.i.E 5.7.w.{.D.D.w.6.T T E m x..X.Xx.J E ! _ ( ( A m 5.w.G.}.}.}.G.z.J T T Z V W L t & & & $ & 2 y c v 8 v W 3.u.3.O.",
"s.s.d.t.c 5 B B T J : y B ! ! n : # ; 3 m A Z v 2.7.w.D.D.e.7.o.m C A W W A Z V &XaX7XK.C Z V c  .5.q.q.e.w.7.6.W ' i.i.i.i.i.i.i.i.i.i.i.i.^ C 2.0.D.D.D.w.0.5.V Z A m x. XU.t.V E W ( ( W V c 2.w.D.G.G.}.}.B.J L L B Z J & t H Y Y H p $ : 4 8 8 v W ` t.3.3.",
"d.s.d.t.c c B m J : t ! Z.F.Z.z.J : + = x A A v 2.5.0.w.w.q.5. .m m E W E E Z m U.eX7XJ.V m c 5  .o.9.q.w.q.5.5.V Z A W S W W W W E E E W S C c 2.7.w.D.D.w.7.5.c c m m a.I.U.x.T E W W W T B m o.7.D.G.G.G.D.8.J J J c V : t Y Z.B.B.V.I : + - 5 8 v W 3.s.s.t.",
"s.s.g.3.x c x c i & n V.B.z.z.z.3.i @ @ 3 C A m o.5.w.0.q.9.1.o.B m u.] Z W A m K.eXqX&XU.K.y.Q  . .5.q.0.0.5.o.O.m.x.a.K.m.x.U.y.K.XXJ.XXU.I.t.o.5.w.D.r.w.7.5.O.O.p.3.z.XX Xm.Z E W E h.` B m 2.7.w.D.G.G.B.z.J J B m i # H Z.z.z.8.z.4.d & = 1 v v W s.g.s.t.",
"d.s.s.3.c c x y 2 : ! B.z.z.z.z.s.J # + - v C m o.5.0.q.0.q. .2.V m ' W Z W E m m.qXeXiXqXaX&Xa. . .5.q.0.7.5.5.F.uX0X&X&XXXXX&XY.iXdX<X<X0XqXm.2.7.r.w.w.0.5.5.p.x.I.n.I.0X*XJ.Z E E Z u.E B m o.0.w.D.G.G.w.8.J V B x # # Y Z.s.z.s.z.z.H 2 # 3 c v ` s.V.Z.s.",
"d.s.s.3.x x x y : 2 ! z.z.z.z.z.z.L ; @ - m V m 2.5.0.w.w.7.5.5.V m ] W Z W A m d.7XeXaXiXqXXXa. . .9.q.7.7.5.5.F.0X>XiXXXXXT.x.Y.<XwXwX:XXXXXx.6.5.0.0.w.0.5.7.x.x.x.XX0X0X0XI.Z A E A u.W m m  .q.w.D.G.G.w.8.T Z V b @ & Y B.B.B.B.B.B.I 2 # - m V ` s.V.s.t.",
"d.s.d.t.x x c y : # n s.z.z.z.Z.V.B ; ; > V V m o.5.w.r.w.w.5.o.V m t.~ Z W A V d.>XqXqX&XK.m.O.I  .5.q.q.0.5.o.p.I.0XT.F.>XT.V.Y.I.>XeX:XXXXXt.2.5.w.w.e.w.7.7.y.x.J.J.XX0X0X.XE E W E i.E m m o.7.r.G.G.G.B.w.J T T c : $ n 4.B.z.B.B.B.H & # 3 m V ` u.u.t.3.",
"V.z.V.s.c m B c > + t I s.Z.Z.Z.! y & = x Z V c o.5.7.0.7.7. .o.V m t.~ T W T m d.wXqXU.W T V c I  .1.5.w.w.5.2.m J ! E T W E E W E E W E S Z m o.7.w.D.D.w.7.5.m T E T I.iXeXI.T E W E i.E B m o.5.r.G.G.G.w.w.T T T c y & t J s.V.V.Z.~ t @ = x B V ` 3.3.3.3.",
"s.Z.Z.s.m V T V y ; # t n ! ! H t ; ; - m A C c  .1.0.w.w.q. .o.V m t.~ T W T m Z.wX>Xx.V V B x I  .5.5.0.w.5.2.B V T T E E W W E A E E W W A m o.7.w.D.G.w.5.2.V Z T m U.pXqXI.T E W E u.E V B o.7.D.G.G.G.w.w.E T ! V x t & y H Y Y H i $ @ - B B V ` s.s.t.3.",
"V.V.V.s.m V E E m 3 ; + $ : t : $ ; = c A A m J 5.5.w.w.w.0.5.2.V m t.~ E W T m S.tXY.d.V V B c I  .1.7.q.7.5.5.B B T T E E W W E E W ! W W Z m o.7.e.D.D.r.q.2.V T E V K.&XqXU.E E W E i.W V B o.5.w.G.D.D.w.w.~ Z E T m y t : t p t < & # = m T Z V ` S.H.V.s.",
"s.s.V.s.c m E W E m 3 = # # ; ; ; - c C A Z c Y  .1.q.q.w.7. .o.V V t.~ T E T m L.yX:XV.V m c y P Y 1.5.7.7.w.2.c c B B m V V V V B B V V V m b o.0.r.D.{.D.0.5.m m V m x.T.qXm.A E W E i.~ T V ! 5.0.D.D.D.w.w.4.V T E T m 3 : = # = ; = - c Z E V v ` V.V.s.u.",
"V.s.V.u.c v E W W E V c x - - > x m C Z C m J  . .9.q.q.q.5. .! C Z u.W Z E T m Z.>XL.Y.A.3.O.Q I  .5.7.0.w.7.2.O.p.d.J.d.d.a.m.y.s.T.J.s.F.I.O.o.7.w.D.D.D.0.6.~ O.a.y.J.&XR.a.Z E W W i.~ Z Z L 5.0.G.G.D.B.w.w.~ B T E E V c 3 > - > c C Z W W Z N ` s.V.s.3.",
"Z.S.S.s.c v A E W ~ ! T Z m m m Z V Z V c m o. .1.q.q.q.5.o.2.E Z Z t.W Z W T m Z.8XY.:X.XF.z.o. . .5.0.w.B.w.8.F..X<X.XI.F.x.I.I.Z.uXyX.X<X0XF.5.7.w.D.w.w.8.6.x.x.U.U.U.T.K.a.Z T W W d.W Z A V 5.7.w.w.w.w.w.7.2.J V E W W E Z V V V A S W W W Z N ] s.A.S.s.",
"Z.S.Y.g.x c v C Z E T Z Z Z V V V m c x m o.5.5.5.q.q.9.5. .o.T E T u.~ Z E Z m m.I.I.F.Z.F.4.I  . .7.0.w.D.w.w.z.L..X.XI.F.x.s.m.x.T.>XF.F.Y.p.5.7.w.r.r.e.7.8.p.p. XK.XXU.J.d.Z E W E i.~ Z A V ! 7.0.0.r.D.B.7.1. .L m V E E E E T Z Z E W A Z N v ` s.V.S.V.",
"Y.Y.T.d.3 - 5 x c m c c c c c c c m J ! 5.5.q.0.q.e.q.7.o.5.~ Z E E i.~ Z E Z m y.x.z.Z.F.x.3.J Y  .7.w.D.D.B.8.3.s.a.J.p.3.y.t.a.y.s..XI.F.F.3.o.5.w.r.r.0.7.8.O.t.x.x.J.I.J.d.T E W E i.W Z W Z J 5.5.7.w.w.r.r.7.1.5.! L B B m m m m m m m v v c x E g.S.L.g.",
">XW.W.V.b n I o.o.o.o.o.2.2.o.o.o.2.6.7.7.w.r.r.e.w.q.5. .3.E E E E i.~ C E A c O.x.x.x.E J B x Y 5.0.w.w.z.w.6.m J J T T Z Z E E E E E E E V c Y 5.w.w.w.0.5.o.m V Z Z p.I.U.J.T E W W i.W Z W A V ! 2.7.w.r.D.w.w.7.5.1.2.2.2.o.o. .!  . . . . .Y I 3.g.Y.L.g.",
":XT.Y.d.D I 2.7.w.w.0.0.w.w.0.0.0.7.w.D.D.D.r.r.r.0.7.5.8.~ Z E W E t.W Z W A c 3.Z.x.a.J J B b I Y 2.8.6.6.o.! c B J T T Z T E W W E E E E V c I  .5.7.0.7. .I c v Z m ~ x.x.a.Z E W W i.W E W E Z V 2.5.7.w.B.B.r.w.w.7.7.7.7.7.5.5.5.5.5.5.5.5. .P 6.s.Z.L.d.",
"Y.W.L.d.I Y 7.r.D.D.D.G.D.D.B.r.D.G.G.G.D.D.D.r.w.7.5.8.` Z E E W E E Z T W Z m 3.F..XF.T J m y b D I Y ! o.! I b m T E T Z E E E E E E E E V x d D P I Y I D b x v Z m t.I.T.a.Z W ` E E C W W W E C T o.5.w.w.B.r.r.w.q.w.w.w.7.q.w.w.w.e.w.q.7.5.o.z.d.Z.Y.Z.",
"W.W.Y.g.I 2.w.r.G.D.G.{.G.G.D.D.{.G.G.D.D.G.D.w.7.5.8.3.Z Z E W W W E T E E T m 4.F.XXF.T B b ; : : : : y y y q : x B T ~ ~ ~ ~ ~ ~ ~ W T T m - q y i y y y y q : 5 N V x.I.x.t.E W ` ) W W ) ) W W W C T 6.5.7.r.r.w.w.w.w.w.w.q.w.r.r.w.r.r.e.w.7.o.z.L.Y.E.Y.",
",X>XW.A.I o.w.D.D.G.G.{.{.G.D.D.G.G.D.D.D.D.w.7.5.8.` Z Z E W W W W ~ ~ W E T m 4.F.F.p.V m y = a y y y i a n a y x m T N.N.N.N.M.k.l.*.m V x > I J I H H H H a t 5 m m s.XXx.s.T W ) ` ) ] ` ` ) W W E Z E 3.2.5.7.w.w.0.w.w.w.w.w.r.r.r.r.r.w.w.7.2.z.Y.:XE.S.",
"E.:XY.g.I o.0.r.D.G.G.G.G.D.D.D.D.D.w.w.0.7.5.8.4.~ Z Z E E ~ W W ~ ~ W W E J m 4.I.z.3.m c > : : O o @ # # # ; y x m T N.'. X`.'.;.;.{ m B x > b y y a y y s : t 3 c m y.I.J.x.E E ` ` ) ` ` ` ` ` ` ) W T T 3.6.5.7.7.7.w.w.w.r.w.r.D.D.r.r.r.0.5.o.s.L.Y.L.A.",
"T.,XE.d.D I 2.7.0.w.D.w.w.w.w.0.0.7.7.7.7.w.s.` E Z Z E E W ~ ~ W W W W W E V m 4.s.z.3.m m > : $ @ # @ $ @ o @ > x m J |.OX=X=X*XN.;.X.c B x > b a a y i y y : : 3 c m p..XT.J.~ T ) ) ) ` ` ` ] ] ` ` ) W E T ! 3.6.5.7.7.5.7.0.w.w.w.0.q.0.7.5. .I 4.A.Y.Y.Z.",
"L.Y.W.g.n I o.6.8.7.w.7.8.8.6.7.8.8.8.s.t.] W A Z A E W E W ~ ~ ~ W ~ W ~ E V J 3.8.F.t.m m : y : 0 0 t t : # @ > b m J  X'.OX=XOX'.;.+.c m 5 > n a n H g u p 2 t 3 5 7 ~ XXI.K.u.Z W ` ` ) ) ] ` ] ] ] ] ] ) W E A E 3.4.8.7.6.7.7.7.8.6.6.6.6.2.! I 4.A.Y.:XZ.",
"Z.J.Y.Z.b c T E ! ! ! ~ W E E E E W W W S A A W E E W W W W W W W ! ! ~ W T m ~ 8.s.s.! m x = i t y a b y : ; = y c B T  X X%X=XOXoX;.X.c c 4 > a s H k H d p t t y 6 6 E I.I.U.K.T E ~ ` ` ` ` ` ) ] ] ] ] ) ) ) W A A A W W E A E E T T E E T V B m ` L.,XY.Z.",
"L.Y.L.g.x c V T T E E T V Z Z m m C C Z A A A A Z Z E W W W W E W W W ~ E V J x.s.s.p.L m y y a y a n H b i y = b c B J N. XOX=XOX=XN.X.c m 5 > i i s B K H s p t y 4 5 m x.XXXXI.~ Z W ) ) ) ) ) ` ] ] ) W W W W W W A C Z Z C N N V V Z T L V N c c ~ Z.Y.Y.Z.",
"Z.A.S.g.m m T E E W ~ E i.i.u.t.t.' y.i.i.i.i.' t.t.A E ~ W W E W W W E T m p.I.z.p.3.B m > J a y a n H n n a : x m B J N.`.].=X*X#X'.=.c m x y d s u H U H s s t t 3 5 5 ~ 0XXXT.d.V A W W ) ) ) ` ] ) W ] i.i.i.i.i.i.' i.i.' ' ' ' ` Z W E Z V B B ` Z.Y.Y.h.",
"L.A.A.s.m c Z E W ` ` W t.] ` ` ^ W W W ~ ~ ^ W W W V E ~ W W E E W W T m R J.I.s.y.T m y b Y d a d n a a n i : b c B V l.'.#X;X*X=X`.X.m m x 3 n p s H H g s s p t y 3 6 c p.x.J.x.~ v Z S W W ] ] ] ) W ` ] ` ` ` ` ` W ) ) ) ] ] ) E V _ _ W T V V ` h.L.T.d.",
"J.Z.J.d.c v V E W ` ` W E A A E A T E A Z A A A Z Z Z E E W W E E T Z m T s.I.U.m.u.c x 3 ! I H H I H H d n y = y c B J n.OX=XOXOX*XN.X.c m x 3 a i n B H K d s y : y 3 4 5 R p.x.K.m.Q v Z W W W ) ) W W E E E E E A Z Z Z Z Z A Z A A W W W W W V V ] d.Z.L.d.",
"T.Y.J.u.c c N A W ) ` W W W W W W ~ ` W W W W W W W W W W E A Z V m m J p.J.x.x.d.C 7 3 b ! H H I I H H n n y : i c m J n.OX;X=X'.*XN.X.c V c y n d k K ,.,.U d p & 2 t > 4 x O.x.U.K.x.~ m Z W W W W W W ) ` ` ] ` ) W W W W ) ) W ) ( ) W W W W Z V ] Z.J.L.A.",
"L.J.J.t.x 5 v Z E W E E W W E E E E ~ W W W W S W W A A Z Z V m c m Q p.x.J.p.p.E c 3 y ! H I H H H H H H n y : x 6 v V n.=XpX;XOX*X`.-.c m c y n a n H / U k s e t : : : > 6 m y.J.K.F.J.y.T m V Z A A E W W W W W W A E E E E E E E E A A S A Z V v ` h.J.Y.J.",
"L.L.J.u.3 3 c m V C V V V V m V V V V V V V m m V V v v m m m J ~ p.p.J.J.J.x.E c x 3 Y H a I H H H H H H a y : y 7 c Z n.OX=X;XOX'.N.-.m m c 3 i t b Y Y K g p & 2 $ # & = 4 5 m y.x.x.XXXXm.y.E V V m V V V C C N N v V V m V V m v m m v v m m c c W d.d.J.d.",
"J.J.J.d.m R t.d.J.T.T.K.g.d.s.d.y.t.O.*.t.3.p.3.3.s.p.s.p.a.p.x.x.x.x.I.F.x.W c 5 > Y 2.H n H H H H H n D a 0 : y c c V v.OX=XOX'.`.v.-.c m x > i t n I I I H d u & & $ # : : 4 5 m O.x.I.U.U.T.J.d.y.O.t.m.m.m.d.y.y.J.J.d.p.x.a.O.*.Q ~ *.z.x.O.~ O.d.d.d.J.s.",
"A.Z.Y.d.Q O.J.T.wXdXyXwXeX0X7XY.T.7XJ.J.d.x.F.F.I.XXF.x.z.p.p.x.x.x.a.J.u.Z 5 3 > I 2.H H I H H H H H H d y 0 : i c m J n.oX;XoXOX`.:.-.c m c > i : i b J Y I I d t t & & : : : 4 5 c ~ y.x.J.K.U.K.K.J.K.0XqX&XqXiXT.K.J.m.m.XXx.p.p.p.x.n.[.F.p.k.z.J.y.d.x.s.",
"L.L.J.s.Q t.P.wXwXwXwX<XiXwX.XT.&X9XK.m.K.I.F.J.T.XX.XI.J.z.n..XI.F.d.~ c 5 > - I ! H n H Y H D D n D D a y : : i m B J n.%XpX%X%XOXl.Q c V c - y t y n Y Y H H H s t : # @ & 2 = 3 4 5 m ~ a.a.m.K.U.&XR.I.I.XX&X&XU.f.m.m.x.I..Xp.3.p.k.I..Xb.F.XXI.J.d.d.s.u.",
"g.V.Z.t.V ~ J.7X>X<X:X:XwX>XI.J.J.J.d.y.J.XXY.F.J.U.I.K.K.x.x.J.y.E m c 5 - y Y ! H k H H I H j H j H H d y 0 : b c V V v.%XpX;X=X'.=.G m V c > y y y n I I H H H d t & # @ + # : ; - 3 5 x m E y.m.K.K.U.K.a.a.U.U.&X&XK.y.y.a.x.x.x.y.p.x.F.F.T.F.x.F.a.d.s.t.",
"u.s.s.~ x c Z E W W E T T.XXI.d.E T T V a..XI.s.T T T T T T V m c x x > = n 2.Y H k k H K H d d H H k H j p t t x c v V &.`.OX#X#X`.;.X.m V x > a 0 y H I H H d d k u p t & # # & : ; = 3 3 5 c c v C A E E C v a.XX&XK.Z v V m ~ p.l.p.V Z A E E V m ~ u.u.3.~ ",
"u.d.u.~ x c V E W E V B I.0XT.x.J V J m t.U.J.t.m B V m c c c x y - = : I o.H d k K H K K H s s D d d j d t t 0 x c N Z k.N.oX].`.l.;.-.c v x > i : y d H H d s k g s u p e $ & : $ & t : = - 5 x c c m V V N m ^ d.m.m.v m N m O.p.p.3.v Z E E T m m ~ s.t.3.~ ",
"d.t.i.t.x c V Z E E V m T.qXI.y.m B V c O.x.a.y.c m m x > - = = = y H H d d s s d K P U U U k d H H H j j s p 0 i c V T n.'.].oXn.l.=.X.c m c > a y y a H d j s d s t p d p & & : $ $ & & : : = = - - 4 5 c v c ~ a.m.y.m m N c O.k.x.3.m Z A E Z N m ~ t.t.t.~ ",
"s.t.d.t.3 - x c B B c b t.F.s.Q b c c x J O.~ ~ y 3 > ; : y a H H D p & t p s d k U P U  .P k P U P H j d p t : i c V J #.-.:.l.-.X.X.G c N x - a y y a a a s p t 9 : t p t t t & % $ # + + : t y t : : = > 5 3 T *.y.R 5 5 x 3 V O.*.Q x c m m c x x T t.d.d.t.",
"u.u.d.t.b b Y o.2.2.2.2.2.6.6.2.2.2.2.o.2.2.o.o.I H a : d d s p t t e & p s k k <.<.z z <.U U U z z P j d p : t x 7 V V c m m m c c c c m v c > y : : : 0 : 0 0 : & & t p u p t t < & & + + $ & 0 t t t y b I o.5.5.2.2.o. . .o.o.o.o.Y H I Y I I D n ~ 3.d.d.t.",
"s.t.u.~ b P o.8.7.w.w.w.w.D.w.7.8.7.7.7.5.5.6.o. .I d : t $ & & e e e 9 t s k z z U z U U <.| z h k z s t 0 n Y V v Z Z T T E A Z Z A A A Z v c n i : : : : t t t t : t u p e e p u & & & & & & & $ # ; d P 2.7.w.w.0.q.7.5.7.7.5.5.5.o.Y Y o.2.o.Y H 3.t.t.t.t.",
"d.s.d.3.D  .5.0.D.G.D.G.}.}.G.G.D.D.D.z.w.w.w.7.8. .D : & + & & 9 t 9 0 p p s d h k U U U U k k d d p : y Y E v v N Z Z Z Z Z Z V V Z A A A C v c c n y : y y t p s p d p p p s u p & & e & & & & $ # ; D  .0.r.D.D.D.r.r.r.r.D.w.z.w.w.w.8.8.7.7.o.Y 4.3.3.t.3.",
"u.t.t.~ I o.8.w.G.G.D.G.G.}.}.G.G.G.D.B.w.w.w.7.6.2.H 0 $ + & e p s p p s p s k h h k P U k k k j p & y ! V 7 v 8 N N v V Z Z Z V V v v v N C C v c c i 0 : t 0 t a s a p p s p t & $ & & & : 2 & $ & $ D 2.w.D.w.D.G.G.D.D.G.G.D.D.D.B.D.w.w.w.w.5.Y 8.3.t.t.t.",
"t.~ ~ ~ I o.7.D.G.D.G.G.G.}.}.G.{.D.B.r.w.w.0.7.7.2.H 0 & + % e e r r r r r s s s s h z k k k U H p y Y V c N C 8 8 C A E J b y y i b m c c v v C N v c i y : & t a a a t t t & $ + $ $ $ & < t & & & & j 5.w.D.D.G.G.{.D.G.D.D.D.D.D.D.G.D.B.w.7.o.o.s.s.d.d.t.",
"d.3.3.~ I o.8.w.z.D.G.G.G.G.D.G.}.G.D.B.w.w.0.7.7.Y D 0 9 % 9 e e e e e r e s s s s s k k k U U j t I B c V V 8 v A B t # + + $ $ # @ & 0 b c 7 v C Z v x i 0 : t a t t 9 9 & + + # & $ & & t & $ & & & j 5.w.D.G.D.G.D.r.D.r.B.D.z.D.D.D.D.D.B.7.2.2.4.s.Z.A.t.",
"t.3.3.~ n I 2.8.w.w.z.w.w.w.w.z.w.w.z.w.8.7.7.5.o.I D 0 t 9 e e 9 e e e e e e e r s s s s s k H p H L c m V v v E y + O + $ & t 0 : & $ + + : x 7 v Z V c y a 0 t t 0 & & $ + + + + + # + + & # # & $ & n  .5.z.w.0.0.w.0.7.7.7.7.7.8.7.7.7.w.w.5.o.I 3.s.u.u.~ ",
"^ u.s.3.n ! 4.s.z.z.z.s.z.B.z.z.w.z.z.8.8.8.8.8.3.o.D y p & & & & & & $ $ & & & & : : : : t t i a ! m c B v N T : O + : a n I ! ! I D y & # @ : x 7 N Z N 5 y t 0 : ; $ & & # # + + + + + # # # # ; # ; n ! 6.8.z.z.w.8.6.6.5.5.8.z.z.8.s.z.B.V.z.3.o.4.3.t.~ R ",
"u.t.d.t.m T ` u.u.u.` E d.T.T.Z.E ! ! J 3.F.F.s.T V m y n n b n B B n n a n n n n n B B n B H J L J c N c 8 T : . + : H s.Z.F.F.F.F.Z.4.D t : @ : b c V V v x J J B B m m m m b x x x y x x i x x x x x c c m c O.m.m.t.V Z Z m O.F.F.F.` u.h.h.h.t.W t.` t.~ ~ ",
"d.i.h.u.m W h.L.L.J.u.Z x.>XI.d.J T T m O.x.I.x.V B B c x x c c c c c c c c c c x x 5 x x c c x c c B m c V y + # 0 I Z.B.z.z.z.z.z.z.z.z.I y $ @ : 5 m V V m v v v v v v v m m v 8 8 8 6 6 6 5 5 4 4 4 4 5 c x ~ I.d.a.m N N c 3..X.XF.W i.W.>XW.h.W t.t.u.t.t.",
"t.t.s.u.V t.,X2X3X8Xh.W T.iX<XI.E ! ! J p.Z.I.T.T Z T V B B m c m m m m c m c c c c x c n c c n m B B B m n + + : I z.z.w.w.z.z.z.w.w.z.z.z.I y & O : 7 V Z C N v v 8 v v v v v v v 8 8 6 6 8 6 7 8 6 6 c C C m U.rXK.J.V Z Z m z.0X:XY.` j.2X1X3XL.` t.t.s.d.t.",
"^ t.t.3.T u.,X1X5XwXj.` 8XuXuX.XE ! ! J z.XXXXs.T E E J T E E T T E T E E E T J J J J I L J J J c B B x m : O $ n V.8.8.8.8.w.8.8.w.w.w.z.z.s.D : X + 3 m Z Z C E E A A A A E S A A A A A A A Z A A Z C v Z Z v K.R.K.J.T Z Z m x.<X>X.X` J.2X1X3XL.` u.t.s.d.t.",
"t.3.t.` T u.,X4X5XtXL.` 0XiXiXwXE ! ! T I.0X0Xs.E ! W J X.X.:.k.n.+X Xn.n.v.n.|.n.n.|.(.(.(.|.l.x m c 3 b + + t 3.z.w.8.8.8.5.2.5.6.8.8.z.z.z.! t + X - c C C Z a.-.-.-.-.k.k.x.l.k.l.v.`.|.n.n.v.c.c.#.c A Z Z m.K.T.d.T Z C v x.0X<XZ.` L.2X1X3XL.` u.s.s.d.t.",
"d.t.p.3.T u.,X4X5XtXJ.` 0XdXsXwXT ! ! V x..Xn.4.T ! E J { { %.%.>.oX=X].].k.n.|.(.(.$X#X].(.%Xv.b m c 3 y + & n z.z.w.8.5.2.Y I Y o.5.8.w.w.z.6.y $ O ; 5 C C C a.@.@.l.l.:.@.v.N.c.v./.].#XOX].].).).%.c Z T V d.XXqXT.E E Z v s.>XdXL.` L.2X1X3XL.( u.s.d.i.t.",
"d.s.s.t.T s.,X1X5XtXL.` T.sX>XI.! ! ! J z.I.x.s.T E T B { =.v.>.>.^.oX+XoXv.oX+XoX$X$XpX$X#X+Xp.b B c x : + 0 I B.z.w.8.5. .P D H I o.6.w.8.8.8.D $ O # 5 v V Z O.@.:.`.OXv.c.v.`.`.].].#X$X$X#X@X@X).%.c Z E V a.&XaXK.E E E v 3.XXdXT.] L.2X1X3XL.` u.s.g.d.t.",
"s.s.V.s.E d.,X4X5XtXL.` Y.dX<XY.! ! ! J s.I.x.J.T L T J @.@.;././.:.c.oXoX;X%XpX%X].$XpX$X#X(.6.x B c x & + 0 ! Z.z.w.w.5. .P j j D I 6.8.8.z.z.I : O @ 3 m v V X.@.:.v.+Xv.>.(. X=XOXOX=X;X;X;X;X$X).@.c C Z m d.qXqXI.T E E m 3..XuX>X] L.3X1X6XT.] u.s.d.d.t.",
"t.s.V.s.E d.,X5X5XwXj.~ T.dXuXx.T E ! J K.&X&Xx.V T T T X.{ =.>./.;.>.>./.pXpX%X;X&./.].@X).c.#.x v v 5 # O & I F.z.w.w.5. .D j j D I 5.8.8.8.z.H & O # 3 c v C #.#.@.c.c.>.c.].OX X'.oX=XpX$X#X;X#X].+.x C C m U.aXdXXXT E E m x..X<XXX] L.2X1X6XT.t.u.d.Z.Z.t.",
"s.s.s.3.E i.wX1X5XwXj.~ T.dXiXY.E W E V m.I.*Xm.V V Z V G [ ;.>.>.:.:.&.@.>.+X+X>.[ } v.).&.} +.x v 7 5 ; O & H z.z.w.8.6. .P D P I o.5.8.8.8.s.D & X @ 5 v m m p.:.%.>.:.>./.oX'.`.`.].OX=X$X@X#X$X].+.x C C c I.dXdXP.E E E m s.XX0XXX] L.2X1X6XY.` u.s.d.s.~ ",
"t.s.s.t.T i.8X4X5X8Xj.~ .XuX<XXX! W ! J x.I.K.m.V V V T { [ %.>.%.} { { [ [ %.:.} F [ } $.[ [ F x N N 5 : O $ d s.z.8.8.8.5.o. . .o.5.8.8.8.8.4.y + . # x C v C l.c.:.:.@.%.>.v.v.l.v.c.OXOX].].(.OX/.@.c C N c J.iXeX>XE E E m a.XX<XT.] L.2X1X6XP.] u.s.s.s.3.",
"t.s.s.t.T u.8X4X5XwXj.~ XX.X0XU.T E E B O.x.XXd.m Z J V G F { { F F F F F F G F F F F F { F w b x V V 7 3 O + 0 ! z.w.8.8.8.8.5.5.8.8.8.8.8.z.o.: X   ; x v C C X.{ X.#.X.{ ..-.X.X.X.@.-.-.#.:.:.-.@.G c Z Z m x.aXeXY.T E E m K.qX.XY.] L.2X1X3XP.] u.s.s.u.` ",
"t.t.s.t.T i.8X5X5X8Xi.W x.I.U.K.T E T m y.T.qXx.m Z T V c b b b b i i b b b b b b y b b x b i 3 c V Z c 3 # O & d 6.z.w.8.8.8.8.8.w.w.8.8.8.s.d # . o - c V C m 5 5 5 x x 5 x 5 5 x 5 c c c c c c c x 5 c Z Z v I.0XiXY.V E E m x.>X0XI.t.P.tX6XsXL.] u.t.u.s.~ ",
"3.3.t.3.Z t.,XtXtX8Xi.E a.K.I.x.Z T Z m a.&X.Xy.m J T V m m c m B B B B B B B B m m B B B B B m B J J m 5 > + $ t H 8.z.w.8.8.8.w.w.z.z.w.z.I & X . ; 3 m V v m c c v N v c v v v v v v N V V v c v v 8 v v v c I.0X7XT.V C Z m x.Y.T.T.] j.W.W.T.h.) t.s.g.g.` ",
"` 3.t.3.m W d.j.L.j.t.Z O.U.XXp.m m m c y.&XT.y.m m c x x 3 3 3 i x x x x x m x x x x x x x x x x m J B 7 3 : + $ y I 8.z.w.8.w.w.w.z.D.z.! 0 @ X + - c m v c 5 4 4 5 5 5 5 7 c 7 5 7 7 c c c 5 4 4 , , 5 7 8 5 y.R.U.m.m v V c 3.z.Z.F.E ` t.' ] W A ] d.V.s.~ ",
"u.t.s.3.x c Z E E ~ T c Q O.p.O.x c c x ! t.~ ~ x y - = t t t t t t t t t y t t t : : : : : y 3 2 3 m B m c 3 # + & t b ! 8.z.B.z.z.z.4.I y $ O + - x m m c - : - : = = = = = = = = : = = = = ; = = = ; * - 3 > R *.y.~ x x x 3 T ~ O.~ m V Z V m c x E u.g.s.t.",
"d.s.s.3.b H Y o.2.8.2.2.o.2.8.5.o.2.2.2.o.o.2.2.o.Y D y U U U K U P k H H H H H k d H H d s g g i y c B V V x 3 # O + & : a H Y I I D a 0 $ + + = x m m c 3 2 H H d s p a p p u s s d d s p p p p y s t 0 a D H I I Y o.Y o.o. .o.2. .o.o.o.2.o.o.I I 3.s.g.s.t.",
"d.t.3.3.D Y  .7.7.8.7.r.w.0.w.0.0.w.w.w.0.w.w.w.7.2.H a k k h s h s e p p s s p s u p p e e u e e p y c V Z B c 3 # X O + # # $ $ $ $ @ + + # : x V V m x = d s e e $ $ $ $ % % % $ < & $ $ $ # + + + # t d P  . .Y o.5.5.7.5.5.5.5.5.5.5.7.7.7.5. .Y 8.Z.V.u.~ ",
"s.3.p.3.I I  .7.w.D.D.D.r.w.D.w.r.G.G.D.G.G.D.B.w.5.P a k h h k h s s h h h h h h s d u u e r s e e t 5 m Z Z N 7 3 = + + . . . . . . O @ = 3 c Z Z V c - y H < & e $ & & $ & % + $ $ $ $ $ & $ & e $ # t j  .o. .2.5.7.7.q.q.0.0.0.q.9.q.w.w.q.7. . .8.S.Y.V.3.",
"s.t.s.3.H Y 5.0.D.D.D.D.D.D.D.D.D.D.D.G.G.G.D.B.w.7.P y d h l l l z k z z k l U z k k u u s g s u & t y x v V N v 8 5 - = ; # + O + @ = - 5 m V V V m 3 : H s < e u < < t t u e < e e e & e u e e p 9 & p D  . .2.5.2.7.9.q.0.7.q.9.q.q.w.w.e.e.0.5. .8.A.S.A.t.",
"s.t.t.3.D I o.5.w.w.w.D.r.r.r.w.D.D.D.G.}.G.D.D.w.5.P s k h l l U | U U U U z | | z z k f s l f u e & p 2 3 c v N C N 8 5 4 1 1 1 - 4 x B V B B B c 3 2 I d t 2 < u t t u s s t < e e t & & t t 9 9 & $ a H  .2.5.5. .5.5.7.7.7.q.9.9.9.0.w.w.q.7. . .8.Z.S.S.3.",
"t.t.s.3.b P o.7.0.w.r.0.0.0.0.0.w.D.r.D.D.r.D.r.0.2.P a k h h h k k U U P U | U U | U s < u g g u t < 2 i t 3 5 v C C N N 8 8 8 8 8 8 v A T m x 3 = i I g p p p t i u p t t p & $ $ $ e & & 9 & t & $ # p D  .5.5. . .o.5.5.5.5.5.5.5.9.q.7.w.q.7.2. .s.V.L.Z.s.",
"s.3.3.! a D  .5.7.5.5.5.5.5.5.7.0.w.q.0.0.w.0.5.5. .D t s s s e s s j k z k U z U <.<.f e h U U l k s t t u u 2 3 B Z V N N 8 8 V B B N V V c : y J Y y t i d d d g d s u s u e t & e e & e & e e 9 $ $ p d P I I I I I  . . . . . .1. . .1.5.5.5. .I 6.s.A.Z.t.",
"V.V.3.! a H Y o.6.2.2.5.5.8.7.w.w.7.8.5.8.8.8.8.2.Y D 0 0 & & & u p s s h k k l k z U k s k l k k d d d u t 2 t y m V V Z E Z Z E T Z V B B x : n a t t t i s H H H H d d s u t t & e & $ $ $ & $ $ # & a b I I  .o. . .Y  .o. .o.5.5.5.o.2.5.2.o.Y I 4.s.d.s.3.",
"A.A.s.~ x c Z E W W E Z O.m.J.a.T R T V x.XXI.s.V m c y s s a t & & t p p s s s s k U k s k k g k d u g d t & & y c B V :.:.%.%.>.>.:.@.m V c : & + t u u d k k H H H H H j u & $ & & $ # + + # 0 y i n m c m m t.I.I.d.J T J m a.T.F.x.J L ! ! T V B ` s.s.x.p.",
"L.V.Z.s.x c C E W S A v a.XXXXx.m T Z c m.XXXXx.m m m c x x x b s d a : & e p s s h k k k / / U / l k g g u % # i c B J @.$.$.$.&.~.>.+.m Z m 3 t # t u s k H k k H K H k d p & & $ + + # ; a J J c c c c c c x s.T.T.p.m V B c p.I.F.F.V B T T V B m ( S.H.A.V.",
"A.V.V.s.b c V T E A A V m.qX*Xs.V E E V m.XXqXU.Z V V B c c m c c c n s t & t p s g k U U / <.<./ / U k g u & & y c m V { $.~.~.~.).~.:.m Z m y y & : t s k P H H k k g d a p t : # + ; a B m c x x x c V V m c Z.wXY.s.V V V m p.Z.F.T.V V E E V B m ( V.Y.Z.s.",
"V.d.V.t.3 y c V V m m m p.&X Xa.J m V m a.K.*Xm.V m m m m m m m m c c x b d t 0 s d k H H / ,.U K H K k g u $ # y c c V { } ~.^.~.^.>.-.c V m 3 y & t t d H U K K k k d d s p & & : d B c x x x x c c m m m m m L.yX.Xs.V m m m 4.F.Z.s.B m B m m c c ~ g.S.g.3.",
"t.s.s.~ m O.J.J.x.p.p.x.K.I.I.U.a.y.a.p.x.R.R.a.y.a.f.m.Z.J.d.t.T m c c x b a t : t s k H U / U U U / K k s < # i c v V @.$.~.).~.!.>.#.c V c 3 y t t s d k K U U U k d d s t & y L m x 5 5 c m R ~ d.d.Z.Z.d.d.T.>XJ.L.F.3.p.s.x.z.x.p.O.p.s.~ p.t.O.Z.d.d.s.t.",
"d.d.d.t.Q z.0XiX0X0X.XXXiXXXI.XXXXI.U.K.K.U.m.m.K.K.U.W.8X8X8XqXT.y.T c c c x i t : t t d K K K K K H H H d 2 # y v N V +.} &.~.~.~.!.@.c C m > t & t s d k Y  .k k k p p t ; i L c 5 5 x ~ d.d.K.7XW.8XeX7XT.9X7X<XY.:X.XF.F.F.Z.F..XI.x.F.XXJ.>XT.F.I.V.d.s.s.",
"Z.u.d.s.J O.F.>XwX.XI.<X0XXXI.F.I.x. XK.T.K.x.m.K.m.K.9X9X8XqXeXeXT.d.t.T c x x y y : 2 u g K U K K K K K s : # 3 8 N V +.} $.&.).~.&.} c V c : t 0 p s j H K K d u t : & # i B x 5 x R s.:X>XT.Y.T.Y.XXI.I.I.qX7XI.I.F.Z.F.z.s.Z.T.qX<XI.z.I.x.I.I.x.I.V.A.Z.s.",
"J.d.u.3.J O.x..X.Xz.F.XXT.I.x.s.x.a.m.x.F.x.d.a.d.m.J.L.K.K.U.P.P.Y.T.&XI.~ c x x y y : t i s d H g d d s & # # y v V V +.[ $.>.).&.} +.m v 5 : t t d d H k P k h u u 2 # y B c 5 x u.>X<X8XY.L.A.x.s.h.d.x.Z.J.J.s.p.x.F.x.s.4.s.s.V.XXT.J.x.a.x.s.O.J.L.L.Z.s.",
"Z.V.s.3.b c V E E E W ~ W W W W W E E E E E E E E E E E W W ~ y.J.XX0XT.I.s.u.m x 5 i y 2 t p y i d g d d t & ; i m V T %.$.&.c.).).&.@.c B 5 : p p d h k k H k s s p ; t n c 5 m s.wXiX:X>X>XP.Z.` ~ E Z Z Z Z V V T E E E E E E E T E E E E E J B m ~ Z.L.A.s.",
"J.A.s.! x c Z W ~ W W W W ` ` ) W W S A W W W E E E W W A A A C Z ] x.Z.x.K.U.d.m x x y t & p s d d k g g i 2 ; i m V T +.} &.&.>.).c.#.m V c : y p p d k P P h p t : : H c 5 c d.:XwXwX:XT.d.W Z T T T E A Z Z Z T E ! W E ! ! ! ! E E E E E E L J m ` g.A.A.s.",
"J.L.g.~ c B W ` ] ] ` ) ] ] ] ] ) W W W W W W W ) ` ` ) W W W W A Z Z t.x.T.T.I.~ c c 3 y : & : s s s g g s : ; y c V T #.%.>./.]./.c.#.m B x : p t p d P P H d s t & n m x x t.>X>X0X>XY.~ Z Z E W E W W W E E E W ~ ~ ` ~ ~ ` ` ` ! ! ! ! _ ! ! T V t.J.Y.Y.V.",
"L.V.Z.s.m V W ` ] ] ] W W ~ ` ` W A A W W W W E W W W ) ) W ) ) W W A C t.Y.A.A.z.T c x 3 ; # + & : : d d t t : y c B T #.+.&.(.oX].(.#.m m y ; t 9 p h P P k d p : t B c 5 J Y.wX0X.XZ.E Z E W W W W W E T T T T E W ~ ~ ! ! ! ! ! E E ! _ _ ~ ! L V t.J.Y.Y.Z.",
"J.Z.Z.s.c m E ~ ` ] ` W h.d.h.d.i.i.i.i.i.i.i.i.i.i.W W ) ` ` ` ) W W A Z t.S.S.g.4.m c 5 : : # & t d k d s i : y c m V #.v.].#XoXoX(.#.c B i ; : & p k P k d d t $ a c 5 x 3.Y..X.XJ.Z Z E W W W W ~ W T ` i.u.u.i.i.i.i.i.d.d.d.d.s.` J _ _ ~ ! J J t.J.Y.J.d.",
"J.L.L.s.c m T ~ ` ` ~ W ] ~ ~ W W W W W W W W W W W A W W ` ` ` ` ` ` ) E Z u.S.E.Z.( c c - : # : p g d t t 2 # y c m V +.&.).).c.+X/.k.c B x : & & p j k k d p : ; x 5 5 T Z.F.I.I.E V E W W E W ~ ~ W E ~ ~ E W W W W W W ~ ~ ~ ~ ! E J ! _ ! W J V ` J.Y.J.d.",
"Z.A.L.t.x c B Z W W W E C Z V V V V V Z Z Z Z T E E E ) ) ` ` ` ] ] ] ` W E T s.8XXXt.m c 3 y : & & p d i t & & 3 x m B @.$.~.).).%X(.x.m B c : : & t s h s s t $ t c x x s..XZ.I.t.V E E W ~ ~ W W W W W T J T Z Z J V V V J J V B B J J L T T J B m ` Z.Y.L.d.",
"Z.J.L.g.3 > x c m V V m m m m V m m m v V Z E W ) ( ( ` ` ) ` ] ] ] ] ] ] W Z O.x.J.x.T c x 3 t # $ 0 : 2 & # # : 3 c V %.$.).).#XpX+Xx.m B x ; : $ 9 p j p t & ; a x c m F..XF.s.Z Z E E W ~ ~ ~ ~ ~ W ~ ~ ~ W W T J B B B B B B B n n m m m m m b x ! Z.Y.Y.d.",
"J.Z.L.d.b D I  .o.2.2.2.2.2.2.2.2.2.o.I J m m Z E W ` ` ` ` ` ` ` ` ] ] ] W Z ~ m.XXK.~ m c 3 t $ & : & & : # # : 3 c m :.~.).).@XpX+Xk.m V c = 0 & 0 s j d t & t c c c R Y..XF.3.V E W W W W W W ~ ! ~ ~ W E T V m m J I ! o.o.2.o.o.o.o.o.o.o.o.I I 3.L.Y.L.h.",
"Z.Z.Z.d.D P  .5.7.7.q.q.q.0.0.q.7.7.0.5.7.6.~ V m A W W ) ) ) ) ` ` ] ] ) W A Z a.J.m.t.v c > = # + # # & & @ + = 3 c V n.).).).$XpX+Xk.m B x ; : & t p p s p & a x c c O.F.Y.x.! V E W W W W E W W W ~ W E Z m m I o.2.5.5.6.6.5.8.0.8.8.8.7.w.8.o.o.s.A.W.Y.d.",
"d.d.d.d.H Y 5.7.7.q.w.r.r.w.w.w.0.r.z.w.7.8.5.2.! m V A W W W ) ) ` ] ) ) W W Z d.d.J.a.v m 3 : & + + + + + o + = 3 c B :.&.~.$.&.=X+Xl.m B x = : & 9 0 t t 9 & a 5 c c 3.F.B.s.T Z E W ~ W W E W W W E E V c I o.2.6.6.8.6.w.7.7.w.b.z.w.z.w.z.w.6.o.z.Z.T.T.u.",
"h.d.d.d.H  .5.9.q.q.q.w.r.w.w.w.w.w.B.B.w.w.8.5.2.! m v Z S W W ] ] ` ) W W W Z d.U.U.K.C v 4 ; ; # + + + # # # : 5 m V ..{ { [ F :.k.O.m B 5 ; : # # $ $ : & : y 5 c c ~ s.F.z.E Z E ~ ~ W W E E W W T m m Y o.2.7.w.w.w.7.w.w.w.b.D.w.e.D.G.G.z.5.6.z.Z.L.J.d.",
"L.Z.h.t.D I 5.q.w.w.e.w.e.w.w.w.w.r.G.D.D.D.D.w.7.5.o.V v A W ` ) W W W W W W V y.T.T.K.C v 5 = b D H H H I H n x 5 N V m c c c c m m m V N 3 = a b D H P I H H m x m c O.z.F.x.Z A W E E A W E E E E m m o.o.5.8.w.z.z.B.B.w.w.w.w.w.e.D.G.G.}.D.0.5.z.d.J.J.u.",
"Z.Z.h.] D I 5.9.q.w.q.q.q.q.q.w.w.w.D.z.z.w.w.w.w.8.5.o.m V W W ) W ] ] E ) W Z d.T.XXK.Z V v 3 H I  .5.5.o.Y P b m Z A E T T E T E E E E Z 7 > D P I  . . .I I x m T m p.Z.z.z.Z A W A ] W Z E E T V c o.o.5.8.w.w.8.w.z.w.w.0.8.9.0.w.e.B.D.G.D.8.o.s.d.d.d.t.",
"h.Z.J.~ d H Y o.1.1.1.5.5.5.5.5.7.9.0.0.w.w.w.D.G.w.o. .! m Z W W E i.] T ) W Z a.U.&XK.Z V N x I  .7.0.0.7.5. .c V Z A E E W E E W E T E Z v 5 I  .5.7.7.5. . .c m T m O.s.Z.F.A E W A i.W V T V V c Y o.5.7.w.w.0.w.w.8.5.5.5.5. .5.5.7.0.0.0.8. .Y 4.s.d.s.t.",
"d.d.Z.t.b H Y 2.5.5.5.5.5.5.5.5.5.7.8.7.0.0.z.D.D.0.7.5.5.! m E E E i.W Z W A V m.&XU.K.C m c x o.5.w.w.w.q.5.2.x c v V V B B V V V Z V V m c 3 o.5.w.w.w.0.5.o.c c m m 3.z.Z.s.Z E A A i.W T E V c I  .o.7.0.w.0.7.8.5.5.o.2.5.2.o.o.o.5.7.6.6.2.Y I 3.3.s.s.u.",
"d.d.d.t.x c V T E E E E E E E A E E ~ 4.5.5.0.w.z.w.w.0.5.5.J Z E A u.W A W Z V a.U.U.7XL.a.^ ~ o.5.7.0.w.w.7.5.Q O.x.m.x.O.~ p.t.3.x.a.t.d.u.T o.7.w.r.r.r.7.5.! ~ O.3.d.F.I.s.Z Z E Z i.W T E V c o.o.0.w.w.0.0.5.o.2.3.3.~ ! E E E E E ! W E T B m ~ ` u.s.t.",
"u.d.Z.u.x x m Z T T Z C Z A A Z C C N V ! 6.5.w.z.w.e.w.5.o.! V A A i.) Z W Z v J.aXR.K.L.K.d.*.2.2.7.7.0.w.7.2.O.x.XXXXn.x.J.J.T.K.&XXXI.J.J.t.5.5.w.r.r.r.q.8.a.P.Z.Z.d.x.F.s.Z Z E T i.W Z E m L o.5.w.0.w.8.7.o.6.3.E Z T T E E J T Z T E E J m m ~ ~ t.t.~ ",
"t.t.t.` c c V E W W Z V V V N C C A A C V T 6.5.8.b.w.w.w.5.o.V Z A i.` A W Z C f.*XU.f.K.m.a.~ o.o.0.w.w.r.7.2.6.+XpX.XF.F.I.F.I.XXXXU.I.I.T.a.5.5.w.w.r.D.w.8.d.U.K.J.I.T.I.s.V E E T i.W Z E m  . .7.0.w.e.0.5.6.` Z Z Z A T E E L T Z T ! W E J J ` 3.` 3.` ",
"` ~ ` ~ c m Z W W T N V E T Z V v v C Z Z m ! 5.0.D.b.w.0.5.o.T N Z i.] A W A v f.R.&XR.K.y.^ R Y  .7.0.w.0.5.5.s.J.XXI.z.s.s.p.I.I.J.y.x.x.K.y.o.5.q.w.q.w.0.7.t.d.d.a.K.>XY.x.V A W E i.W Z V J  .5.0.e.G.D.w.5.3.A Z E Z C Z E T T V m B T E E T V ` 3.3.` ~ ",
"u.` u.` c m Z Z Z V E ` ! n b b c 7 v Z E Z m 3.0.b.b.b.e.9.o.! v Z i.] A W A c a.R.&XK.Z v c x Y 5.7.7.0.5. .o.V J T T E E ! E ~ ! E R W E T m  .7.w.r.w.w.w.8.B V T V x..XI.s.V E W E i.W V m I  .5.e.b.b.w.6.3.A C Z V N E ~ J b i n m x m Z T V V ` 3.t.3.E ",
"t.] y.~ x c C V m W T i y y : & : y 5 v Z A v ! w.w.w.e.w.q.5.o.V Z i.) A W A N *.a.J.m.m m m c Y 2.7.q.7.7.5.o.V V Z E W W ~ ! W W ~ E W E Z m 2.7.r.D.r.D.w.5.V V T m y.&XU.s.V E ! E u.W V m o.2.8.D.D.D.w.6.` C Z Z N E V ; ; ; ; : : y x m V V V ] t.u.t.~ ",
"u.t.t.~ x m V m Z T t a L ~ ~ n p & : 5 v Z v V 8.8.0.r.w.q.o.2.C C i.) Z W A v *.m.U.m.V N v c ! o.7.0.7.7.o.o.V V T E E W W W W W W E E E Z m 5.0.D.G.D.D.0.6.B B V m y.I.I.x.V E ~ E u.E B m o.5.0.w.b.w.8.6.E M Z m Z J & : D ! ! D y & y 5 v N Z ] u.s.d.t.",
"d.u.u.~ x c m c T a a 3.F.F.F.z.I : + - c Z N c 2.8.w.w.w.7.o.o.V C ' W Z W A v a.R.*Xa.m 7 5 5 o.7.w.0.7.2.o.Y c c m m m V T B B V T T V V m b 2.0.r.G.G.D.0.5.c c m m s..XT.J.V T ! E s.! B m Y 5.w.b.b.w.8.8.Z M v c T 0 t ! F.F.F.Z.Y t & 3 5 m V t.t.d.u.t.",
"u.] t.~ x 8 c c m y J F.x.z.z.z.4.y + ; 5 C Z m 2.w.w.e.r.0.5.2.V N ' W Z W Z v K.aX*Xm.*.~ ~ m o.5.0.7.o.2.o.o.O.O.O.~ u.m.m.y.p.s.x.s.I.T.x.~ 6.w.D.G.D.D.w.8.3.s.x.s.I.wX>XJ.V T W E d.~ B m o.5.w.w.G.G.z.8.Z Z v 7 n t I F.D.D.D.G.z.H : : - 7 V ] u.g.g.` ",
"^ ~ ^ ~ x c c c b y O.F.z.z.z.z.z.I # @ 3 V Z m 2.7.0.w.w.0.5.2.V N ' W Z E Z m K.aX Xx.m.x.p.O.o.5.0.7.5.2.o.2.s.F.F.z.m.XX*XI.J.T.XX.XwXiX.Xy.6.0.D.G.G.}.w.8.F.>X<XT.XX>XXXx.T T W E d.! B m o.5.w.D.}.D.8.4.T T V c y t 2.F.z.B.D.D.F.Y t ; - 7 N ] g.Z.d.] ",
"u.^ W R c c c x a a 3.F.F.B.z.z.z.! : # 3 C Z m o.8.0.w.w.w.5.2.V N ' W Z W Z m a.J.x.x.x.n.p.O.2.8.w.w.w.8.2.2.s.I..Xz.I.qX*X&X7X7XiX0X>XqX7XZ.4.w.D.G.}.}.w.z.J.T.XX.X.X&XT.F.T E ` ! d.! B m o.o.D.}.}.D.w.8.J L J x : t Y Z.z.z.z.z.Z.! 0 ; - 7 N ] V.d.t.` ",
"u.u.y.W c 8 c 5 i y L z.F.F.D.Z.Z.I : ; 3 Z Z B o.8.w.D.D.r.0.5.V N W A Z E Z m d.T.J.x.x.a.p.~ 2.7.D.z.D.w.5.2.s.J.I.F.J.U.XXI.F.T.&XqXXXXXY.s.8.w.B.G.G.G.w.w.x.Z.I.T.XXXXF.z.J T ( ! ` E B m o.7.G.}.}.D.B.8.J T J x y & D z.F.z.z.D.Z.I : ; - 8 N ' u.s.s.t.",
"t.] t.W c c v 6 3 : a Q z.F.F.Z.~ i ; = 7 A A V 2.w.G.{.D.r.0.5.V N N C A W Z v d.Y.I.K.E Z V c 2.7.D.D.G.z.6.2.T W u.u.t.3.u.d.d.i.i.i.i.u.` T 4.w.D.G.G.}.z.8.B V T T XXqXXXx.J W ( W T T J m ! 8.G.w.8.z.8.3.J T T c y & y 2.Z.F.F.F.2.a : = 4 6 C ' d.d.u.3.",
"Z.d.u.~ v 5 v 8 4 > t b I 2.2.I a t = - N A A V o.8.D.G.D.G.w.8.V Z A A A A A v d.T.>XF.V Z V c 2.7.D.D.G.D.w.4.W i.L.L.L.L.Y.W.W.T.T.L.P.T.h.~ 4.w.G.}.}.G.w.8.B V T V Z.0X<XT.E ! _ ` ( ( T B o.8.w.z.G.D.w.8.V T E B 3 2 t n I 2.o.I a : ; - 6 6 Z d.Z.Z.t.~ ",
"d.A.Z.t.E 5 v v 5 > y t a d a t 0 : = 8 A S A m 2.7.w.G.{.{.r.8.V C S S S A Z m g.:XY.x.Z E Z m 2.0.B.D.B.w.7.8.( h.,X6X2X3X5X3X6X3X2X3X3X3XT.` 8.w.G.G.G.G.z.w.J E E V F.0XuXT.E ! ` ` ( W Z m 2.8.B.D.G.D.z.8.V Z E Z c 3 y t y a t 0 : ; * 4 6 6 ] Z.Z.S.t.~ ",
"Z.L.L.d.t.v c m m 7 > : : ; $ ; = - v C A S A m o.7.D.G.{.}.D.8.N C A A A A Z c u.7XT.d.Z A Z m o.0.D.D.D.D.0.4.( h.,X1X1X1X1X1X1X1X1X1X1X5XT.` 8.w.G.G.D.D.w.8.T E W J x.>XwX0XL W ( ( W E Z m 2.8.8.z.G.D.w.8.m B T T V x - > : ; ; ; * * 4 8 7 Z j.L.S.A.d.t.",
"Z.A.L.g.s.~ v m V V v 5 3 - - > 5 N A A A A Z m  .0.D.D.G.D.w.6.v N Z Z C Z C c t.&XU.d.N Z C c ! 5.w.B.G.B.5.2.W h.8XsXtXtXtX6XtXtXtXtXtXtXL.~ 8.w.D.D.B.B.5.6.J E E V s.XX.XF.T E ! W E T V m o.5.w.z.D.z.w.6.m m V L Z V c 3 - = = - 3 6 7 m Z h.J.L.Y.Y.A.s.",
"d.d.L.A.s.s.` T V m v v c v c v N N C Z C N N x Y 5.7.w.B.w.7.2.7 6 8 8 v v m 5 ~ J.a.y.c v 8 5 I o.8.w.8.5.o.o.Z ` h.J.J.Z.L.J.j.j.h.j.j.h.u.T o.2.8.z.8.8.o.o.m B J m O.x.I.x.B V J T L V B x o.o.8.8.8.5.2.! x x c m B B B c x x x x x c c E j.L.Z.A.Y.Y.A.s.",
"d.s.S.Y.S.V.g.s.` ` A A Z Z Z Z Z Z Z Z Z Z C m ! 6.z.z.z.w.7.2.m v C C V C V c f.R.d.d.m V V c ! 2.6.8.8.7.2.2.T W ` ` ` ` t.t.t.] ] ] ] 3.` T ! 3.4.8.4.3.o.o.J T E B 3.s.x.x.V V T E T E V c I o.6.8.8.6.2.! m m B B J J J J V V B J T ( i.L.h.s.V.Y.:X,XY.s.",
"d.x.Y.,X:XA.Z.S.g.g.h.j.j.J.j.j.j.J.j.j.j.j.j.d.L.:X,X>X>X>X:XY.h.j.j.j.j.J.h.d.7XqX7XT.h.h.h.d.A.Y.Y..X>XY.L.L.h.j.L.L.L.L.L.L.L.L.L.L.L.L.J.h.J.T..XY..XY.L.L.g.Z.Z.h.T.7X0XT.h.Z.J.J.Z.J.h.d.I..X>X>X>X:XY.I.d.g.h.V.Z.Z.Z.Z.h.h.Z.Z.Z.Z.g.t.3.3.Y.>X:X:XS.s.",
"s.s.Z.Y.S.V.Z.Z.s.s.g.V.g.g.V.g.s.s.s.s.s.g.V.s.V.V.s.V.Z.A.S.V.Y.E.S.V.Z.Z.S.V.A.L.L.s.s.s.t.t.s.s.s.t.t.t.t.s.u.d.Z.Z.d.s.d.d.t.t.u.t.s.s.u.s.d.d.d.s.s.t.t.t.3.p.t.t.t.s.s.s.s.t.t.t.p.t.s.s.s.s.s.V.A.A.V.V.g.V.V.d.V.V.s.s.s.s.V.s.u.3.3.3.s.S.:X:X:XY.S.s.",
"s.s.A.L.F.V.Z.V.d.s.t.s.g.g.V.V.s.4.3.s.t.d.A.s.s.s.s.s.s.s.s.V.Y.,XY.S.L.Y.E.Y.Y.Y.S.g.V.S.s.3.t.u.3.t.3.t.u.V.g.s.V.Z.d.d.d.d.s.t.s.t.t.t.t.3.s.d.d.t.t.t.3.t.t.p.t.t.3.3.3.3.t.3.3.3.3.3.s.s.s.4.4.s.s.s.3.s.d.g.V.s.s.s.V.s.s.V.L.A.V.u.s.Z.A.S.:XY.Y..XS.3.",
"t.t.s.x.s.s.s.d.d.s.s.u.V.Z.V.V.V.s.s.s.s.p.s.s.3.s.3.3.3.3.s.V.A.A.V.Z.V.Y.:XE.Y.Y.S.V.g.V.s.p.u.t.u.s.s.s.s.g.s.s.g.g.d.g.d.d.d.s.s.s.s.t.3.s.s.V.d.s.s.s.s.s.s.s.t.3.3.O.O.3.t.t.3.3.3.s.s.z.V.s.s.z.S.A.u.u.t.s.A.s.s.s.V.V.A.Z.L.Y.Y.s.4.V.s.V.S.S.Z.Z.S.4.",
"s.3.s.s.t.p.t.t.u.t.t.t.s.s.s.u.u.u.u.3.3.3.` 3.3.3.3.3.3.3.3.V.V.t.s.V.s.s.V.Z.s.s.s.t.s.s.3.3.t.3.3.3.3.3.u.t.3.t.t.t.t.t.t.t.t.t.u.t.3.3.3.3.3.s.t.t.3.~ t.3.3.3.~ ~ ~ ! ~ ~ ~ ~ ~ ~ 3.8.s.s.4.3.3.p.z.g.3.! ` s.s.3.t.t.u.s.d.s.s.S.V.3.3.s.s.s.s.s.s.g.V.s."
};
