/* XPM */
static char *north[] = {
/* columns rows colors chars-per-pixel */
"128 128 234 2 ",
"   c #1F1E1A",
".  c #23231E",
"X  c #1F2A2A",
"o  c #1F312F",
"O  c #2B2C26",
"+  c #222C2D",
"@  c #2C2C2B",
"#  c #252625",
"$  c #312F2A",
"%  c #312D27",
"&  c #22302F",
"*  c #2E322C",
"=  c #2E3027",
"-  c #33332D",
";  c #37382E",
":  c #242E31",
">  c #2E2E31",
",  c #243433",
"<  c #2D3533",
"1  c #253936",
"2  c #2E3936",
"3  c #263C39",
"4  c #2C3C3A",
"5  c #2B3738",
"6  c #333533",
"7  c #343934",
"8  c #3B3C35",
"9  c #363639",
"0  c #323C3A",
"q  c #3C3D3A",
"w  c #393738",
"e  c #302F31",
"r  c #201F1B",
"t  c #423C35",
"y  c #423E3A",
"u  c #4E3B3C",
"i  c #543D3E",
"p  c #26413C",
"a  c #2B413D",
"s  c #254037",
"d  c #3E4136",
"f  c #32423D",
"g  c #3D423C",
"h  c #3F483F",
"j  c #424336",
"k  c #42433C",
"l  c #46483E",
"z  c #4A4A3E",
"x  c #49473C",
"c  c #3E3D41",
"v  c #343E40",
"b  c #403F42",
"n  c #543E40",
"m  c #2B4541",
"M  c #2B4A44",
"N  c #344542",
"B  c #3D4442",
"V  c #344945",
"C  c #3E4944",
"Z  c #354C49",
"A  c #37504C",
"S  c #434443",
"D  c #444A44",
"F  c #4A4C44",
"G  c #454649",
"H  c #444C4A",
"J  c #4B4C4B",
"K  c #494647",
"L  c #5D4A4C",
"P  c #564747",
"I  c #4D5146",
"U  c #4C524C",
"Y  c #46524D",
"T  c #525346",
"R  c #52544C",
"E  c #55594D",
"W  c #5A5C4E",
"Q  c #59544D",
"!  c #4E4E51",
"~  c #464B50",
"^  c #554E51",
"/  c #4D5551",
"(  c #4E5952",
")  c #4C5958",
"_  c #535453",
"`  c #5A5655",
"'  c #545A54",
"]  c #5A5D54",
"[  c #565659",
"{  c #545C5A",
"}  c #5B5C5B",
"|  c #59575A",
" . c #624C4E",
".. c #64514F",
"X. c #634E51",
"o. c #655254",
"O. c #6A5456",
"+. c #6B565A",
"@. c #635D5C",
"#. c #6D5A5C",
"$. c #665956",
"%. c #715C5D",
"&. c #5D6155",
"*. c #56615B",
"=. c #5C635B",
"-. c #5D675D",
";. c #616255",
":. c #62645C",
">. c #6B655C",
",. c #68695D",
"<. c #71645E",
"1. c #5E5E61",
"2. c #525E61",
"3. c #6E5D61",
"4. c #605F61",
"5. c #735E62",
"6. c #7A5F62",
"7. c #556363",
"8. c #5B6562",
"9. c #5D6964",
"0. c #5D6A6B",
"q. c #5A6669",
"w. c #5E7072",
"e. c #636463",
"r. c #6C6564",
"t. c #656963",
"y. c #6B6B64",
"u. c #656669",
"i. c #646C6C",
"p. c #6B6C6B",
"a. c #6A6668",
"s. c #746264",
"d. c #796465",
"f. c #726C64",
"g. c #756569",
"h. c #7A666A",
"j. c #736C6B",
"k. c #7C6A6D",
"l. c #796866",
"z. c #6E716C",
"x. c #67716B",
"c. c #747266",
"v. c #74736C",
"b. c #7A746C",
"n. c #7A7A6D",
"m. c #76786C",
"M. c #696D71",
"N. c #7D6D72",
"B. c #756E73",
"V. c #6D7373",
"C. c #6D7C7C",
"Z. c #667575",
"A. c #737474",
"S. c #7C7473",
"D. c #757975",
"F. c #7C7C74",
"G. c #73767A",
"H. c #757B7C",
"J. c #7B7C7B",
"K. c #7B757A",
"L. c #816C6E",
"P. c #826B6A",
"I. c #82736D",
"U. c #826E72",
"Y. c #886F70",
"T. c #837375",
"R. c #897475",
"E. c #827C75",
"W. c #847579",
"Q. c #8A7679",
"!. c #837B7C",
"~. c #8B7B7D",
"^. c #927C7D",
"/. c #7D817C",
"(. c #798179",
"). c #818176",
"_. c #83837C",
"`. c #898A7E",
"'. c #87877D",
"]. c #7B7E82",
"[. c #757B83",
"{. c #6D7D80",
"}. c #827E82",
"|. c #8C7D81",
" X c #867F88",
".X c #927F81",
"XX c #758282",
"oX c #7C8383",
"OX c #7C8789",
"+X c #77838B",
"@X c #848483",
"#X c #8B8384",
"$X c #858983",
"%X c #8B8B84",
"&X c #83868A",
"*X c #8D858A",
"=X c #848B8B",
"-X c #8C8C8B",
";X c #938385",
":X c #938589",
">X c #938B8B",
",X c #9A8B8D",
"<X c #968786",
"1X c #8D918B",
"2X c #8D9186",
"3X c #93938C",
"4X c #95978B",
"5X c #858C92",
"6X c #8C8D93",
"7X c #858B99",
"8X c #948D92",
"9X c #9B8D92",
"0X c #8D9393",
"qX c #8A9299",
"wX c #949393",
"eX c #9B9394",
"rX c #9A9B94",
"tX c #93959A",
"yX c #9C9C9B",
"uX c #979898",
"iX c #A29B9C",
"pX c #A49597",
"aX c #A38F8F",
"sX c #9DA199",
"dX c #A2A29D",
"fX c #A3A497",
"gX c #989BA2",
"hX c #8C93A2",
"jX c #A29EA2",
"kX c #B29DA0",
"lX c #A4A4A3",
"zX c #A9A9A8",
"xX c #B4AFAF",
"cX c #9CA1A4",
/* pixels */
"} e.e.1.e.e.e.1.| | [ | } } | | [ [ | } | e.[ S r.|.W.!.#X*X;X#X<XW.!.;XR.d.|.,XR.d.L.Q.k.L.Q.W.L.R.Q.;XP.6.k.h.k.Q.;XaXpXpXaX>XW.k.U.~.T.L.T.~.Q.R.^.;X.X;X;Xh.h.R.U.%.%.d.%.h.6.O.X.#.6.l.h.W.U.L.k.k.h.h.s.#.[ p.e.e.} } e.| | | | [ } e.e.e.e.u.4.e.u.e.e.J ",
"_ } e.e.4.} | } | [ ' [ [ [ _ _ [ [ | | | J @ q B.K.W.K.@X>X;XW.;XK.!.<X!.K.~.,XW.~.T.k.s.W.eXW.~.#XL.W.k.U.T.W.~.:X:X~.:XeX>XW.|.Q.K.h.g.5.U.W.Q.T.U.T.~..XL.%.+.5.#.o.#.%.+.%.+.O.o.6.%.%.3.s.#.%.d.5.O.3.r.O.K G e.e.} } 1.[ | | [ [ } e.e.1.e.e.1.1.1.e.J 6 ",
"_ _ } e.4.} } 1.4.} | | [ } 1.| } } } | c O O ` B.}.=XS.K.*X*X*X8X#X8XlXeX*X;XeXlX,XeX~.P.T.iX:X'.;XW.T.R.~.;X.X>X,X>X|.|.>X:X*X*X8X*X*XT.U.|.|..X;X.X.X.X~.k.s.s.3.O.O.%.k.6.k.T.k.k.d.h.s.s.k.L.+.g.s.s.s.l.6.L G J | p.e.} } 1.} } | [ e.p.e.e.u.e.e.1.G 6 q ",
"_ ! _ J S G S S K G S b q G S b c q S q O O 6 p.!.6X XB.N.N.8X>XiXwXtXgX>X5.!.%XuXeXeXpX.XU.;XQ.6.k.~.U.Q.Q.Q.T.|.:X:XW.W.~.~.#X>XuXeX>X|.~.;X9X;XQ..X:X;X|.~.h.s.5.%.+.h.k.s.|.:Xh.d.U.T.s.W.*XW.h.~.~.g.k.W.l.#.| F J [ G G G G c c c S J J J G K J K c w w w ",
"_ _ | S @ q 6 9 q w 9 w 9 w w q q @ q 6 $ # J OX_.-X-X*X>X;XiXjXiX;X9X8X8XW.T.j.U.>X,X,X>X#X#XT.~.T..X.X;X;XT.k.W.:X;X#X#X|.>X;X:XyXeX*X#XQ.T.|.~..X|.W.U.U..XU.6.%.#.%.h.l.L..X,X5.h.k.l.6.~.T.h.3.U.W.#.s.W.k.#.` J J G 9 q q w 9 6 e 6 w q c c q G > > q q 9 ",
"! _ _ G G c w 9 q w 9 c b q b G K G q e O + p.&X0XqXjXkXkX-XtXlXyX;X:X9X9XeX.XT.;X;X~.,X,X~.:X;X;XeXlXeX>XyX#XW.eXlXyX>X>XeXyX:X|.8X8X:XT.N.T.B.h.U.h.6.k.T.T.h.%.5.%.s.L.T.L.Q.|.h.R.s.5.6.W.W.o. .s.|.k.s.L.T.s.#.J J G J S q q q w 9 9 q c G K c G G c w w 9 ",
"! J ! S c c q 9 q q q J G S b S G S q @ # 0 ~.wXyXtXpXkX,X#X*X8XeX#XQ.9X:XL.U.~.:XU.W.:X|.T.|.|.T.eXrX:X~.;X>X|.#XiXuX:XeXuX#Xk.h.T.!.W.N.T.Q.T.h.s.k.h.d.k.h.L.L.U.d.l.T.W.U.L.L.s.U.T.h.s.W.T.+.o.j.T.l.k.b.g.l.S._ J J J S q q q 9 6 9 q c G G G b c c w 6 6 ",
"J J J S q b q q b q b J J K S q 9 q 9 @ # J ;X,XwXuX|.|.;X:XW.T.>XW.k.Q.R.R.~.~..X~.>X>XQ.~.:X:X:X:XeX>Xk.T.Q.T.W.W.W.~.!.~.W.T.h.l.N.N.k.N.U.W.h.5.h.s.+.+.#.L.T.k.h.U.h.k.h.6.5.+.%.6.5.s.T.s. .L k.k.o.g.S.b.j.k.@.J J R 8 q q q q q q G J q G K c w q > 6 e ",
"/ K J q q q w S c q G J J J S w q q 6 @ O P #.#.@.j.s.#.k.k.#.#.5.%.#.+.#.%.%.5.#.<.S.l.#.s.l.l.g.s.N.k.>.s.l.#.%.#.#.s.s.#.#.#.#.#.#.O.o.o.O.+.o.X.L P P L  .O.O.+.+.O.O. . . .L P P L n P L P P n o.L n P L O.L i P _ J J q q 9 9 w q J _ G q q q q q 6 6 6 > ",
"J R _ q q q g q q c K J J S > > 6 6 9 6 $ # # O $ $ $ - - - $ $ $ $ O O $ O % $ % % % % $ $ - $ - $ $ - - - - - - - $ $ - - % $ - $ O $ $ $ $ $ $ - $ $ $ $ $ $ $ $ $ $ $ @ @ @ @ @ @ * * - - @ * * @ * @ * @ O @ # # J J q 6 $ @ S J G J k S J G J b q w 6 6 e ",
"J ! _ G q w q 6 q q G K c e > 6 6 9 9 6 $ @ - - ; 6 7 7 8 7 8 ; 6 ; 6 6 6 - - - = = = - - = = = = = @ = * = - - - - - - - - % - - - = O - - % - - - - - - - - - - - - - - = - - - 7 7 7 0 7 7 7 0 7 2 2 7 7 < < < * # G [ q 6 - 9 J K R R y K R G S q S q - @ 6 ",
"J _ ! G q q q S S S S c e > 6 6 6 6 9 9 / J 8 8 8 8 8 q q q 8 8 8 8 q g q 7 - 7 * * * * < < 2 < 7 2 2 < < < 7 7 7 7 7 7 7 7 7 6 6 6 < < * 6 7 6 7 7 7 7 6 6 * 6 6 6 6 6 6 < 6 6 6 6 8 g g g 0 f g f 0 g 0 q 0 0 9 @ 0 ) J 8 q q y q 8 J R S K F J S K G q 6 @ 6 ",
"_ / _ G q q G J B G q O @ 6 6 G :.t.U } @XV./ 8 q 8 8 g k k g q g g g g g 6 0 4 , + , , 1 3 3 3 3 3 3 1 , 1 3 1 p p 3 a a p 3 , + & , 4 3 3 3 1 3 1 1 1 , , , , 1 1 , + : , , 1 m f 7 g D S g g B B g g g g q q - B 0._ ' @.r.p.| J J J R K R _ _ K J J y 9 6 6 ",
"_ J ! G B S G G B 9 - @ @ @ S ` :.c.).;.F.rXXX{ q q 8 q g g k g g g q g g 6 2 , 7 7 2 7 7 7 7 7 0 2 2 2 2 2 2 2 0 f 4 3 1 f 0 7 6 7 0 , , < 7 7 7 7 7 7 7 6 6 7 7 6 6 2 6 2 6 7 3 f 6 q g g k g B B B B B g q 6 G Z._ e.S.J.%X-XF.:.[ _ R J R R R J R J y 9 6 6 ",
"J J / H H c ~ ~ B 6 $ - @ q a.j.y.F.D._.y.-XdX(._ y q 8 q k q k k g g g g 6 4 1 D K D G F F F G D k k k l l D D D F D 1 0 F F F F F I 7 + k T l l F F F F F F K F J K K F K F F 1 2 6 g g k g B B B g g q q 6 G 9.' e.(.%XyXdXwX$XD.| _ [ [ } } [ _ [ _ S q 8 6 ",
"[ _ / G B G B G G w @ O q e.r.j.).v.!.).D.:.'.rXH.{ y q 8 8 g g k g g g g 6 2 , S F J J U U U F D D D F H D U U U Y C , 2 D Y U I I I 6 + j T F U F R R T T R R R R U U U F R F 1 0 7 g k g g B S B g q q 6 H 9.R ' t.$X1X$XwX1XoXF.p.} [ e.r._ J e.| [ S q q q ",
"[ J _ G S S q c c w 6 - _ r.v.'.F.m.%XJ.F.p.@.'.iXH.' y q 8 q g k g g k k 6 a 1 S F R _ _ ' _ _ R U U E _ ( ( { ' / H 1 4 F U ' ' R U 7 + k F ' ] W ] ] E ] ] _ ' ' ' ' ' ' R H , 2 7 k k g B B S g q q 6 G q.J } F.@X%X%X_.1XwXqX&XG.M.i.t.v.J G e.} | J q k S ",
"! G J q q q B 6 q v 6 @ p.-XrX%XD.-X%X#X%Xb.c.;.!.yXOX{ y y 8 q g g g k g 6 4 , B F U { =.*.{ *.*.{ ] =.&.*.=.=.' U D p f F U W ] U U f 3 D U _ ] ;.:.;.,.:.:.=.=.=.=.} =.] _ H , 4 7 g g g k B B g q 6 G 7.K ' p.p.J.%X-X3XuXwX@X].@XG.p.p.p.} | e.| G G k q q ",
"J G J 9 6 q @ > < < 9 < e.-X).n.F.F.rXb.b.c.m.c.:.%XdXXX' y k q q q q k S 6 2 + S F U { =.-.-.=.=.=.-.-.-.=.-.-.' Y D p f D U ] ] R U f 1 C U ' ] ;.,.,.y.y.,.t.:.e.t.e.:.=.' F 1 a 6 g g S S g g q 6 H 7.G | p.M.A.p._.-X3XrX1Xy.A.@XV.e.} [ G q S G @ S k 8 8 ",
"G J ! 9 @ O O O @ @ @ $ G @X/.F.2X4X2X`.(.c.F.%X`.y.1XdXoX{ y g q q g k g 6 2 + S F U ' { 8.8.-.-.-.:.-.8.-.8.-.' U D 3 4 G F ' { U U f s C U ' ] :.:.:.:.t.t.t.t.e.t.e.=.{ _ F p 4 7 g k S S g q 6 G 0.J [ p.A.].&XoX@X-X-X&X/./.oXi.=.[ q G S > < @ w 8 q 6 6 ",
"J J c @ @ @ O @ @ @ @ B O J '.$X%X4X4X4X'.(._._.%X_.y.%XdXOX{ y q q q q g 7 7 + 2 U U / ' =.=.-.-.-.8.q.9.8.9.8.' U S , 2 D F U ' U U 7 & D Y ' } :.:.:.:.t.y.y.t.t.t.=.' R _ f 3 N 7 k k k g q 6 G 7.J | p.z.V.H.].].].@XG.].@X=XoXV.} / 9 9 9 @ > O @ @ @ < > ",
"[ G @ + + @ $ y P # # 0 ) @ U F./.n.).`.(.n.F.(._.`._.t.@XlXXX' y q q 8 g 8 6 0 , 2 F F _ ' { -.e.:.e.9.9.9.8.8.( U C 3 a D F R ] R F 7 & D U ' } e.e.t.:.t.t.y.t.t.e.] _ R 0 3 N 7 8 k k q q ; H 7.K _ e.u.!.[.M.@X].A.].&X].H.&XG.u.0.g . $ P q > > > < 6 9 9 ",
"/ < # @ S ^ O.d.O.@ @ O g { O k D.,.c.c.n.n.y.m._.(.y.y.=.%XdX(.{ y q 8 g q ; 6 0 , 2 J Y / ' } e.e.e.e.9.=.=.=.( Y C p f D U E ' U U 7 , S U ' } :.t.t.e.t.y.y.t.e.=._ R f p V 6 8 g g q q - D 7.J @.a.e.A.@X[.H.oX&XH.J.@X&XG.H.p.Z.D O @ 8 o.L o.^ K q 9 6 w ",
"G q L N.^.W.B.!.P.@ * 6 @ B { O F m.m.).m.,.,.v._.F.z.y.c.e.'.yX(.{ y q q 8 8 6 6 N 1 4 J / / ' =.e.e.9.8.-.8.8.' Y D M N F I E ] U R 0 , S J _ ] :.t.t.t.,.t.,.=.} ' _ f p A 7 8 k g q 8 - H i.! [ a.p.A.@X@XA.F.oXA.M.A.A.J.G.A.C.H - 6 - y o.L r.j.g.a.} J q ",
"%.h.L.;XeX>X~.~.L.$ * 7 7 $ B { @ J _.J._._.(.F.F.v.S.y.y.,.@.).rXH.{ q q 8 8 q - 6 N , 2 U Y / { =.8.=.=.-.9.8.' / H M N D F ' =.' R f 1 B F _ } -.t.t.:.t.t.&.] _ R 6 , v 6 7 k g 8 8 - G 0.J | :.e.p.A.].@XJ.A._.S.p.p.J.M.e.Z.H - 8 8 ; y o.O.s.k.N.W.!.j.o.",
"6.#.%.E.T.g.s.s.o.- 6 6 7 8 $ B { @ _ J.@XwX%X).%XS.)._._._.F.e.%XyXOX{ y q 8 8 q 6 7 V , 2 U Y ' } =.=.=.8.8.8.{ / D 1 4 D U ' &.' R 7 + S U ' =.:.t.,.,.y.:.&.R R 7 + 0 6 8 g g q q ; G 0._ @.A.S.J.!.K.@XJ.*XD.A.A.F.F.p.p.C.H - q 8 8 7 y L L o.#.N.r.#.s.O.",
"%.O.s.T.|.#.X.r.o.* < 7 q q q $ B { - _ J.F.K.S.!.#X%X_.@X#XE.W.A.>XxXOX{ y q 8 q k 8 7 V , 0 U / ' ' *.8.8.8.*.{ _ G 3 f K U ' &.' U 7 , D U { =.t.,.,.,.:.} ' E 6 , f 6 8 k q g q 6 G 7.y J e.a.a.j.S.v.F.K.b.b.D.B.6XJ.4.C.H ; q q q 8 6 t o.` r.#.h.r.3.s.O.",
"d.%.h..XiX~.#.k.#.- 6 7 q q q 7 - B 7.6 J A.S.E.#X#X@X_.}.#X-X!.!.F.yXiXOX{ q g 8 g S q 0 V 3 f Y Y / ' *.8.9.=.' / D 3 f K U ' &.' U V p D U ' =.y.,.:.&.] ' ' 7 , N 7 8 k k 8 q 8 G 7.k K r.@Xj.b.j.F.!.D.D.S.j.!.}.G.p.Z.H - 8 g g g 8 7 y a.k.S.s.R.~.T.l.%.",
"d.d.Q.;XpX<Xk.s.#.* 7 0 q g q 8 7 $ B { O [ -XF.8X@XA.J.J.8XlXyX6X6X}.yXxX5X{ q g g g g 7 7 Z 3 2 Y Y / { *.8.=.' / D 3 f K U ' ] ' U N 1 B U _ =.t.:.=.| ' ' 7 1 N 6 8 g k 8 8 - G Z.J _ ` f._.c.b.j.K.F.D.a.b.S.S.}.u.Z.H - q q g g g g - k d.L.T.R.Q.^.;XR.d.",
"L.h.k.k.|.;Xk.O.L 6 7 g g q q q q 8 $ B 7.9 _ !.}.!.K.8XK.!.#X*XuXtXjX!.8XzX5X{ y k q q g 7 7 Z 3 2 Y / / ' =.=.{ U D p f D U ' ] ' U N 3 B U ' =.:.=.] _ _ 7 , V 7 8 k g q q - H 0._ p.F.c.v.v.c.y.v.v.v.v.y.b.S.r.@.Z.H - 8 q g B h g 7 - y %.%.6.d.U.d.s.6.%.",
"R.L.U.Q.:X#XQ.k.X.- 7 g B g g g q q 8 $ B q.@ ! 6X#X:XwX&XJ.j.S.yXuXdXlXp.-XxXOX{ y g q g B q 0 Z 3 2 Y Y U ' { { U D p f k D U ' U F 0 3 D F R =.=.] R R 7 , V 7 8 k k q q - H q.! p.#X>X>XeXeXwXuXwX%X'.'.F.c.e.@.V.H - 8 q g g g g g 7 7 y @.@.l.P.r.$.#.s.%.",
"R.Q.R.>XeX:XW.k.o.6 0 g S g g g 8 q 8 8 $ S q.w 1.uXjXzXjXuXyXtXyXwXwXzXJ.a.yXlXOX{ q g g B D 0 0 A 1 2 U Y R ' { _ D M f g D U U D G f 3 B F R ] ] ' R 7 1 A 0 8 k 8 8 8 - H 0.y J S.j.b.b.I.`.zXE.b.E.@X#X_.y.r.H.H ; 8 g g k k k g 8 7 7 t a.a.T.A.a.l.h.R.d.",
"s.N.L..XT.~.l.#.L 6 0 g k g k k q k y y 8 $ S q.w | tXgX6X6X&X@X&X%X_.%X$X'.J.-XzXOX{ g B g B B 0 0 V 3 0 U U _ ' R H m f k D U R F F 0 , q D R E E _ 0 , N 7 q k j 8 8 - G Z._ _ r.e.v.D.c.b.E.'.f.f.f.b.b.$.@.Z.H ; g g g k k j d g 8 8 7 8 #.s.T.J.A.~.Y.k.s.",
"s.s.h.T.T.s.s.#. .6 8 g g k k k k k k k 8 8 $ B 0.q 1.uXgXgXwXjXgX$X(.wXsXdXrXJ.uXxX5X{ S S g g k q 7 Z 3 0 U U ( _ D p f S D U R U U 0 , g F R R R 0 3 V 7 8 k k 8 8 - D 0._ e.F.J.J.v.!.'._.n.y.b.n.%XS.y.Q x.J ; g k j k l j j j k k g 7 q @.$.#.A.G.j.L.s.o.",
"h.k.K.~.aXS.j.s.#.; q g S D k g k k k k k 8 8 $ B q.w } 1XwXrXuXwX1X4X2X3X4XrXuX@XrXxXOX{ k k g g S 8 7 V 3 4 Y U / D 3 f S D U R R R f 1 S F U R 0 p Z 7 8 k k 8 8 - G i.R a._.@X-X_.b.E.%X%X@X#X).n.S.a.Q i.H ; q k k j l k x k k k k g 7 y #.+.#.B.oX@X|.h.O.",
"k.k.j.!.|.S.s.s.#.6 7 g S S D D k k k k k k 8 8 $ B q.- ' 1X3XlXyXrXdXsXrXfXsXdXyX%XdXzX5X{ k S k k l 8 7 N 3 4 / U H 1 f D D ' { U J f 1 g F U 0 3 Z 7 7 k k g 8 - G Z.:.v.%X4XrX4X3X_.).%X2X4X4X).f.@.` 9.H 8 q g k k k k k x x k j k g 7 k X.L #.o.A.!.T.s.O.",
"s.h.h.S.T.h.s.3.#.; 7 g k k k k k g k k g k k q 8 $ B q.9 _ wX4X4X>XdX4X%XdXsX4XdX4X%XdXxX=X{ S k g g C 7 7 Z 3 a U Y p f G U ' { U F f M S F f m A 6 6 g k t 8 - G 9.` j.'.%X3XrXiX3X3X4XrX4X'.'.%XF.r.Z.H 6 q g k k k k d d g k j g g g 7 y  .P L +.B.s.5.3.O.",
"R.;XW.Q.;XN.k.j.s.; 8 8 8 8 6 7 6 7 8 7 8 8 k g q 8 $ B q.- ' 1Xv.F.'.m.y.c.).(.).>X!.f.3XzXOX{ k g g C C 7 7 V 3 f H p f G U ' { R U 0 4 D N M A 6 7 g k k 8 - G 9.R p._.F.3X%X%X>X%X).%X#XE.F.c.;.,.C.H ; g k k S g 7 7 7 ; 7 7 7 7 7 8 7 t o.L o.#.T.W.W.s.%.",
"U.W.~.W.;XW.N.!.l.- 6 6 N N a 4 a 4 4 4 0 7 8 k k 8 8 $ B q.9 ' /.@X_._.F.).%XF.m.%XD.>.$.#XiX=X{ q q g B g 6 - f 1 3 4 0 K U U U U F 0 4 V M Z 6 6 k q q 8 - D 0.| a._.>X>X3X'.'.%X%XF.F.E.m.m.y.W i.H ; q 8 k k 8 7 f 2 2 4 4 a 4 4 0 - - t o.g.s.l.T.:X~.k.%.",
"T.~.~.;XaX!.!.#Xs.- - 7 m 4 1 , , & + + , 0 6 8 k k 8 8 $ S { $ J &X@X$XJ.%X3X%X$X1X3X>X#XA.-XzX=X{ q g g g g ; 6 0 4 3 2 F F D D G U 0 4 Z A 7 6 g k q q - G 7._ p.F.F.F.).@XF.S.'.'.).%X_.c.,.y.H.H - 8 q 8 k 8 ; f , & + + , , , 1 2 7 O t d.W.W.;X>X*Xk.g.s.",
"s.3.j.~.,XT.T.h.3.- = < 1 2 S k S S S D 2 + 7 7 8 8 8 8 8 $ B { # k v.F.).%X$Xm.).).!.`.).v.a.uXzX=X{ q g g g k 7 6 7 4 , , , , , 1 3 a A Z 6 6 g q 8 8 - G *.S } S.S.>X>XF.D.f.b.F.F.b.v.y.Q T i.H - 8 g 8 d 8 7 f + < k g g k k k 7 3 6 O t k.T.T.k.T.N.h.5.#.",
"h.g.Q.~.eX|.W.T.3.- * < , 7 K F F F F J F 2 + 0 7 7 q q q 8 - B *.O t <.f.'.@X'.A.v.E.v.v.F.F.F.yXzX=X{ q g g g B 0 6 0 5 5 2 2 4 f V Z A 7 7 g g q 8 - G 0.K ` v._.'.rX%Xf.f.:.v.F.,.<.,.T F 9.H - 8 8 g d ; ; N & < k k l l F F z f 1 - O k W.~.!.U.j.h.T.B.o.",
"N.*X|.#XiX>XT.U.s.- = < 1 2 F U R R _ R D F 2 + 0 6 6 g q 8 8 - B / # 8 :.).v.J.;.>.J.y.f.=X2XrX%XrXzX0X{ q k g g g g 7 7 7 7 6 7 7 ; 7 8 q g g g q - D i.J J r.S.%X3XdX3XF._.I.!.%X,.c.W F 8.G - 8 8 g k 7 - 0 + < l k F F F T T T 7 , * O y W.~.#XW.h.~.Q.h.o.",
"s.B.|.!.:XK.h.h.#.- = < , 6 D U ' ] { ' U D H < X 0 6 7 g g q 8 - B / . y c.y.y.:.f.F.v._.2X%X4XrX(.rXlXXX{ y g q g k q g d 8 g k g k k D k q q q - G i._ @.:.r.v.#X3X4XlXyX>Xb.f.,.,.$.Q 9.G - 8 q g k 8 6 7 X < l l F U T E E Q T 7 , 6 = t l.S.l.h.h.h.N.3.X.",
"#.#.!.T.T.W.g.s.+.- * < , 7 F Y ' =.-.} ' U F F < + 0 6 7 g q q 7 - B { # q =.p.y.$X@Xp.)._._.-X%X/.z.1XdXH.{ k g q g g k k k k D k k l S g 8 8 - G 0._ :.J.p.S.@X%X%X'.!.>X%XJ.eX).;.] H.G - 8 8 8 d 8 7 9 X , k l F U T E ] E R F 6 + < = t #.#.g.N.k.h.+.L L ",
"o.k.T.U.|.W.N.h.+.- * 2 , 2 U U { =.:.=.=.' U D F < X 9 6 7 g q q 8 - B H r 7 :.y.-X=XH.D.J.'.%X%X_.D.:.$XyX(.{ q g g d k S k l F F k k k 8 8 - D 9.J | a.A.J._.)._.c.b.).c.v.F.S.f.c.i.H - 8 8 g k 8 6 0 X < D l D I T ' &.&.W T F 7 , * = k #.s.k.W.|.T.N.o.L ",
"5.h.k.T.W.k.N.T.#.6 - 2 + 6 F U ' *.-.-.=.{ ' U D F < X 7 6 7 q q q q - B ) r 8 F.0XD.=X=XoX1X1XF.#XF.y.m.-XlXXX{ y k g g k k D D D k g 8 8 - D 9.F R :.c.F.).F.A.v.y.f.b.E.n.b.>.,.H.D - 8 8 g g 8 7 0 X < D F F I Q E &.&.&.] R U 7 , 7 - k s.5.g.h.!.U.k.#.L ",
"+.#.l.B.j.g.g.g.O.6 * < + 6 F U ' =.-.-.-.=.{ U U D F < X 0 6 7 g g q q - B Y   J $XD.tXtX0X@XG.p.D.A.p.v.e.%XlXXX' k S g g k D k k g 8 8 - G 8.F E ;.,.F.S.v.F.F.F.`.3X_.E._.c.,.x.G - 8 8 g k ; ; 0 X < F l F U E ] &.&.W &.W T I 7 1 6 = k s.#.3.U.N.s.5.O.o.",
"+.%.%.N.T.g.5.#.o.- - 6 : 6 U U ' =.=.-.8.8.=.' U U D H 2 X 0 6 0 B q q q - B Y r } -X6XgXtXOXe.G.A.A.A.F.A.1.&XyXXX{ y k g g k k g 8 8 - D { k =.D.m.).$X_./.2X2XrX4X3X2Xn.c.v.XXH - 8 8 g g 7 6 7 X < D l F I E &.&.&.&.&.&.W Q T 0 p 7 = y h.N.g.h.h.d.s.+. .",
"s.#.#.h.W.k.s.5. .- - 6 1 7 U Y ' =.8.-.-.-.8.=.] _ U H Y 2 + f 7 7 g q q q - B { r k 3XxXxXzX=XH.H.G.F.F.V.M.e.=XlXOX{ k k g k g q 8 - G 0.G [ p.F.3XwX-XrX3XsXdXzXsXzXsX).y.(.H - 8 8 g g ; - 7 X < l k F F E ] =.=.&.&.&.&.W Q T 7 , 7 = y h.B.h.N.h.h.g.#.O.",
"6.%.s.h.N.l.s.5.X.- * 7 1 7 U U ' *.=.=.=.-.8.8.-.} { / Y F 2 & 0 6 7 g g q 8 - B Y 6 _ J.tX@X}.&X&X].A.G.G.[.G.M.&XlXXX{ k k q q 8 ; G 7.K _ p.p.F.wX@X$XrXyXlXxXlX1XsX$X/.OXH - 8 8 d d ; - 7 , < k k I T T ' &.=.=.&.;.&.&.W T I 6 , 6 - k +.3.N.T.B.g.s.5.o.",
"+.X.+.#.#.5.+.O. .- - 7 , 7 U U ( =.=.=.-.=.=.=.=.=.=.{ / Y H , + 0 6 7 g 0 q 8 - B 7.@ G D.v.p.A.@X=XH.K.@XJ.G.].8.&XyXXX{ y q 8 - D 7.S _ 8.p.oX_.J.D./.@XJ./.(.F.x.=.=.Z.H ; 8 g g g 7 - 7 + 2 D k F T E ] ] &.&.=.&.&.&.&.&.T F 7 1 7 * y o.3.3.#.r.s.%.O. .",
"O.L X.O.#.+. . .L - = 7 1 7 F U ' =.-.-.=.:.-.-.-.9.-.=.' _ U H 2 + 0 7 7 g q q q $ B ( O [ A.j.A.A.J.A.J.G.A.A.&XH.8.@XyXXX{ y - D { G _ u.V.D.J.oXH.J.$X$X@X=X$XD.t.t.C.H ; g d g g 7 - 0 & , l l z T E ] &.&.=.] &.&.:.=.=.&.T T 7 , 6 - k #.#.5.s.a.S.k.s.O.",
"#.X.+.6.O.o. .+. .- - 7 , 7 F U ' -.t.:.-.-.-.-.t.t.9.9.=.{ U U Y 2 , N 7 7 g g q q - B /   S F.p.S.J.-XuX1X@X/.G.H.V.8.-XcXH.q.q.q.G _ p.A.H.G.A.G.oXH.oXJ.J.H.=XD.e.(.H - 8 d d d 7 6 N , < l k I I T E &.=.&.=.] ] =.=.-.:.] Q I 7 , 6 = k s.h.K.j.a.j.!.T.o.",
"o.L O.#.X.X.X.+.L 6 6 < : 7 U U ' -.t.9.-.-.-.9.9.9.9.9.-.} R U U F 2 , N 6 q g q q 8 $ g { 6 J F.-XuX0X-XwX1X@X@XH.z.A.V.=XyX&X=X=._ p.A./.H.H.J./.oXH.=X].H.H.V.V.XXD - 8 8 8 d ; - 0 & < l l z T E W &.&.=.&.&.&.:.:.:.:.:.W T F 7 , 6 = y %.g.s.s.3.3.#.O.L ",
" .+.#.#.#.6.d.d.o.- * < + 2 U / { -.t.9.9.-.=.*.=.8.-.-.*.=.{ ' U G D 2 + 7 6 6 q 7 7 8 $ B 9.; [ #X-X$X/.$X-X$X@XoXH.J.oXV.G.A.p.=.e.p.D.D.V.A.V.D.D.t.A.G.V.e.i.XXH $ 8 8 j d ; 7 f o * k k F I Q W W W ] ] ] ] ] -.=.&.&.&.] T F 7 1 < O y #.+.s.S.g.#.+. .i ",
"+.+.s.l.k.U.N.d.o.- - < + 7 Y / { *.*.=.=.*.{ { { { { { ' ' { { { _ D D < + 0 6 - 7 7 7 7 = B *.@ R %X%X$X$X2X@XG.H.&X=X5X&XH.V.i.p.A.V.oXH.V.H.G.D.H./.H.H.i.8.Z.H ; 8 8 d k 8 ; f o < k j z I T Q T U I T E Q E ' ' ' E E E W T F 7 1 6 O k l.#.s.N.h.5.+...P ",
"%.O.l.W.T.U.s.s.L - - 6 + 7 U _ ' ' ' ' ' ' ( ' ' ' ( ' ( U R U _ _ U U H 7 1 f 6 - 7 7 7 7 * B { - R 1X1X$X=XoX].+X5XoX@XoX].oXH./.oXA.J.oXJ.H.G.G.D.H.H.G.i.C.H - 8 8 d d 8 7 0 1 < l j x z z I z z z l F I I I U U U I T T T T T 7 1 6 O y s.%.5.U.k.s.s.O.o.",
"%.#.h.T.T.h.s.5.O.- - 6 : 2 D G G G H H H Y H D G D D D D D D D S S B D B S 2 4 N 7 7 f f 0 7 * B 8.= _ =X=XtXtXqXqXqX&X&XoX].H.H.G.H.A.oXoXoX].A.H.V.z.8.} Z.H - 8 8 d d 8 7 f a p D k k k k l k k k g g k S D k D D D k l k D S D f 4 * O y k.s.s.T.U.N.h.%.%.",
"o.O.%.l.T.d.s.h.#.- 6 7 4 , , , : : , , , , , , & + + + + , , , , + , 1 1 , 1 1 M N < 0 f 7 7 7 @ B 8.6 ' 0XwXcXgX5XgXqXqX7X5X[.oX&XoX&X&X&X[.H.H.oXD.p.u.Z.G - 8 q d j d ; f 1 p p 1 , 1 3 3 , 3 M 3 1 1 3 1 1 , 1 3 + : + , : , , 1 2 * O y h.5.T..X:X*XT.s...",
"#.O.s.N.~.s.h.T.#.7 7 7 4 , 7 2 2 2 7 6 2 2 2 2 2 2 2 2 2 2 4 4 2 2 2 4 4 4 4 4 p m 7 0 f f 7 7 6 @ B *.< [ &XtXgXgXhX7X5X7X+X[.&X5XOX=X&XoXH.H.H.H.u.8.w.H - 8 g k k j j ; a 3 0 7 2 6 2 0 0 2 f f f 0 0 f f 7 f f f 5 2 < < < 2 2 5 5 * @ k k.s.:XyXyX9X|.h.o.",
"%.+.s.N.|.T.5.5.+.6 6 7 1 7 U F H H J F D F H H H F H D D D G D G G S B B S D D 5 a 6 f f 0 0 0 7 6 O q 7.< } tXgXgXhX7X7X+X[.+X{.[.H.H.J.J./.oX/.V.e.C.H - 8 8 j k k k d ; a , k k j k k j k l l j k l l D D D D F D G F G l l D D 7 5 < = k ;X!.|.>XiX9X|.h.O.",
"h.3.k.Q.|.T.#.3.s.8 7 7 1 7 F / / / Y Y F U U U Y U F D U Y U D Y U H D H Y D D + 2 7 0 f f g g g 7 6 @ B 7.6 J.hXqX+X7X7X+XZ.M.q.u.8.u.M.A.H.D.D.A.i.G - 8 8 8 k k j j d ; 2 , k j x l F l F F F F I F F F U F U F F F U J U F F F 7 3 7 = k ~.:XjXeXiXzXpX~.s.",
"L.s.K.8X8X~.U.T.s.8 8 7 1 7 J ' { { ' ' ' ' ' ' ( ( ' R ' / U U / ( ' ( ( / U D + 2 7 f g g q 8 7 7 7 6 O / B p.7XgX].+XhXhX5XM.M.i.8.p.V.G.G.z.D.-Xq.- 6 8 8 8 k k g j d ; , + k l z T F T T T E ' Q Q T T Q U U I I _ ' _ _ R R U 7 4 7 @ x T.;XlXxXxXxXxXaXR.",
"T.s.N.*X*XW.Q.~.s.8 6 6 , 7 U U { } *.=.=.=.=.*.' ' { { { ' ' ' ' ' ' { { ' U H 1 2 7 g S B g g 7 7 7 ; O / S 1.5XtXG.[.7X5XqX{.M.u.i.u.M.oXA.A.J.uXM.8 8 8 8 8 8 j k d d ; , & D F T E E E W ] ] ` ] ] E Q Q T T T R ' ] } { ' E F 7 m 7 = k s.h.|.pXxXxXxXiXQ.",
"~.W.W.W.W.N.W.~.l.- - 0 3 7 F U ' ' ' _ R ' ' / U U U _ / / / U / / / U Y / Y H , 4 6 g C B B g 0 ; ; % S 0.J G.5XgXtXqXqX[.5X&XtX=XV.V.p.A.J.A.A.lXoX_ 8 q 8 8 8 8 d j 8 ; a , k F U R T R R R E E _ R T T F z F F U ' { ' _ R U F 0 m 0 @ k W.~.9XpX>XuXiX>Xs.",
"|.#X*X:X~.W.|.~.l.- - 7 4 7 F U R _ _ / U U _ U F F F U U / / / Y Y Y / / Y Y Y : 2 7 B B B g g 0 7 - H Z.| e.@X-X6XuXuXyXgXgXG.6XgXoX].A.p.A.V.e.@XdXXX{ y 8 8 8 d j d d ; a , l I U U U U U U F U T T R F l F F F U U U U U J F U 0 m 7 O k Q.;X,XeX>X*X>X*Xk.",
"~.*X>X:X*X~.|.:Xs.- - 6 3 5 7 7 6 6 6 9 9 6 6 7 2 0 5 7 0 0 0 0 4 4 4 f 2 7 4 4 , 5 7 B C B g 7 7 - G Z.@.r.v.y.%X4XwX>XyX>X*X:.F.0X].M.A.V.p.p.v.=.-XlXOX{ 8 k q 8 8 d 8 ; 4 , 2 7 7 7 7 2 0 0 f 0 7 7 6 6 2 7 7 0 f 0 7 7 0 7 6 7 5 4 6 O y h.U.#X>X~.W.W.S.s.",
"W.*X:X|.|.W.k.T.#.- @ < 4 , , , + + + + : + + 1 , + , 1 1 , 3 1 1 , , 3 , 1 4 4 4 0 7 B B g q 7 - G Z.} :.n.,.c.v.E.).-X*XJ./._.F._.A.e.t.e.a.t.p.:.R _.yXXX' t y 8 8 k j ; f 3 5 1 1 1 1 , , 1 1 , 1 : , + + + + : + + , , , + + : 5 4 6 - y 6.g.#X#X#XW.T.Q.s.",
"T.|.*X*XW.N.k.s.o.- = * 1 4 S g g g q g q g g g g B B B g g g B B B B B B G 4 4 v 7 0 B g q q - H C.e.m.`.4X4X2X,.`.%X%X`.`.%X3X_.,.f.].G.p.z.v.v.x.-.F @XyXXX{ 8 8 8 g 8 ; 7 N p 4 D k B g k g g q q 8 8 d 8 8 g g g g g g g g g k 0 4 6 = y k.#XyXyXeX>X>X>Xl.",
"l.N.!.!.!.Q.Q.T.o.- - 7 3 0 F K K K K D D D K G G D D H U Y D D Y Y H H Y N p N 6 7 q q q q 6 C V.@.v.3X4XfXrX2X'.`.%X%X'.4X%X%Xn.<.r.j.A.D.A.v.z.p.A.e.t.-XdXXX' 8 8 8 8 8 ; 7 Z 3 0 I F F F F l F F x x x k x l F l l l l F D l F 0 1 7 @ k W.~.iXjXuXyXwX~.#.",
"h.s.N.W.W.T.T.W.+.- - 6 1 6 K F U U U U U U U U Y Y U ( ( ( ( ( U / Y Y 2 1 N 7 7 g 8 q q - G x.R Q E.%X3XrX4X3X2X2X2X4X`._.@X%X%XF.y.j.J.m.p.c.v.A.G.D.y.} %XyXXX' t q 8 8 d ; 7 N , 2 U I T T R I I F z F I I F F F F F T F F F F 0 3 7 @ k k.T.~.*X>X|.~.T.s.",
"W.W.T.K.T.U.N.U.#.6 - 6 : 7 F F _ } | ] ' E ' ' { { { *.=.*.=.' ( / U 2 : v 7 7 g 8 q 8 - D x.] a.F.F._.3XrXrX3X4X4X2XrX2X`.F.y.y.p._.S.A.y.a.A.F.F.'.-Xy.b.e.F.dX(.' t q 8 8 8 ; - f & 0 F R R R E Q T T E Q Q E T T T Q Q Q E R F 0 1 7 = k k.!.~.#XeXwX~.!.5.",
"N.N.h.B.!.|.T.N.j.- - 6 1 0 F U | =.=.:.&.] &.=.=.=.=.=.=.=.] R U Y 4 , v 2 7 g g q 8 - G Z.} e.A.%X%X%X_.'.E.n.b.E.#X%XE.b.Q S G $ [ !.!.J._.A.V.a.j.E.).F.S.:.1XlXOX' y g 8 8 g 7 6 f , 7 J F U R E W ] W ] &.] W W ] ;.] &.] R U 7 3 7 = k #X>XeXeXuXuX3XW.+.",
"s.%.g.N.W.h.S.K.s.- - 7 1 7 F R ] } ,.:.:.:.:.=.-.-.=.:.-.&.U Y U 2 , N 2 7 g g g q - G Z.@.e.F._.wX4X3XrX`.E.%X%XE.'.c.` p.Z.Y Y / O S D.@X-XwX&XJ.].-X-X@X@XF.t.%XdXH.' y k 8 8 g 7 7 f 1 0 F F F R ] ] W ] ;.&.&.&.&.;.;.:.] R U 0 p 0 @ k ~.*X>X,X:X,X:XS.#.",
"k.l.g.K.N.W.S.N.s.- - 7 1 6 F U ' } :.:.:.=.:.:.:.:.:.-.*.' U Y 2 : N 6 7 g B g q 6 C i.@.y.J.@XwXwX3X3X%X%X%X@X@X'.S.y.y.C.D % O g ( # S A.F.S.J.J.F.A.y.j.p.p.t.] J.rX(.' k k 8 q g 8 6 f , 7 K F U ' } ] ] ;.&.] ] &.&.=.&.] R I f 3 < O k k.~.;X:X#X~.~.W.#.",
"k.l.s.N.K.|.K.S.s.- - 7 , 6 F J ' ] =.=.=.=.:.:.&.:.=.] { U U 2 , 0 6 7 B g g q 6 H 0.R e.J.%X-X%X4XrX3X@X&X1XuX%X%XS.A.C.D % 6 ; O g ) @ S p.v.!.-XwX/.D.J.F.J.J.c.:.%XyXH.' y k q q k 8 6 0 + 2 F D U _ ] &.;.&.&.&.=.=.=.=.W I F 0 1 2 @ k T.;X,X*X*X:X;XW.#.",
"#.#.s.#.N.S.b.!.>.- - 7 1 7 F R ' } :.] =.=.=.:.=.&.] R U U 2 , f 6 0 B B B q 6 H i.' y.J._.3X%Xn.`.rXwXuXE.E.wXyX0XA.C.H % 8 ; ; ; % g *.> J _.-XwXwXyXyXwX@X'.-X/.@Xc.1XdXOX{ y q 8 g g 7 6 7 , 2 K K U ' ] :.:.:.&.=.:.=.=.] T F 0 1 6 O k S.Q.-X@X~.!.E.r.L ",
"o.L O.o.3.#.#.f.$.- - 6 , 6 F R ] :.:.:.:.:.:.:.=.] R I J 2 , N 6 0 g g q q 6 G 9.I } _.-XwXsX%X4XtXwXuX0Xb.:.e.j.J.{.D - 8 ; ; q 7 7 @ B 7.@ _ }.-XuXuXuXyX-X@X%X-X@X).y.%XdXXX' y y 8 q q 6 6 f + < K F U E ] =.=.=.=.-.-.=.] U F 0 3 2 O k k.S.!.D.S.s.#.o.u ",
"s.3.o.+.#.#.+.%.$.- - 6 + 6 F R | :.,.,.:.=.:.:.] E U U 0 , N 6 0 g g g q 6 H 7.U _ :./.1X1X0X0X-X0X0XqX+X=X5XH.t.i.H - 8 8 8 8 g 8 7 7 - B { @ ! &X6X=XwXwX%X@X/.F.J.F.A.:.%XyX(.{ y q 8 8 q 7 6 0 + 2 F J U E =.=.:.=.=.:.=.{ U F 0 p 2 O k R.^.<XS.s.%.d.O.P ",
"B.A.3.+.#.s.#.%.O.- ; 6 : 6 F R ] :.:.:.-.-.-.=.E U R 7 , V 7 7 g g q q 6 G q.J } A.F.J.-X$X0X0XqX=X=X5X+XoXV.A.+XY ; 8 8 8 ; 8 8 d 8 q q - B 2.> [ 6X6X-X>X%X%X@X_.%X!.F.v.,.%XdXH.' y q 8 q g 6 6 N 1 2 F F U ' } =.=.=.:.=.{ U F 0 p 2 @ k ~.;X,X#XN.l.d.#.X.",
"s.@.p.p.j.<.o.s.o.- ; 7 1 7 J R ' :.:.=.:.:.=.' R U 7 , N 6 7 B B g q 6 D 7.K | V.p.J.-X-X%X%X0X6X=X0X5X+XV.p.{.H - q g g g ; 8 d k k k k q - B { < | wX_._.'.b.@X-X2X)._.b.c.>.'.dXOX{ y q 8 q q 6 6 N , 2 F F U ' =.-.-.=.=.{ / U f M 0 @ k U.j.K.k.T.T.S.#.O.",
"3.@.r.j.v.<.#.#. .- - 7 3 0 F R ' :.t.:.:.=.{ _ R 7 , V 6 7 k g g q 6 H q.J | A.G.H.G.m.!.F.c.-XqX0XtXqX+XG.XXH 6 q 8 k g g g d k k k S k k q ; B 7.@ J F.).m.f.v.E.rX'.`.c.,.f.>.%XlXOX' y k q q q 6 6 f , 2 F U U ' =.-.-.=.{ / U f M 7 @ k h.h.k.j.k.j.A.$.o.",
"3.@.j.g.S.>. .o.L - - 7 1 7 J _ } =.t.e.=.{ _ R f , V 7 7 S k g q 6 G q.J ! A.oX5X=XA.F.1X1XoX].-X0X0XG.V.XXG - q 8 8 k k j k k g g g g g k k q - B 7.O F ).n.c.c.c.c.n._.D.(.$X_.y.%XsXXX' y g q q q 7 6 0 & < F F U ' } 8.8.*.( U N a 7 @ k W.W.!.!.S.S.A.o.P ",
"X.L #.o.#.k.o.#.L - - 6 , 7 R _ } e.t.=.' R _ N 3 V 7 7 k g g q 6 H 7.K | p.F.oX&X].G.G.&XoXoX[.&X5XJ.e.Z.H - 8 g d 8 g d d d 8 d d 8 8 g k k q q - B *.O F c.b.).n.m.n.'._.$X'.`.(.,.$XdXOX{ y q q q q 7 6 0 + 2 U F / ' *.=.} ' U f 3 7 * S R.W.#Xg.s.%.#.L P ",
"L L L o.#.b.<.O.L 6 - 6 , 7 U ' } =.=.{ _ R 0 p V 6 7 k k q q ; H 7.J | p.A.&X].H.=X5XH.G.&X].H.&XG.i.C.H - q k k k 8 ; 8 7 ; ; 6 6 - 6 8 g k g q q - B { @ k f.n.m.m.m./._.(.D._.`.D.:.$XdXoX{ y q q 8 g 7 6 0 , 2 F F _ ' ' { ' U f p 7 * k k.S.j.g.j.s.X.P K ",
"s. . .%.s.E.k.s. .- ; 0 3 7 R ' { } } ' R f p V 6 7 g g q q ; D 7.J } e.e.G.G.[.G.A.G.A.A.].].V.G.M.C.H - q g k k ; 7 f 2 2 3 4 1 2 a N V 7 8 8 g g q $ B { O S m.y.,.m.F.F.m.F._.n.y.z.:._.yX(.{ y q 8 q q ; 6 0 , 2 J U / / / _ _ N M 0 @ k S.S.~.T.N.g.o.o.` ",
"s. . .o.j.j.#.+. .- 6 7 3 f J F F F J F 0 3 V 7 8 k g q 8 - G i.! _ e.e.M.].oXJ.oXD.A.A.A.J.M.M.M.C.H ; q k k k 8 7 N 3 3 1 1 , , , 3 a M V 6 ; g q q 8 $ B { @ R m.m._.F.v.y.D.%Xm.y.y.y.:.$XyXXX{ y q q 8 8 6 6 N 1 4 H Y H H H Y V M 0 @ k T.~.;X;X~.T.5.O. .",
"l.s.#.#.j.j.#.O. .- 7 0 a p 4 p 1 1 1 , 1 N 6 8 k g q 8 - G 0.! } | e.A.J.].].@XA.J.J.G.V.J.p.u.C.H 6 q q k k 8 6 0 3 5 2 D S k k k D f M M Z 7 6 q q q 8 $ B *.$ R %X_.$X@X/._.@X/./.D.y.t.t.@XyXOX{ y q 8 8 8 - 6 V 1 1 3 m M p M m Z 0 = k k.W.;X.X<XR.l.O.L ",
"h.j.>.O.O.s.<.o.P - 8 8 N Z Z Z N 0 0 0 N 7 8 g g q q ; D 7.J ! } p.D.A.p.K.A.-Xj.K.-X@XM.M.e.{.H ; q q q k 8 7 f 1 3 3 2 l F D D l D f m a 3 N 6 6 q 8 8 8 $ B 7.@ _ J.%X>X@X#X-X_.%X3X3X%X&Xp.wXlXOX{ y q 8 8 q 6 7 N f a V Z Z V Z Z 6 < k P.5.k.k.Q.K.s.#.o.",
"T.S.a.O.s.b.k.<...8 8 8 8 8 8 8 8 ; 7 7 8 8 k q g q ; G q.y K r.r.a.J.!.j.D.S.-X@X!.].].4.M.C.G ; q g g k 8 6 N , 0 D 3 f F I I I I D f 1 B 6 , V 6 6 q q q 8 $ B { @ J _.J.!.S.@X-X1XeXgXuX3XwXA.uXzX=X{ y q 8 q k q q 0 7 7 0 0 7 7 7 0 < k T.h.k.U.W.~.^.S.l.",
"S.s.r.j.S.j.E.j.<.8 8 j k D D D k d g k k k k 8 q ; H q.S R e.A.F.K.}.}.J.p.S.F.A.@XK.e.[ Z.H - 8 g g g 7 7 N 1 2 F D 3 f D F T T U D N p B D 4 1 V < 6 q q q 7 - B ) 6 F F.@X-X-XwX0XwXwX-XwXuX-XJ.yXzXOX{ q g 8 g S S S B B B S B g g f 7 k l.k.R.k.T..XR.T.l.",
"s.#.#.#.#.#.T.l.o.6 8 k k D F G k k k k k k q 8 - G i.R | p.J.%X%X%X@X-X-XS.A.J.F.v.r._ 0.H - q q g g 7 6 f 1 2 D D B p f D I T E U U V M C D H 2 , N 6 6 g q 8 6 $ B { @ _ @X&X-X6X8X6X@XK.#X#X*X}.A.tXlXoX{ q g g g k k S S D D D B B g 7 y 5.l.U.s.S.Q.d.#.o.",
"T.W.Q.T.k.l.d.l.o.6 8 k D F G D k k k k k q q ; G q.J } J.&X#X>X-X%X@X).!.F.v.!.!.y.@.Z.H - 8 8 g g 7 7 f , 2 D D I D m f F U R E U U N 3 B Y H H 4 1 V 7 6 q q q 8 $ B 2.@ _ *X*X6XtX8X6X-Xa.@XeX&X0X&X-XiXoX{ q k q g g S S D D D C C g 2 k l.T.T.L.#X:XR.#.#.",
"%.#.S.k.E.W.l.l...6 q k k D D D k k k k q q - G 0.J [ F.wXeX%X!.*X*X@X#Xv.f.y.y.} @.x.H ; 8 q g g 7 7 N , 2 D S F U C 3 4 l U ' ' U D a 1 B Y / H F 2 3 Z 6 6 q q q 8 $ B 7.@ _ tX6XwXuXgXgX].S.-XtXwXwXe.cXzX5X{ y g q g B D D D B B C g 6 k Q..X!.h.:X|.Q.s.#.",
"h.%.k.T.^.I.#.+...6 q g k k G D k k g 8 8 - G q.J } S.}.>XwX3X>.'.m.>.j.y.,.D.v.e.Z.H ; 8 g g g 7 7 N o 2 G k F I U B 1 a D U ' { U D a 3 B Y _ Y Y Y 2 , N 6 ; 8 8 8 8 $ S 2.6 | 8XeXgXgXgX8Xy.~.lXuX%X@X6XuXzXOX{ q g g B D D D D C B B 7 k ~.|.*XQ.,X~.T.P.%.",
"W.s.l.k.d.<... .P ; q k k D G G k j 8 8 - G 0.J } M.A.J.!._.%Xn.).F.,.y.%X(.v.a.Z.Y ; g g g k ; - f & * S D Y U U U C 3 f S U E { U D N 3 D U ' ' / Y J 7 , N 6 ; q y y 8 $ B 2.@ [ }.&X=X5X5XJ.qX-X3X1X!._.A.wXxX=X{ g B g B S D D B g g 7 k ~.|.W.W.Q..X^.Y.Y.",
"k.<.l.I.P.l.s.o.P 6 q k k k k k k 8 8 - D *.K R j.A.J._.%X'.%X`.).%X%X%X3XJ.a.H.H ; g k j j 8 ; f + < D D U U U U U C p a k U ' ] R U N p C Y ' { ' _ F F 2 , N 6 6 k q 8 8 $ B q.9 ! J.-XqXqXgXqXoX_.v.S.4X4X/.yXxX5X{ S S g k D D D C g 0 k Q.>XT.Q.<XaX;XR.k.",
"d.O.%.P.L.I.l.#. .- 7 g k k k k 8 8 - G *.t ] v.b._.!.E._.%X!.!.'.'.!.F.p.,.Z.H ; q k k j 8 6 0 + < F F U U ( E I I C p f S D ( { ' U N M D F U ' } ] R U J 2 : N 6 8 k y 8 8 $ B 7.6 J J.-XwXtX_.$X=Xv.m.'.%X1XJ.rXxXOX{ k k g k D k g g 2 8 k.;X,X.X.X,X.X^.l.",
"d.O.d.P.l.d.+.O.L - 7 8 g k k g 8 - S *.F c.J.F._.'._.F.F.`.%X3X3X`.,.:.} 0.H 6 q q k k ; 6 0 X < z l U R ' *.*.E U D 3 f G D ( { ' U N M C F U ' :.=.' _ U U 2 , N 6 7 k y q 8 $ B q.@ F $X%XuX1X%XrX1X2X1X2XwX1XF.yXzXOX{ k k k S l k g 2 q k.~.,X.X~.;X^.T.d.",
"W.h.T.I.>XL.#.$.O.- 6 8 g k d 8 - H 0.R v.-X3X>XwX4X'.$X_.%X_.).%X%XF.p.H.H 6 q g k k ; 6 7 X , F l I R { &.=.=.] I S p f D U { { U R N a g D U ] :.:.=.' R F J 7 , N 6 7 k k q 8 $ B 7.- U 1X1X%X3X4X1X1X1X4X4X4X%XF.uXzXOX{ S k g g g g 2 k k.#X>X,X9X,X^.L.+.",
"Q.T.~.Y.;X~.T.T.>.- 6 8 g k 8 - G 8.R A.@X'.4X4X4XeX%XF.F.E.v.`.m.,.y.Z.H - g k k D 8 6 6 X < F D U ( *.=.:.&.=.' U B p N D U ' ] ' U f p g l U ] :.,.:.=.] R F F 2 , f 6 8 k g q 8 $ B 7.6 R _.@X%X%X$X/.%X2X'.`.%X_.y.wXlXoX{ k g g B g 7 y T.;XpXaXpXpX~.T.s.",
"l.s.E.L.U.E.E.k.#.$ 6 8 q 8 - D 0._ e.J.#XE._.F.b.E.E.c.m.F.c.v.:.] Z.H ; q g k k 8 7 f X , F D U U ] &.&.;.;.] R R D 1 N H U ' &.' U f 1 k F U ] :.=.=.:.] ' R F F 2 , f 7 8 k y 8 8 $ B q.6 | @X/././.D.@X1X`.).>X).v.v.wXlXOX{ q q q g 7 y Q..X~.*X9X;Xs.s.+.",
"l.#.T.I.T.k.k.s.o.- 6 8 8 - D { ! p.A.A.v.v.).v.c.E.F.F.%XE.y.:.y.C.H - q q d k 8 ; f , < D l U ' E ] &.&.&.&.] E R D p f H U { =.' R f p g F R ] :.=.=.=.=.E R R F F < + f 6 8 k k 8 8 $ B 8.$ G J.J.J.F.%X-X@X).%X>X%X#XD.eXzXoX' 8 q q < k ;XQ.~.|.:Xh.5.s.#.",
"} e.j.K.>XN.d.k.O.$ - 6 - D { y @.F.!.uX#Xv.f.;.>.f.c.f.f.:.Q T x.H - 8 q 8 d 8 ; f X < l k F R ] E W &.;.;.&.&.' R D 1 f D U ' =.R J N p g D T ] =.=.=.*.=.*.] ' _ F F 2 + 7 7 8 8 8 8 8 - B 7.@ S F._./._./.m.).%X#X'.).D.j.3XlXXX' q 8 * y ;X|.Q.k.|.h.j.j.[ ",
"J _ _ } j.K.l.5.o.O @ O S q.S R A._.-XdXF.;.;.T y.v.W $.;.Q T 0.H - 8 8 g d ; ; f X < k k l I E &.&.&.W W W ;.&.] T D , 0 F U | =.' R f p g D U ] =.=.=.=.=.=.=.&.' U U F 2 + 0 7 7 q q q 8 - B *.O J ).D.F.F.z.v._.'.).F.m.b.>.eXdX(./ 8 * 8 T.W.h.g.A.p.p.8.9 ",
"! J [ _ J [ [ ` o.@ . 0 0.! K r.J.%X>XrX`.p.v.>.S.%XW ,.T x 9.G - 8 8 k k 8 ; f + * l k F I T ] :.;.&.W W W ;.;.] T D 1 f F / ] =.' R N M S J U &.=.=.=.&.=.=.=.:.} ' R D F 2 + 0 7 8 g q q q - B ( O S y.D.F.m.c.@X_.(.b.c.>.c.F.'.rX(.H @ y k.j.p.:.e.j.A.G 6 ",
"_ _ } } [ [ _ _ _ J K { J } e.j.J.>X>X4XlXyX&Xf.f.>.&.T T *.D - 8 q k k k 7 0 : < l l F U T W &.;.;.;.W &.&.&.:.] T l 1 0 U / } :._ R f p D U _ =.-.=.=.=.=.=.-.:.-.} ' U G H < + 7 7 g g g q q $ B { O q D.J.A.F._.$X_.m.m.c.n.`.:._.wXV.} p.p.a.e.} p.p.! @ 9 ",
"_ ! ` _ | 4.} | _ [ [ q ! A.p.F.%X%X`._.!.3X-X'.3XF.] ] C.G - 8 8 g k k k 7 2 + g D F U Q E ] &.&.&.&.&.&.;.;.;.] R D & 7 U / { =.' R 7 , S U ' *.-.-.=.-.-.:.8.-.-.-.] _ U U D + 2 7 g g k g q 7 - B { # J D.A.oX$X@XD.n.m.y.F.).F.] :.} e.e.e.e.e.u.e.J 6 9 q ",
"J J R 9 6 J _ _ _ J 6 $ _ p.F._.)._.f.c.).y.f.v.j.>.f.i.H - 8 8 k k k k k 6 4 , g D I Q ] &.&.&.&.&.&.&.&.:.:.:.{ T S 1 0 J U { } ' E 7 , S U E =.-.=.t.-.-.-.9.9.=.-.=.=.' U D + 2 6 g g k k q q 8 - B Y # S G.oX@X/./.F.m.,.b.n.S.t.k J ! :.p.e._ G < 6 6 6 9 ",
"_ ~ J q 9 q q q w $ @ @ ] A._.!.S.c.y.,.<.c.<.>.W $.C.B - 8 8 k k k k k j ; 4 , k F I E &.&.&.&.&.&.:.&.:.t.:.:.] T D 1 2 F R ' } ' R N 1 S U R &.:.:.-.=.:.-.t.-.=.-.-.} ' U S + < 7 g g g B g q q q - B ) O S G.-X=X=XF.v.z.y.!.c.E R _ J _ J w 0 q 0 q 6 6 w ",
"J J J S k y 8 < q 8 @ - :.c.v.).'.F.).%XF.c.n.<.;.i.G - 8 8 k k j k k k d 7 2 + k F I E E E W W W W &.&.&.=.:.&.] T D , 2 F R ' { ' R f , B U R =.-.=.=.&.=.=.-.=.*.=.=.{ ' U D + 2 7 B B B B g B B q q - B { O S @X=X0X/.F.p.i.oXD.e.[ [ ! _ G O q 8 S q < @ < ",
"G S J G S q q q K w - S | a.y.%X2XrX4X1X%Xm.y.m.XXH - 8 8 g k k k j k k g ; 5 + k F I R T T T T E E ' ] W E ] ' E T D , 7 G U ' } ' _ 7 , S U R ' ' E ' ' ' ' ' ' ( U _ ' ' Y S , 2 7 g D D B B S B g q q - B { O K -XtX/.D.A.i.V.e.} p.a.| | J B q q q 7 @ @ @ ",
"J G J S b k q q S 9 q G K [ A.-XrXlXsXzXrXF.y.XXH - 8 8 g g g g g d k k d ; 2 , S U U I T R I I T T T T Q T T Q E R D 1 0 G U ' ' ' ' 0 1 S R E R U T T ' ' ' U U U U U R U / G : 2 6 g D D B B B B B q q q $ B q.* | uXlXzXuXoXV.u.p.a.u.p.} S q q g q 9 < 6 > ",
"J J _ S q G 8 q q 8 q y k q } /.rXrX=X0X@X/.OXH - 8 8 8 d d d g g k j d d 7 a 3 7 0 7 6 6 6 6 7 7 7 6 7 7 f f f f N N 3 3 f f f f N B a 4 4 0 0 0 7 7 7 0 0 0 0 f 0 7 0 0 0 0 0 , 5 0 B S S g g g B g g q 0 8 $ B { @ R oX1XoXA.u.p.p.p.p.p.G B c S q q 9 6 @ > ",
"J J _ K q q q q 9 0 q J J q S _ =.,.=.} ] i.D - 8 8 8 g d 8 d d g d d d g ; 7 5 3 1 , 1 1 , : , : : , 1 1 1 1 1 3 4 4 a a 4 4 M p 4 4 4 a 4 1 1 1 : 1 1 1 1 1 1 4 1 , 1 1 1 1 5 2 0 7 B B S g g g g g g q 7 8 8 $ g ) $ ! z.e.e.p.p.a.p.p.J b S S B B q w w 6 9 ",
"} | _ G S b J [ J q q q G G y J e.e.e.J / B $ 7 8 8 8 d 8 8 8 8 8 d 8 8 8 8 - 6 < < < 2 7 6 6 6 6 6 6 6 7 7 7 7 7 6 7 2 2 2 7 f 0 7 7 6 7 7 6 6 6 6 6 0 7 7 7 6 6 6 6 6 6 6 6 6 7 7 q g g g g g g q 0 g q q 7 7 6 @ 7 { 4.e.e.e.e.u.a.p.J c S S B q c c c w w q ",
"[ } | G S J | | _ S k S S S G _ } } [ w 6 . = - - - - - - - - - - ; ; - - - - = = O O * = * * - % O O O O = - = = = = @ O * * * - - * = = * * * - * - - * * * * * * 6 - * * * * 6 7 0 7 7 0 7 7 0 7 7 7 7 7 7 6 * @ # J } } | } e.a.p._ G G G b c c b c 9 w q w ",
"_ [ } J J J ! ! J J ! J _ _ _ } e.e.S w 8 $ ; 8 t t t t 8 t t t t t t t t t y t t t y y y y t t t t t t y y t t t t t t t y y y y t t y t y y k k y k y y k y y y y y y y y y y y y y y y y y y y y y y y y y t 8 ; 8 _ [ } 4.e.a.a.! J J G G S c c b c w w q 9 ",
"_ ! [ J K J J J ! J ! J J J q S q q w q q L s.s.s.!.W.W.L.h.6.U.;X~.S.#XW.s.%.k.T.6.h.#Xl.+.l.S.k.s.s.s.#.5.s.%.#.5.s.#.O.+.o. . .%.#.O.O.%.d.d.6.#.%.%.O.+.+.o. .%.%.O.o.o. .L L o.O.O. .L  .X. .%.6.s.l.%.6.l.o.X.$._ R [ J G J J K K J J G S c c c q 9 w 6 9 ",
"! ! _ J J J _ ! J J J J J S q 8 9 q q S q ! W.T.T.>XW.;X*X!.g.T.T.!.B.}.T.5.h.*XW.+.T.wXS.j.&X!.h.h.l.s.3.5.k.h.#.3.s.#.O.O. . .O.#.#.%.%.s.h.d.%.#.6.#.#.%.s.+.o.#.g.#.X.o. .P L +.o.o.o.L +.o.O.O.+.#.%.k.k.Q.%.#.@._ [ _ 6 e q K K G G G c b b q q q w w 9 6 ",
"! ! [ _ ! ! _ ! J J J G b c q q b q 7 S G G K.T.|.#Xg.W.Q.;XN.W.Q.j.g.W.k.T.~.@XK.O.&X&Xs.a.N.N.s.#.s.s.5.s.h.h.6.5.h.5.%.s.%.s.%.%.l.T.h.l.s.h.#.%.s.#.#.+.s.6.s.#.5.+.X.+.o.+.3.#.#.#.#.+.g.B.5.O.O.+.#.W.W.T.s.f.[ _ [ J 9 c b G b b b c S G c q q q q q c w ",
"} [ } _ J J ! ! J J G 9 w q q q q q q q q q e.S.-XyX|.>XjXeX#X&X#XS.S.!.-X:X>X@Xj.h.W.N.B.h.k.B.B.#X#XW.h.U.U.W.U.h.T.N.N.k.d.P.6.l.k.T.N.h.h.h.k.U.N.6.s.d.d.U.U.L.6.5.5.5.+.+.#.+.#.3.3.X.3.3.X.X.+.O.o.+.h.k.s.a.} } [ q 9 w q q q 9 q q S G q c 9 9 q q q q ",
"_ } } [ 6 S ! J G G c 9 w q q w q e q q q q [ K.wXlXuX8XlXzXwX].eXaX9XtXgXeX8XwX&XJ.@Xh.S.B.N.T.N.wX>XQ.T.;X~.Q.k.~.:X:X>X|.T.k.%.s.h.k.T.h.N.T.~.:X;XT.L.Q.;XaX;X;X~.L.L.k.#.+.s.s.#.s.s.#.B.5.k.+.k.~.s.+.g.E.T.a.} e.| O @ 7 q w q c b c G K S S q 9 c w q w ",
"_ [ } J S G G G c 9 w 9 w q 6 6 9 q q q S q G B.uXyX*X|.wXjXiX@XpXaXyXzXlXeXaX:X#X&XyXK.a.a.5.N.h.W.~.k.Q.;X|.W.N.,XeXeX9X*XT.l.s.5.g.N.!.s.U.~.W.>X|.k.k.~.;X;X~.^.Q.h.d.%.X.O.5.#.O.5.g.5.N.N.N.s.h.K.s.g.F.!.j.:.[ } J 9 6 7 8 6 w q 9 q c c S S G S c q q w ",
"[ [ G w w w w 6 > > > > @ @ # # # # @ 9 q q q ^ ~.:XN.!.T.k.N.Q.:X<X,XeXeX#X.XJ.T.S.XXg.j.F.3.5.g.g.#.k.#X;X;X,X|.|.*X>X:X~.k.s.%.#.s.h.W.N.5.s.h.~.,XW.L.~..XQ.~.~.d.%.+.o.P  .o.X.X.#.#.L 3.s.#.L +.X.o.o.X.O.>.@.| S @ O O * e @ @ @ > > e e w w w q w w q q ",
"_ c > 9 w q 9 > @ @ > @ # # @ + O # @ @ @ 9 q J K.:Xh.B.Q.N.5.W.|.!.W.*X~.K.:XyX-X#X5X|.h.k.g.#.g.N.T.~.:X,X:X;X,XiX>X,XiXpX.XT.l.s.h.T.T.k.#.3.W.k.Q.Q.T.<X<X~.W.k.d.#.#.o.L L L P L O.O.X.#.g.3.o.3.g.s.r.+.o.@._ q @ O @ O @ > @ @ > > > 6 9 w 9 9 w w w w w ",
"c @ > e 6 6 6 > O # # @ @ O O O # # @ @ # e 9 q 3.B.#.3.3.g.+.h.s.L s.T.#.+.h.#XV.o.g.3.3.o.+.#.#.5.k.h.s.h.h.5.s.~.~.T..X.XL.k.#.o.+.g.s.+.O.#.%.s.l.l.h.P.h.%.+.#.O.L  .X.P P  .n u P L L +.+.o.L L #.+.o.P P J $ 9 9 @ 9 @ O O O O @ > > > 6 6 6 6 9 9 w 6 6 "
};
