/* XPM */
static char *south[] = {
/* columns rows colors chars-per-pixel */
"128 128 230 2 ",
"   c #2D2E26",
".  c #2D2F29",
"X  c #2F3027",
"o  c #2E322D",
"O  c #343429",
"+  c #33352D",
"@  c #36382E",
"#  c #39392E",
"$  c #2E3532",
"%  c #2F3833",
"&  c #333631",
"*  c #353A34",
"=  c #393B35",
"-  c #353C39",
";  c #3A3E3B",
":  c #413F39",
">  c #3C4037",
",  c #35413D",
"<  c #3C413D",
"1  c #41433E",
"2  c #3A3F40",
"3  c #3E4342",
"4  c #394846",
"5  c #3D4A45",
"6  c #3D4C49",
"7  c #3D514D",
"8  c #3F5651",
"9  c #424543",
"0  c #464745",
"q  c #444A45",
"w  c #494B46",
"e  c #454C4A",
"r  c #4A4D4B",
"t  c #514E4D",
"y  c #4B5047",
"u  c #45514C",
"i  c #4C524D",
"p  c #4D594E",
"a  c #51534E",
"s  c #57564C",
"d  c #52594E",
"f  c #464E50",
"g  c #4A4F51",
"h  c #455452",
"j  c #4D5452",
"k  c #465A55",
"l  c #4E5A54",
"z  c #4D575A",
"x  c #465D59",
"c  c #4D5C5B",
"v  c #535553",
"b  c #585754",
"n  c #535B55",
"m  c #595B56",
"M  c #515659",
"N  c #585759",
"B  c #555C5A",
"V  c #5B5D5B",
"C  c #605F5D",
"Z  c #6E5E5A",
"A  c #45615C",
"S  c #4B625D",
"D  c #566156",
"F  c #596157",
"G  c #55625B",
"H  c #5B635C",
"J  c #586859",
"K  c #5D695E",
"L  c #62635D",
"P  c #6B665C",
"I  c #62695F",
"U  c #72625E",
"Y  c #4D5361",
"T  c #4C5D64",
"R  c #555E62",
"E  c #5B5F61",
"W  c #575D6B",
"Q  c #595F76",
"!  c #655E61",
"~  c #4D6462",
"^  c #4D6A65",
"/  c #4D616A",
"(  c #546462",
")  c #5C6462",
"_  c #556964",
"`  c #5D6A63",
"'  c #54656B",
"]  c #5B666B",
"[  c #546C6B",
"{  c #5C6B6B",
"}  c #54726D",
"|  c #5D726C",
" . c #5A6777",
".. c #566A73",
"X. c #5C6D73",
"o. c #5C7374",
"O. c #5B7974",
"+. c #597A75",
"@. c #5D737C",
"#. c #636563",
"$. c #696664",
"%. c #636B64",
"&. c #6A6B65",
"*. c #646669",
"=. c #696769",
"-. c #646C6A",
";. c #6B6C6B",
":. c #716664",
">. c #706E6C",
",. c #647165",
"<. c #697266",
"1. c #64726B",
"2. c #6C716C",
"3. c #6C7B6D",
"4. c #75766B",
"5. c #72736D",
"6. c #626E73",
"7. c #6C6F71",
"8. c #636A79",
"9. c #716F70",
"0. c #637374",
"q. c #6C7272",
"w. c #637A75",
"e. c #6C7C74",
"r. c #63757B",
"t. c #6A757B",
"y. c #65797C",
"u. c #6B7B7C",
"i. c #737473",
"p. c #777577",
"a. c #757974",
"s. c #7B7B74",
"d. c #737A7A",
"f. c #7B7D7A",
"g. c #807E7A",
"h. c #5D807A",
"j. c #67827D",
"k. c #788177",
"l. c #7E817B",
"z. c #83847C",
"x. c #88887C",
"c. c #5D7783",
"v. c #636880",
"b. c #647A83",
"n. c #6C7C82",
"m. c #687987",
"M. c #727D83",
"N. c #797C84",
"B. c #6E7594",
"V. c #737B96",
"C. c #777DA2",
"Z. c #3C6ACD",
"A. c #3B74CB",
"S. c #3E6FD0",
"D. c #456FD1",
"F. c #4776D3",
"G. c #547BD9",
"H. c #648781",
"J. c #6D8284",
"K. c #6D838B",
"L. c #738384",
"P. c #798686",
"I. c #73858C",
"U. c #748A8C",
"Y. c #7B8B8C",
"T. c #6E8690",
"R. c #758690",
"E. c #7D8594",
"W. c #758A93",
"Q. c #7B8D93",
"!. c #7A829D",
"~. c #768D99",
"^. c #7A8E99",
"/. c #7C9195",
"(. c #7B9497",
"). c #7C939B",
"_. c #7C85A4",
"`. c #7C95A1",
"'. c #7D98A2",
"]. c #7D86B4",
"[. c #4C80D4",
"{. c #5885D8",
"}. c #678ADC",
"|. c #778AD0",
" X c #6C93DD",
".X c #7896DB",
"XX c #6C8DE0",
"oX c #858986",
"OX c #8B8B83",
"+X c #918E86",
"@X c #8B9189",
"#X c #949387",
"$X c #93938C",
"%X c #818B95",
"&X c #838B9A",
"*X c #839394",
"=X c #899796",
"-X c #849895",
";X c #83959B",
":X c #89979B",
">X c #849A9C",
",X c #8A9B9D",
"<X c #989A94",
"1X c #9EA09A",
"2X c #808AA8",
"3X c #8697A6",
"4X c #859BA2",
"5X c #8B9DA2",
"6X c #919AA9",
"7X c #8B97B8",
"8X c #9399B5",
"9X c #8CA1A5",
"0X c #86A1A8",
"qX c #8DA4AA",
"wX c #92A2A4",
"eX c #97A7A7",
"rX c #92A6AB",
"tX c #94A9AC",
"yX c #9AABAE",
"uX c #95ABB1",
"iX c #9BADB1",
"pX c #9CB1B2",
"aX c #8A97CA",
"sX c #8A96CC",
"dX c #949CC5",
"fX c #929DCC",
"gX c #8C9CD3",
"hX c #8398D9",
"jX c #929FD0",
"kX c #96A0CB",
/* pixels */
":X:X,X,X:X*X:X*X*X=X*XY.*X,X=X,X,X*X/.*X*X*X*X0.< 1 9 9 9 9 0 0 0 0 w w 1 ; N *.*.$.*.*.*.*.*.*.*.*.*.-.*.) #.*.) ) *.-.;.;.;.*.*.*.=.*.*.E ) -.;.;.-.-.*.*.*.*.*.q.q.*.*.*.*.#.v e < 9 q q q q q q q q q q 3 q P.Q.;X4X4X4X:X9X,X,X,X,X,XwX5X%X*X;X:X;X:X:X:X%X",
"%X*X,X,X*XQ.;X:X:X,X;X*X*X5XwXwXwX,X*X;X*XU.y.j . + & + + + * * * * * + O   = r v N V *.-.q.q.;.q.q.;.;.2.;.;.;.2.;.2.;.;.;.-.*.*.;.;.=.-.) -.;.;.-.*.;.7.;.;.;.;.=.*.] V v r q ; & . & & & $ $ $ % $ $ $ $ $ o c y.K.>X4X).Q.5X:X>X,X>X,XwX*X*X;X:X:X5X;X;XM.0.",
"%X*X=X:X*XQ./.%X:X5X:X:X,XwXeXeXeXwX5X,XJ.[ [ > O & * * * * = * * * = @ * O   + < e e q r N *.;.q.q.2.2.q.;.;.i.i.q.i.q.q.q.q.q.;.q.q.q.;.;.q.q.;.;.;.;.q.;.;.;.) v e 2 - - ; - o o o * = - - - * * * - - * % $ 4 ..@.U.>XQ.R.;X:X;X*X:X,X,X=X*X*X5X,XwX,XY.X.] ",
"P.%XY.Y.L.I.K.Q.*X;X*XQ.Y.Y.;X*X/.K./.Y.0.X.( + + * = = = * = = = = = = * * + O o * < 0 9 q e e r v V V #.V V ) *.%.%.*.-.*.*.) ) *.*.*.*.#.*.*.) N ) ) V N j r 3 ; - - - = & o o & * * ; < , - - * * - - - - % * ..c.b.T.y.@.y.y.b.n.U.U.P.Y.Y.Y.Q.*XP.u.0.] ( ",
"u.P.*Xu.] L.b.U.Q./.Q.I.R.Q.(./.K.[ u.u.r.X.r O + = = = = = = = = = = = @ = * @ * & + & ; q e 3 9 q e r b ) m m H %.) *.) H ) m N V ) ) ) V N ) ) V V v 0 3 3 3 ; - = - & + & & * = ; > > ; , , - - - - - , - - $ T c.@.c.T / ..[ o.o.y.U.J.J.U.U.J.U.] c X.{ ' ",
"L.Y.;X/.Q.W.R.R././.R.R.).4X4X(.(.(.L.0.0.] ; + # # = = = = = = = = = + + + + + * * * + o + ; q q e e e r B N m ] -.-.-.%.%.` V M B E ) V V N V ) j e 2 2 3 ; ; ; * + o o & = = = * - ; * * * - - - - - - - - - $ 5 b.b.b.b.@.@.o.y.o.J.J.J.U.U.U.*XU.J.J.r.r.{ ",
"P.*X:XW.;XW.R.;X4X^.^./.4XqXqX4X(./.J.o.r.( + + @ @ * = = = = = @ = + + + O + + + @ + O O O o + ; e e e r l j j n V H V V B l r e r j j r j j l r 3 2 3 3 ; ; = + o + + + & * * * * * * * * * * - - - * - - - * $ * o.m.b.b.b.c.c.K.J.U.U.J.L.Q.(.>X/.U.J.r.r.0.",
"Y.Q.;XW.R.I.R.:X4XQ.~.4X3X4X4X4Xy.n.J.r.u.j   + + + * * * = = * + + + O O O + + + + + O + + O .   + < e e r r r e e e r e q q q 5 3 3 3 3 3 9 q 3 ; ; ; ; * o . o + & & & & & & & * * - - * - * % * % % * * * * $ o c K.K.b./ ..@.b.K.(.Q./.Q.).(.>X/.R.b.0.0.{ ",
"*X*XU.L.I.R.^.;X;X4X~.`.4X).).R.L.n.u.r.r.< o + + * * = = = = = * * * + * * * * * * + + * * + + * + + = q r i e q q q e q 3 3 3 5 3 3 3 ; ; 3 3 3 ; ; - & . o & & * * * & * = * * * * = * * = * * * * * * = = = & o q K.K.@.T / ..m.K./.>X4X).).(.(.Q.L.b.r.0.6.",
"Y.*XR.n.I.K.R./.5XrX3X`.4XR.y.0.u.r.r.r.{ ; = 1 = = > < < 1 < 9 q q q q q q 9 9 q q 9 < q 9 < = 0 = r r q q e e q 5 q e e q < < 5 3 < < ; 3 3 3 3 3 $ = 1 & - 2 2 2 3 2 - 4 4 - & ; < ; ; ; - , 6 4 * < 9 q q 3 = ; e y.K.X.T T T ..b.K.(.4X'.'.4X>X).I.y.@.y.6.",
"P./.^.R.R.~.).4X4XrXqXqX/.u.0.0.u.r.6.t.B 1 < d 1 > u u y y y d i n v l l B l l l l l e l i u 9 b < - 3 = 9 * $ - - 3 q e e e e e e i e , , < 9 & 3 < w a ; u j j l j j q , , - q i i e q e q 4 7 4 - i v i l i 3 r v ( y./ T T T ..b.m.W.4X0X4X9X9X4X;XK.r.r.X.",
"Q.W.^.W.U.R.^.4X3X4X3X;Xn.0.6.X.6.-.] { i q 1 b 9 9 l l p d b F B G G B D G D B D D B r v l l e V r q i 9 m q < u u j l l l l l c G ) B q $ r v - e 5 d m < i l l n B n j j u e e u r r e e i q - , q v m B B B q b m e T z z T / @.@.b.K./.4XqXqX4X4X4XU.y.r.X.",
"%XW.^.W.R.U.I.).;X>XR.r.r.6.{ j < 9 b 9 e l q V w y D D G F K I H H ` ` H D H G H H H ( ( l l r #.r i B r L i q B D B B G G B G G ) -.G B e b L 3 h e v L 9 l H H ) %.` ` ` ) G B B i.-.j n H b i j l B G B B B y V -.9 e q j N z @.y.b.b.K.4XrXrX4X4X>XR.y.r...",
"U.U.^.^.~.Q.).`./.R.y.0.0.{ z 3 ; w &.0 l D y L w i K H I K K H K ` ,.%.` K H H H H H O.w.k q q H r e l e $.V < 5 r j i j r i r i i j h h 8 b L 9 u q L 2.r i D H H ) ` ` ` ` ( G v z.s.r H B c A x e i v v v i r L ;.q y q m >.w z y.b.b.K.(.4X4X).~./.U.b. .' ",
"W.L.Q.W.~.;X4X4X).y.X.0.0.j - ; 9 &.L q G J i V w p K %.K K K K J %.<.%.` ` ` ` ) H H O.j.c j r L a v *.l $.2.b 5 e j j r r r q 0 e e r 5 6 m L < < d 5.s.L r q e u i l i i i j j e x.s.9 i i e A A 4 e f j z M i L ;.e r 3 v f.;.9 z y.b.K.W.).).).~.(.R.@.' / ",
"R.R.^.W.W.).4X5X^.n.y.X.B 0 w v &.&.w r K J y m r l I %.K I J G I ,.<.%.K H H H H H n u h e l r #.v l B i #.a.a.L m b m m b b v a a d d a y m I r a 5.l.5.;.L b r r a y r i v v v r z.4.r v v v l e 3 n H ) %.%.b m *.r B B i H a.*.j ] b.T.).W.W.4X).~.K.@.X...",
"^.^.;X^.(.).>XU.U.L.J.u.w t m #.b 1 q v H G y L r v K K K K G K H %.%.K G H H D B H D l j j v i $.v l B i $.l.oX2.L V m F L H L L F I L F s s L d m L #.H L #.#.V V V V N m H #.E N OXl.v N m #.;.#.q e v B G J i H ;.w d n i r v V N B U.).4Xy.r.`.`.~.K.r.....",
"W.;X;XW.W.(.>Xu.u.n.n.r.; = 9 1 < y B B H D r L r d J J K K G K I %.I G D | O.S e i c } } h l i ;.b v G y &.s.V 9 9 9 < < 9 9 9 q e i e q < m $.9 3 9 9 3 9 9 9 < 0 a 9 ; < q 9 ; 3 z.a.; < 3 9 m a.#.e n H %.K i N -.r v H ` G i q < q U.>X4XW.~.3X^.@.b.X.' ' ",
"W.^.4Xn...m.n.u.6.r.n.t.q 9 g i i B B B D B r L a i H K J F F F L $.$.F v } O.S v G c O.O.u q v 5.a v F y ;.&.9 u l B G B G G B G ] ` ( c q F 2.q l l l l l B l i H x.V e n B B l v f.l.r i v i q m ;.i i J K G r V ;.v v H %.H D B i n U.R.m.y.m.U.I.T X. . ...",
"W.^./.n.....' ] X.6.0.0.9 ; e e q i y y i y r &.v q i i y y r y d d b y q h h 4 9 r q 6 6 - w &.&.q B B i 5.m 0 n D G ` ` ` ` ` -.-.-.{ _ q L 5.e G _ _ ` l i e 9 m <XL 3 i i l e e m N 3 q y r 9 q H v q i i r N i.f.;.b i l l l l u j n.r.X.0.o.@.r.@....... .",
"W.W.m...] ' ' ] { ] B v v b m m m V V F m b m L L m m b v b v b d d y r r r r y y d d y a m ;.;.r y G b r 5.m q D H H ) H ` G ` -.%.%.` ) q m L q G _ G l e i v a V #XL r v v a a a r j b b v v v v m N b b b V i.f.p.N.i.V N N V V b j M R ] X.X...' ' ....X.6.",
"W.m...' ] ] R f < ; w b L $.$.#.#.L L $.L L L &.&.#.#.L V L V m d b d d b b b F H F F m m L m 1 q B G d r &.m w B H ` ` H H D H ) ` ` ] ( e m L q l G i r L 2.L m L @XL N #.5.i.&.>.s.7.*.L V V C V *.#.V V #.#.E #.E E *.*.#.) *.*.#.N v r e q f T / ' ' ' ....",
"R...T z f < & . + o * ; < < 9 1 1 1 1 9 < < 9 m y 1 9 9 9 9 9 1 1 1 1 1 1 ; 1 1 9 9 < F C ; 9 i G H G d y 5.m r B G H ` H H D H G ` ` ` ( e d V q B l e &.i.a < - d $Xm ; q N a.f.f.*.e q q 9 9 < 0 #.r < q q q 3 9 q 9 q q q 9 q q q 9 ; = ; = o + - 6 z T ' ' ",
"' 6 - & & + + + * 3 e i i e j l d m B B B v w L v y F F m m G F F F m G b r l v n B j s.z.r l G H K G y v i.v r B G H H ) H H D D H ) ) B e m #.r G i v s.m 9 i i V OX#.e v i V f.;.q n ) ` H B i w -.v e D D D B B D H G H D H H H H D v e e ; + * * * & - 5 z ",
"* . + * * * + + = q l v v v B n b H H H %.G r &.v i H I H H H F G b i a i q e q i i q g.x.q r i v i y y ;.&.9 y B G F H %.) G D G G G ) G e #.i.r D i #.i.r i B j ) oX*.i G v b f.N i ) %.%.` ` B r #.r r H #.K H H H %.%.%.%.%.%.-.-.` D i i < * = > ; & o . o ",
"= o + * - * * + * q l B n c ~ x q v v l b i r &.b q v B b v v y r r m V m N b r v b a s.k.v V N m m V >.5.r 0 b m m G H %.%.H B G B B ) ) e V >.r l u #.;.r l l l v j g l G B v p.V l H ) ) H ` B r -.v i H #.H ` %.H %.%.%.%.%.%.1.1.%.G i i < * * > > * + + + ",
"= o & = > * * $ = 9 i v i S } A 5 j z B %.) i $.v i B D ) H i w $.5.5.-.;.-.&.#.#.*.V z.x.V $.*.#.L L V 0 9 d F F m m G H ) ) H H H B D H e V =.0 i r V ;.r n l l l v v B B B v i.V j H H D D H B w #.v i F %.%.%.,.%.%.%.%.%.%.-.-.-.%.H v i < * * > > = * + + ",
"; + & * > * % $ * 3 r l i k A 8 q B B B D B r $.b i H H #.m i $.p.v 9 ; < ; ; = q q < s.z.< 9 q q 9 9 q y d b F G B m G H ) ` ) ) H B B n 3 b #.3 i e C >.w l n B H G B b v l r -.v e B B B B D B r #.v d L $.&.%.%.` %.%.%.<.<.<.%.%.H H v i < * * = > * * + + ",
"; + * * * - * % = < e v v 5 - 5 i n r e u y r =.b r m F F i N f.b 9 y v i q r y B B v s.z.j v G B B B m G m m m m m B m H H ) ` ) H B =.i.;.i.f.i.a.*.V i.w l B m H F m m v i r *.v q l B B B B n r L a i H L $.$.H K %.%.%.&.<.<.H B v v B d > * * * = * * @ + ",
"> & * * - - - % = < e i l r ( %X&X&XM.M i l r ;.b i H %.L d V >.r v G %.H n B H H H N $.;.j m ) H H H m H H b m m m m G #.) ) ) ) ) B ;.$X$X+X$X<X<Xf.V i.r n G G m G m B v 0.%X&X&Xt.M B B B G v w #.a r m H H %.H L L H %.<.<.%.m m b i v v > * = * = * * * * ",
"< + + * - - - * = 1 y y i *.6XdXfXfX7XR.G i r 9.V v I $.I d b #.r G H %.` n M H H %.B l j j v v v v B B G m b b b b m H ) B M B n ) G B B r N #.r N r m 9.r B H %.H m B n q.6XkXfXdX7XI.B B H H v i i.L r B G G H H L L K I %.%.K B i.i.r i v ; * * * * * * * * ",
"< & + * - - - = = < q q ] 3XkXhXXXXXgX7XI.n r p.#.b %.I L v #.9.i G ` %.` n R D H %.` H D l v H #.m i l i i i i y r i i i B $.*.) B H G l 3 V $.9 i q V =.w b G %.%.G n q.6XkXhX}. XgX7XM.B B B v r &.:.i r v B B m F b b b m G B j s.z.q q i = + * = * * * * = ",
"< + + = ; ; ; = = - ; 3 M.7XhX{.F.F.}.gX_.( r p.) v I H L b V -.i H %.%.` B B H ) ` ` H B l ) i.f.*.b j r r r j j r i j v *.i.P.q.V G -.H e V =.q n l V $.r B G H ` B b %XdXhX{.F.[. XsXV.E n D B r L :.L a q w r r a r r r y i r 9 s.k.; ; 9 = o * * = * & * * ",
"< & * = > < - = = w v b N.aX XF.S.Z.D..X_.' r a.) v I %.$.b #.i.i G %.%.` B ) H ) H D B v l *.f.b *.v v j r j j v j j v N E ;.N i.V l ` G e V -.e B v C ;.i B H H %.H B E.aX}.A.Z.A.F..XV.R l ) G r C ;.5.4.L L L L $.$.$.&.&.&.-.L s.s.a v v ; o * = = & & * * ",
"< * = ; < - - * * = = ; n.aX.XF.D.S.G.hX_.R r i.H B $.I H b *.i.i H %.%.` B ) H ` ` B B v l H -.N B e r j h h h j j j j j e f r -.b l ) G e #.i.w B v C *.w b ) %.%.H B E.aX XF.D.A.G.hXV.E B ) H i L a.>.a 0 w w r r r r a i i a w l.z.1 < 9 * o * * * * & $ & ",
"< * = ; < * = * * & & & ' _.sX.X{.{..X].8.j r a.m b I H H v #.a.v H %.%.` B ( ) %.` H D B n j v v e f B $.S S ~ ^ ^ ~ M $.j e g j e B G n q V >.r B v #.=.r v ) %.%.` B t._.gX XG.{.hX].8.B G H B r &.>.0 < r i i d d y y i y y y q s.s.< < q ; + * * - = * $ & ",
"; & = = > * @ * = 0 r r j X._.sXhXhX].v.B e r i.m v H %.I v *.5.v ) %.%.` B ) ` ` ` ` ` %.H r r r e c ( -.[ [ [ } } O.{ q.~ h e 3 e B B B j $.p.r B l #.;.r c ( c D H B M r.2XsX.XhX].8.z j B B l i 5.V 9 B J J J H H ) ` H D K F N 5.g.r y i < * * = ; * * & & ",
"; o * = > * + + = < 9 e 9 3 ] V.B.B. .c i i i i.m i H H G i #.5.i %.%.%.` M ) ` %.%.` %.%.H l r e f x [ } o.O.O.o.O.O.O.} ~ h 6 ; q j r j S -.i.q e e V ;.r } } 7 r j r e j 8.V.B.B. .g e r r r r 9 &.v ; e i r r w i [ O.[ i F B n b v e y i < = = = = - & o & ",
"V < + * = = * + = < r v v y j M B c j u j i i 5.V l H ) H v #.i.l ) %.%.` n B ) %.%.%.%.) H l e e f ( ;.q.q.;.q.q.q.q.q.2.;.j 3 q v ] E M x *.;.w M l V -.r ^ [ h B ) B B B B R R R M j N V H ) N w L v e v B m B N b | j.} u D D B v v l p p ; + = = = = $ q H ",
"*.N = * = * * + = 9 y v D G D l j i i l l i y ;.N i H ) H l H ;.i ) -.-.%.B G ) ` %.-.$.#.H v q e e j B ] { ] ] ] ] ] ] ( B e 3 < q l v r < V =.r B i N $.3 5 u j B B n l l j e e i l i n v l j e 0 L t < y i v v B l c S k e B G K K K D n v ; + * = = & - #.m ",
"%.V q & = * * * = 0 d B D G H D B B B l i e q 2.b e n B B l V &.r ) %.%.` B ) ) ` %.1.-.-.#.b r e e h c ] [ [ _ ( c B ] c h 5 3 < e n n n r V -.r D l N #.0 r V D B B B B H G B B B m G H n M -.) v L v b -.M i n D B c k k e v J %.%.J D p i < * = = * o i *.l ",
"*.H N = * = * * = 9 d n m F ` ` H H B l ] B i &.b l *.B v i m #.q B ) ` ` B ) G ) -.-.%.$.#.n r g 6 e j U ( S c c k j :.N 6 5 e 3 j ) H H n L >.r H v C =.q r V G G ) ) ) ` ) G G H ) %.) B B oX<X$X$X<X<XOXN i B J D [ O.} 3 9 q e y e 9 < 3 > * = = * ; #.E j ",
"-.*.N 0 * = = * = 9 y b F %.%.` ` ` B l f.OX$X+X<X<X@X*.i y v L q ( ( l ` | { c B ) ) H H H i e j f r j j h h h f e e j f e f r 3 l ) ) H l b #.9 H B #.>.q r L n H ) ) ) ) ` H G H %.%.%.H M ;.2.#.&.&.;.i.M l G H G _ O.[ e v n n B b j e r < * = = * i *.v r ",
") ) N j = = = = ; 9 y v G %.%.%.` ` D l 2.f.5.5.5.a.l.) j y b V j h.S r _ H.j.c b N N v t t 9 9 j g g j j j M M z z z j j j j g 9 v ) %.%.v m &.q m b #.=.w a C l H ) ) ) ) ) ) H H %.%.%.H B l u ; b 9 < j j l H %.H k u u e B B B B J D i i < = * + ; #.;.j q ",
"N V v r 9 * * = ; 9 i b G H H %.K ` G l j e 9 V w 3 j l v y m F u O.S v ( } } l ) -.$.#.#.#.b w g j j M B E E B B E E B M j j g 9 l ) ) ) v m #.q b v V =.w w m v b B G H %.) H H H #.) %.) H H B q L r e B D G %.1.` D D G B ) *.V B K K l i 1 = * o r -.*.q 3 ",
"N V b i r = * * ; 9 i B H H H ` ` ` K D B l r &.v i D H G r m F ; 6 e i i e u u B G ) ) H m i q j j M B R ) ) B B B B E B v j g 3 r H #.#.b m &.r i v N $.0 0 b v v b m H ) %.H H H #.) ) ) ` G j r &.m q B G G %.1.%.` ` ` B #.z.H l ` ` D n 1 = + = #.;.) q 9 ",
"V V V N j 1 + & * < r v G H D D D H G B G v y &.a e B D l r $.m = r l B D D ` ` ) ` -.%.) H i r j j #.B B B N M M M M M V #.M r q e H $.$.m d >.F r q v #.9 9 t r v b b B B H H H B G D B B B l 9 d s.5.i i B c G J H G H G i m $XL i K G l l < * + w *.;.N 9 9 ",
"N V #.H j 0 * + = = 9 e r i i r i j i i i r i 5.N w y r a $.5.9 9 b B D ) ` ` ` ` 1.1.-.%.B v N M j N b j v v v j j j j N N M g b v m %.%.#.a L s.F w a V 9 9 w q w i i r r a v i y q w q r q 0 y 4.z.4.L a q q r r i i l v r m +XF q i r q q < + * N *.-.b e w ",
"N V #.V v w ; o = w N C *.-.-.;.;.=.-.=.;.&.L i.*.&.5.;.2.L w 9 i V D ` ) D G D ` ` -.-.) b m ;.V g r r r g j j j j j j r e r j *.b v H $.$.b y $.i.;.;.;.-.&.;.5.5.5.2.;.&.&.;.5.5.L b b &.&.P P P L >.5.$.C V L $.>.>.;.i.>.;.@X&.#.;.-.V m < o w ) *.*.v e e ",
"N V *.V v r 0 & & = 1 0 r v a v v v a v v a v i.V i v v r 1 r v b ) G %.H H H B G ` %.) B v ) ;.9 N r q 9 r 0 0 w 0 v 0 e j b 9 #.m r B H L K d r r v #.*.b v b b b b N b a a v b v a w 1 r r 0 0 : 1 0 w w r a a v b v r v r V $XL w v r 0 0 = * V *.;.*.r q e ",
"V ) $.H v r q ; + = < q q e y r y i y i i q r i.b 9 y y y v J G n H G ` D ) z.*.l ` -.H b r N #.*.#.0 = ; E v = ; ; E 0 ; r b #.*.r y m H #.%.K m r 1 V ;.w * 0 9 9 e i i i v i e e &.&.9 e j i i l u i e u l B l l l i l i q m OXV q i e 5 q * w *.;.q.V 0 q e ",
"N N ) V v j e q & = 9 i v l n n n l n B n v v i.v q l v v v D B l m l B n b #X&.r D G B l q 9 w w 9 ; 9 9 *.;.0 ; 9 E r 3 q 0 e 9 9 i b B G G m b r w $.a.V ; q q r l v B M B n i r s.OXr l G D G G G B B G G ` H H ) H H D l N OX) u G l u q ; V *.;.2.M 0 q e ",
"N b N N N j e e ; o ; q e r r r r r r r r r r #.v q q r r r r r q r q q 9 a #XL < r w r w 9 9 1 9 ; 9 0 ; v i.-.v w *.v q q 3 ; < 9 0 r r r r r w a $.i.a.a.V r q q q r i i r r q 9 g.x.9 q r r i r q 9 9 q r i i i l i i r q q w 0 q r r < ; i *.;.i.q.) j w e ",
"V N V V m v r e 0 9 v V *.$.*.&.;.;.$.*.&.&.$.;.;.$.#.$.$.&.&.&.$.L L L F L OX&.d L L L L m L *.L #.-.-.N 0 b ;.;.V *.V ) ) N V *.*.*.#.$.$.*.*.*.;.d.;.;.a.i.-.;.;.*.;.;.2.;.&.#.V l.k.b L #.L L m m b #.&.L L ;.=.-.&.&.*.*.L N #.C L #.v r *.;.d.d.;.) j j e ",
"N N H m N N r w r 9 = 9 w r r v $.a.i.a.5.m v m v w w q r i i a r w r i r b $X&.r v b a w r d r w v N i.oX#.9 0 r r #.v r r r r j i r i i i r r r r r w r r r r i v v v v j j i r 9 z.x.r i i r P 5.5.&.=.m t a v v v a a r w 0 9 w 9 0 9 = v *.2.i.2.*.B r 0 q ",
"v V *.H N N i r r q * 3 q q q 9 q #.f.5.q ; 3 V w ; q q r l i r q e e l i v OX#.r v i r y y a r w q 9 r 5.a.i q q w *.v q r i i r i j i r q 0 q q w w w r w 3 e 9 e r e 9 < 3 3 q q s.l.q e i e w #.i.C 0 9 e 6 8 4 * 9 9 3 ; - - - - - $ o v ) *.*.] ) v q ; = ",
"M V $.) m V b q 0 q 3 i l l l l q v a.V < q q $.y 9 l v B H G H ( G l H H E z.2.v %.%.K F K L L m b v w b a.b e r 0 *.j e N B H ) #.#.H N m H V i a b b m b r v i l l i j N V N u v s.oXj B ` G i v ;.b q G B ~ ^ 8 u ` ` ` ] ) ( ] ) G j e n V ) m N N j 0 ; ; ",
"V V ;.$.H *.b q q 3 - q e e e e 5 e ;.r ; q q &.y 3 j b l n l c } [ e G ) N N v n $.$.L F L L L L V b y i 2.b ) ;.*.i.;.;.q.V B %.;.%.N V q.f.1.n e i i i i e e q q q q B ;.f.;.j j V V j G -.` l i 5.m l ` G u 6 4 u ( _ _ _ _ _ _ G ( j e v V ) V V V b r 0 q ",
"b N *.*.) ) v e q 3 3 r B B B R z r #.a r M j ;.v j ;.q.;.;.] G ^ [ e B H B n B G $.&.I F V L L L L m y r q.N f.<X$X$X<X<X$X) N %.-.%.B *.d.b ;.B B v v v N n j i i j j B q.v #.) r j j B ) ` ] G i #.v l _ G u t j G ` { { | | | ` ` _ G j n ) *.*.#.H N r w e ",
"v N ) ) ) V j e q 3 < e j B H G n r &.v 3 e e ;.v q l B m m G l 5 e e H %.%.H $.$.$.&.$.L F L I L L V d a i.N v H b *.V m *.M V -.;.*.B -.*.N #.N j j j g r e j j z j j j N v #.N u G ` ` ` ) G l r $.v i G G l m G G ] { | 1.w.0.1.1.| ` j v V #.*.*.) N r r e ",
"b N ] V ) ) v r e q , u l B G G B i &.a 5 5 q 2.v 9 l B B G H G N ) B ` -.$.%.$.&.&.&.&.$.I $.$.&.L L m v i.N q r r 7.M e M V ) 2.;.%.H N N V V V N v j j r j k ( ] k j j j B j q l ` ` ` ] G G j r >.v e G G l #.G G ] { | 0.w.1.1.w.| ( h v V #.*.;.;.V r r w ",
"V V *.E V V v e e q < u l B B G l i &.a q u r 2.m q B H %.` H ) V %.B %.-.%.L $.$.I I $.$.$.$.$.$.I L m v i.V i b v i.B l %.-.;.q.;.$.$.b j v j v v N v j M B c ] *.k c v j j 3 3 l G G l l l j q V a.v e c l j b l l _ | | w.w.w.0.0.| ( u N %.*.*.-.2.V r e e ",
") ) *.] ) V j r e q < 5 u k l l j e &.a e u q &.m e B ` H D H H ) ;.B %.%.%.%.&.$.$.I %.%.%.I $.$.$.$.V v a.V v m j 7.B v $.*.-.;.2.2.*.N j v j v V E N M M :.] { -.( ) Z g r 3 q r r q 9 0 0 w N p.i.a 5 h k c B k k ` | 0.w.w.w.w.| | G e B *.-.%.-.*.V j w e ",
"V ) ;.-.] ( M r r e , 5 u u k l u e $.v q u q L b u v B v B %.H ) ;.v G %.%.;.%.%.%.I %.,.$.$.$.&.&.&.F v i.N i b v =.M v ) #.$.%.%.;.*.j e v j M E ) ) V k ( ( { ;._ B B r r v ) $.#.V #.#.m #.g.g.#.w q v j A ^ 8 k ` | 1.w.w.w.w.O.| G u B ) %.#.%.*.) j r w ",
"N ) =.{ ) M j r r e , 5 u h k p i q L i e e q &.v i B n B D H B V *.B G %.-.%.$.;.&.%.L L I $.$.&.&.&.F b a.m d v j *.v v H L #.H H -.) h u v j B E ) ) ) x x T -.-.( k k e r 9 0 r i i w 0 9 a #.i.#.w N ;.H A ^ k k ] | | 0.w.w.w.w.| G u v H ) V ) *.) l i e ",
"N ) -.( B j j r e q < e u l D D p e #.y u l r &.v u D B D D D B ) ;.H %.-.<.-.%.$.%.&.&.L L I L &.&.I m b i.V y v v i.B v H #.H H H %.%.e 5 M M B R ) ] ] k k c -.;.( z x r g ; ; q < - , * - < 1 C >.r u B l 6 6 u G ] ] { | w.e.e.w.w._ u N #.*.$.%.` G i e 3 ",
"M ) -.) R E B r 0 3 < e k G D B u q #.r u l q L v j H B D D D n B ) B ) %.-.%.` %.%.%.$.&.L L L L L H m b i.N r b v a.V v H ) H H %.$.%.n e M B R ( { -.] j h c { *.( S k h j q e B i 5 u e u u e a 5.b e G G l k c G ( ( ] 1.e.j.e.w.1.G u n ) -.*.-.-.B i e q ",
"N ) *.) ) H b r q ; 3 u k l G ) l 9 b 0 e M r #.v j D D G G G B v E H ` %.%.%.%.%.%.%.$.L L L $.I L F G b i.m r B v i.N v H H H ) %.$.-.B r M M E ( ] ] E j f B -.*.( ~ k r j 2 9 e q 9 9 9 9 q e w L v 9 q q q q e i j l l _ 0.0.1.| | S u v V *.#.*.-.B r q q ",
"N V *.) ) V v e e 9 e k S l B a.f.s.s.f.f.f.v #.v j G G G G ) G j V H H -.%.` ` ` %.) F F m b B F $.L m d 5.a i b r &.m v ) H H H H %.-.n r M M B E ] ] E j j c { *.( ( h r g j b b b N N m d m F V #.#.V V b v b m m #.&.V n G | 1.{ ` S u v m #.%.) %.N r q 9 ",
"v N ) E V V j e q 3 u G G D l f.$XOXOX$X$X$Xb #.v l G G G ) -.` j V B G %.%.%.H %.` H F m H 5.) v F L F b s.V i v y ;.m v $.%.H H ) %.%.B r M M B E ) ) B g ! ] -.;._ &.H h j 9 9 q q q w q 9 9 r i m r 0 e w 1 w w 9 w N i.L i ( 1.| _ S e v m %.-.-.-.H j e q ",
"v N ) V N E v e q 3 5 l J G l z l q v w r j q -.V l ` G l B ` H r N n H ) ) H H ` ` %.#.B H OX;.j m L V m s.V i b a ;.m v ) H H H H ) G i e M B *.) ( E B j *.( ] *.} 1.G f j ; < i y 9 q q q y e 9 b 9 q i j i j j l l i v L a B 1.1.` l e N H *.;.1.1.) l e 3 ",
"N V ] ) B V v r e q 5 k ` ` _ J B q m q j G i =.;.i n B i l l j r j i l B B n n D D D B y b #X&.q y d d v s.V y v a 5.V i m v B B v v i j M B V V V R R B j h k ( ] S x u j M j y v D l b v B G D r m r l ] ` ) ` ` { | ` l V m i 1.-.G l u B ) *.-.*.;.H j e e ",
"E ) *.) B V r q q q 6 l ` ,.,.,.G y &.v B ` v &.5.H r w w r e q q e q q r r r w i i i i q a x.L 1 r w r a &.V r r a $.m r r r i i e 9 < v i.*.M g j B M B z g h u u e r j M B $.) v n i l B B H H i L i l ( ) ` ` %.1.| { n v V e ` 1.) l e B B ) ) -.0.) j e e ",
"E V ) V ) N e q q 5 e B ` ` ` ` G i #.v B ` j #.5.a.5.;.&.&.&.#.L L &.$.;.;.&.;.i.>.>.i.=.&.$X5.#.i.>.;.&.>.&.L L $.>.>.$.&.&.$.&.=.-.b j ;.; N M M M j M M j e e e e r j B r N q.l u i v B l J D i L a i G H ` ` ` -.` ` B N #.r H %.H l e l ) ` ` ;.q.-.j q q ",
"N V ] ] ) r e 5 5 < u G { ` ` ` D y #.a l G r V ;.#.m r r w w w r w r v &.f.oXOXa.C v b v m $X&.w b v v m L v r r a L a 0 a r w w t =.i.m N V V r r e e q 0 w 0 0 e r e i ) #.;.;.i i i b i l H l q V w e ) B D ` ` %.%.` n m $.r H %.` B u e B ) -.q.t.0.B r q ",
"B V ] ] M e e q ; < u G ` K %.` G i V r l ) r L #.9 3 e q * - 9 q q q 9 q L z.5.w 9 q r 0 v x.#.9 q y r r =.v 3 q w #.a 9 i r 3 9 9 w &.>.r v r q y i i i r y i y y i l i l H ) n u n i m i M d.f.s.l.l.f.f.B n ` ` %.%.` v b #.r G %.` D i q r ) ] ;.0.-.M j e ",
"N V ] ) j e e 5 & < u B G G ` ` G i L w l G i &.N q G H H l j B G H H B y y &.b 9 B J G n V s.*.j G %.K v ;.N l B v >.N b $.%.B v m d v i.v q d b m H H m m H H G G ` ` ` l i i i D J d m d n z.$XOXOX$X$X@XB n ` %.%.%.` v m #.r H %.%.G i q ; B ] ` 1.-.B j e ",
"v V ] N r e q ; + 3 u l l G H ` D r L i l G j *.v j { -.%.B B H H H ` H B r L y i %.%.%.K N j j n J %.K n $.v i l b i.b m 2.-.H m H G v i.N v F H H H H H #.$.` H H %.1.1.` ` K %.K K b L v l M l q F a r M j B ` %.1.%.%.B v H r %.1.%.H i i = e ) ] ;.` B j r ",
"B N H e 9 3 3 + + 3 j l l G G H n q V i i B i *.v l %.-.%.N B H H ` %.` G y #.a p ,.<.%.K G G J H %.%.D l #.r i B b 7.b b $.-.) -.#.H v ;.N v H L G H H H H %.` H H H %.1.%.%.,.,.%.K m *.B v n i r #.a e B D H ) %.1.1.%.n b L r %.1.%.B y y = * B ) ) ) n j e ",
"] ] V q 3 ; = X * q i l G G H J B q L r i G r *.v l ) %.%.N B H G ` ) H B i &.d v %.%.%.K H K %.%.%.` D l 2.N i G v ;.M v %.-.H %.%.%.b -.v d H H H H H H H H D B D D ` %.%.%.%.,.%.K B L G B G m y #.a i H ` H H %.%.-.%.n N #.r ` %.m N v r ; o e H B B j r e ",
"-.-.) 5 3 < + + = 5 u l G J H K l i 2.v l B i -.v l H ) ) v n m G H ` H B r -.b v I %.%.K H K %.%.` H D j ;.N l D v i.N v -.1.H ,.%.) v *.v i H H H H H F H H n B D D D H ` %.<.<.,.K B &.F n F v y &.m q G ` H H %.%.-.%.n V *.r ) %.n V 5.r < o = B ( H j r r ",
"-.{ G r 5 < + * = < 5 u p B B l q V f.N v B r #.v l H ) H v B b D G H H B y $.v i K K %.H K %.%.` H H D l 7.N n H b i.N n 1.2.H ,.H n i *.v r H #.#.H m m m B l l n B l B D D H K K n i L d i d r m s.&.y i m m m G H H G v V &.r G D i b g.i ; + o e ] { ( j v ",
"*.] j e q = * * = ; < 9 e r i j V f.f.b i B i -.v l ) %.) n G n B H ` H v r #.v y D J ,.%.%.%.` H H G D n i.m v H n 2.v n %.%.G H B b r *.b i H H #.L m v r 9 9 q w r r r q 0 r i y y q r r q r m a.z.l.&.y y r r y i y r r v V r i i 9 v 4.r ; & o = B ` ] j j ",
") ) r q 3 & = = ; a N L #.L L 2.l.oXi.v i B i -.b n %.%.) n ) n B K H G v r *.v q v H %.%.%.%.) H G G l e -.v r M i i.N l %.) N N B B i #.b i H H #.V a q a L L L L L L $.#.$.&.&.$.#.L L #.$.&.5.5.2.2.5.&.$.L L $.$.$.$.&.&.&.;.;.&.L L 4.a < * & & e ) ( r e ",
"B N 9 ; = = * = = ; 9 q 9 0 q i L 5.5.v l B i &.v n %.%.) B ) b b G B v q.%X3X&Xn.n m %.%.%.) #.H B 7.-.V 2.#.#.;.j -.N y B B S ^ k i i ;.v q v l b i 9 v 5.L t w w 0 r r r r i i r r r r r w i r q 9 9 0 0 w w w r r r r r V V i r w 1 m s.i ; & & & = l M e e ",
") v 9 ; & ; ; = = & < 5 e u e 9 0 L 5.i i n i &.v n %.%.) B H v v B v 7.6XkXjXkX7XI.B G H H %.%.B B z.<X$X$X<X<X$Xm -.b y v l A } h e r ;.V q j j v e 0 5.$.9 q r e i e e V #.q q r e x ~ u ; h ^ k q v v i a d r i y e e 3 m L 3 5 3 ; v 5.r < * * * $ q M g r ",
"*.r ; = = ; = = = - 5 u l l l j q r ;.a e r V -.0 B %.1.%.b F n v v q.6XkXhX X.XgX7XM.H G H %.) B M *.$.H &.#.#.*.r *.M y B l 8 x 6 i r -.i.b v b v e m 5.w q v v b b n r 5.OXr i b i k k u q k ~ x q m m m m m b B G B n i H ;.w v i r b >.i < * * * * - v v j ",
"*.e = & ; ; = = = = < 9 r r r i q r L v w m p.V 9 B %.%.%.D G l i j E.dXhXG.F.F.}.gX!.] B ` ` ` ) G n j q *.i < q q *.v r D i 3 6 q i q b f.i.v w w 0 m #.r 9 q w q q q 9 5.+Xw 9 q 9 ; ; ; 9 < ; < 9 w q q w r q r r r r q H 5.r w q 0 9 ; 9 < * * - - & q N i ",
"V q & * ; ; = = ; a #.*.-.;.a.a.=.-.;.;.;.;.N ; q i v j j ~ ^ u i B E.aX}.D.A.D.[..X!.] G ` %.%.%.-.1.) l *.v u i r ;.b i D l j z B n i q b ;.5.-.=.-.5.i.2.;.;.;.;.;.&.L s.x.V &.$.$.#.F V #.L H #.$.$.#.#.#.$.*.&.&.&.;.$.$.a.#.&.&.#.L v b 3 * - - * & * v j ",
"i = & = ; ; ; ; ; ; 0 r r b N b v N -.V v w 0 v N m V v j ^ } u y n E.aX XD.A.D.{.hXV.] G %.%.%.%.2.2.` l ;.b i d r q.N y D v i M G G B i q w a a v v #.&.b v v v v v i w a.OXr r i a v v i a r r r i v i i i r r i i v v j *.2.r a r r w 9 w < * - - * = o ; e ",
"= o = ; > > > ; ; o = < < 3 9 < > 0 >.N < q n H G H H b i h k 5 i v t._.sX}.[.{.hX]. .B H %.%.%.%.-.1.` v -.b i b a i.N q n v l B B B B v v v r y q 9 #.;.0 9 q e i i q < 5.OXq q y i i d i y r q r q y i i i i i i i i i e #.;.q q i r 0 ; 1 ; * - - ; = & o + ",
"< * = ; < < > ; ; = q i l v l i y r -.v 9 i n H D B n l i q q e v b N t._.sX.XhX].8.B B %.%.<.<.%.%.%.G v -.b i B v 7.M q d b i B B G B b m G G G B r #.9.r B B D %.H l j 5.OXN v G K H %.L L H v B b K %.` %.` %.` ` ` H n #.-.w B H G v r r < * - - ; ; = & & ",
"1 * = ; > ; ; = = ; y v B B B b v r $.t r B H H H D D B B i v l B H b N t.B.B.B. .B v G H %.&.<.<.%.H v r $.b i B v ;.v y d d i M b m m b m B m F b r V -.r G K ) ` D v l #.;.j v H $.$.$.$.L G M H B L %.%.%.%.%.%.%.%.%.B #.;.r B H m v r r < * = ; ; = = * * ",
"< * = - < ; - = ; < y n B D G G b r $.v i H ) ) H D D H H l v n n B v i v M B B M b F K H %.<.<.%.%.F m w L v d m v ;.b y n n v N d d d G F B F G b r V ;.r G H H D D B l j r i B L %.$.$.%.L G B H B %.%.%.%.%.%.%.%.%.%.n #.7.r B H B v i r < * = ; ; = * * * ",
"< + & = ; ; * * = 9 y b G G H H G v 9.m i H ` ) ` H H ) ) n N B n B B b b n v v b m F L K L %.%.<.%.#.G i #.a v K v ;.b d K F v V b b F K G F F m B y V ;.i H ` H B B B D D D K L $.$.$.%.I L m v H B %.%.%.1.%.%.%.%.%.` l *.i.r B G b v y r > * = - ; = & o & ",
"; o + * * - = * = 9 i B G H G G G v =.v i ` ` ` ` ) ` ` H v j v n D D D D B G G F H L F F F L %.%.K %.K v #.v B H d ;.b d %.I m ) m m F K F F B v i q M *.e l D D D H D H H I %.%.%.%.I I I I m n H D ` %.%.%.` ` %.%.%.H i *.i.r B H B i q r < = ; - * & o o & ",
"; + + * * * * * = q l D H H G b v r $.a i H G H ) ) ) ` G l l n D ) B B D H H H H I L F L L L I %.I %.K v #.a p F y ;.b b <.I G ] B n D D n n i ) *.v V -.v ] ] l D H G H ) ` I I %.%.H L $.%.K M ) H ` %.%.` ` ` ` H B v q V ;.q l N n i e r < * - ; = * + o o ",
"; + = = = = * * = q n B H H B ) j 9 b 0 e ) B B H G ( ` G l B G H H v l D K ` K %.$.L F I $.I %.<.2.,.K v &.b d J d 2.m F 2.<.B M F B F n m G i 2.+X$X$X<X1X$Xf.j D H ` H ` H %.%.%.%.%.%.%.%.%.M H J ` %.1.1.` %.H l ] -.n #.;.v *.) j i r r < * - - ; = & + o ",
"; & = = = = = * = q v G H H B d.oXz.z.oXoXz.V l G ) ) ) ) n b H H ) B G J ` ` ` %.%.I H $.%.%.K ,.2.,.K i &.b n J d &.b F <.<.B z D D D n K G v ) i.&.&.&.;.i.*.j B G G H H H %.&.<.%.I I %.%.%.B ) H %.-.-.%.-.-.) i 2.$X$X$X<X<X$Xi.r i r r < * - - ; = & o & ",
"< + * = = = = * * q l m %.H B f.@Xz.z.OXOXOXV j B G ) ` ) n N B B G D H K ` K ` %.%.%.%.%.%.I K %.%.,.K i &.d n D i $.d D %.%.v v F n D n m F m n j 9 r V ; e j l G H G G D D G %.%.%.H L $.%.H B ) G ` %.%.` 1.1.` n ) i.&.&.5.;.i.*.r r i r < - * , * = & + & ",
"< & & * = = * * = e l G ) B n j j q V y e j j n D G G G G n N l B D G H K %.%.K H ` %.%.%.%.I K I %.%.J y I d p J d &.b n K I b a F d n m m F K G b r V &.q v D D H G D H G G G H ) ) %.%.K L G n ) G %.%.-.1.1.1.` B n j q b *.9 e r r i i r < * * , * * = * * ",
"< & * = = = = * = e B H ) G G G D i ;.V i G B H ) G B B B n N n B G G D H H B B n n G %.%.K K K H %.%.G y L y p J d 2.m d I K d a d d n m K K L K F y V &.r D J G D G G D D B B N B B H H H %.H n ) G ` %.1.1.3.1.%.) ` ) i m &.w b n i i i r = + * * - * = * * ",
"= + & = = = = * = i B H H ) ` %.) v i.V y ) ) G H H D n B l z B G H H G D D B V a.$.n H %.%.K J J K %.K i &.d n K d 5.m p K K d t d d n F I K H F F i L ;.r B J G D B B B B n *.;.N n H H ` %.) M ) H ` %.-.1.1.-.%.%.%.H l m &.w m H v i w r = O + * * @ * + + ",
"< o + & = = * * = i n D H %.1.-.) v i.#.e l G B B H H D D l v n B G G D B B v N OX5.j J %.%.K F G H K D y &.b n n b s.$.i D F y r i i n F F F J F G i C =.r B B B B B B l l j ;.OXb v H H H H G j H H %.-.1.1.-.-.%.;.$.H v C =.w m H B d w r ; + + @ * * + + = ",
"P.;.l < * + + + = e l D D ` -.-.H j -.a.V w r r y y i i i q e e e i i i i u q q +X5.3 i v v i y i v n i r &.b 0 y 2.x.s.L y y i j e 9 y i i l q r y r m $.0 r y u e u e e q < &.<Xi q y i i i r 9 i i n n n n B G ) -.-.$.v V &.r b m b v r r ; + + o * 3 B d.M.",
";X;X*XY.-.i ; + & q l H H H ) %.H j *.i.&.m w 1 t v 0 w w w r r a a v b N N b v x.<.r m V V V V m m V b d &.V b 2.z.s.s.l.&.b b H H V V m V V N m m v m $.v b b b N m m m m a &.x.d b m m N V V m v b m b v b v r l H ) ) j b L w i m b a w 9 = $ 3 N d.:XeXwXn.",
":X,X,X*XY.Y.d.%.i e i B ) ) ) ) B i #.;.a.#.b s m L y s a t a a b b b V #.#.#.L @Xa.m &.&.=.=.-.;.&.$.#.V &.H L $.$.F H $.&.#.#.&.;.;.&.#.*.$.*.*.*.C C $.N #.#.#.#.*.#.#.#.V 5.@XF #.$.*.#.&.&.#.V L L V H #.#.&.H r i v q a L 9 r d r q 9 r H u.*XrXyXiXyX*Xu.",
":X*X*X*XY.J.J.Q.Y.P.u.%.B ) H m v i #.5.*.w 9 9 1 1 1 1 < = = < ; ; ; ; 3 9 < q OX2.; q r r q q q 9 ; & 0 ;.v < 9 9 9 0 9 1 1 > < 1 9 1 ; = - = < 9 < b *.9 0 q q 9 q 9 9 9 ; &.+Xr < u h 3 ; 3 5 3 ; 9 0 e w w &.f.N v L t d L r H #.H 0.P.,XeXtXyXiXiXiX,XP.u.",
";X*X*X;XY.Y.Y.*X*X,X*Xd.l H H F b r ;.L 9 l B B b b G G B i i l B B l j k l j n z.a.i l G H K G H J i - w ;.m u G ` %.%.K D d d d p p D y < q q y v r m *.q v H D D B B B l i ;.OXN e u k 5 < 3 5 5 3 e i l l e i i.$.r N i a L 9 i r v *XrXyXyXtXiXiXiX4XL.u.r.",
"*XY.*XL.u.Y.*X*X:X*XL.q.l b H #.v r L t q H %.H F H #.) H n H B B G G G G G l N ;.*.j G ` ` ,.%.` 1.K 9 a ;.m l 1.3.a.3.3.,.I I I J D %.K d b v v m i N $.r B ` ` ` ` H G D n #.s.v e q r q i 7.E.E.E.t.l n G G i #.$.r N i a C 9 i i v Q.5XyXyXtXtX9Xn.m.n.u.0.",
"*X*X*Xu.L.*XY.M.Y.u.e.1.i a V H i w L w i H %.%.$.) %.) D n ) B D G G G G ) G j j j n H ` %.` ` ` ,.K q v i.m D 1.3.k.3.3.3.,.I I J J I K i j i v B l V &.r D H ` -.` H G D l r e i i i v i t.8XdXfXdX3Xn.B H ) l ) ;.r V v d V 0 v v b ;X4X5X5XR./.>Xn.L.L.n.u.",
":X:X;XY.*X*X%X-.L.u.e.0.q 9 r i q m s.b r G <.-.%.` H H G v K B G ( G G ] ] ` G D J ` ` ` %.%.%.,.1.H w v i.m G 3.3.a.e.k.3.<.<.I F F F G G ( l i B l V &.e n D H H H D D ) G l l B D S k t.8XfX.X}.XXgX3Xt.c l i ) ;.i N i v V 9 r r v ;XwXqX>X] L.>X>XR.L.n.M.",
"5XwX5X*X:X5X;X;X/.L.P.Y.%.; < w m i.s.b l H ` %.) H ) ) G p J B G ` ` ` ) ` ` ` ` ` %.` ` ` ` %.` ` G 9 v i.m D 1.3.3.3.e.e.3.,.K F J K G ^ O.S 9 i e V -.0 r l l l l r j O.O.x q r k ^ _ &XdX.X{.F.F..XaXR.j q e V i.v r w v v q ; 9 q.wXtXyX9X5X>X>X4X;XM.L.M.",
"5X5X6X5X,XwXwXwX5X;X,X*X*Xq.N -.5.-.&.N l %.%.) ) ) ` ` G B G n D ` ` ) G ` -.-.` ` ` ` ` ` %.` H ) G e i i.m B ,.1.3.3.1.3.,.` K J J K D [ O.S i H b V -.r V *.] ) ) B B O.O.x i b k A ~ ^.gX{.D.Z.Z.G.hXV.*.;.;.$.a.;.d.d.i.*.V N M.wXtXiXyX5X;X5XwX5X:XP.M.u.",
",X:X5X:X:XwXrXwX9X,X>XW.Q.*X1.j V *.-.v i ) -.H ) ) ` H B [ } k u B l l l j n B n n v v l l n n j j S A u i.E B ,.3.1.1.H H G G G G G J G h u 6 q l e V -.0 i v n n n B i 6 5 5 i l q , 5 E.sX}.F.Z.Z.{.sXB.M v b L ;.v b b N v r P.rXtXiXpXqX4X>X4XqX4X;XP.n.y.",
";X:X:X;X;X5X9XrXqX9X,X>X/.Y.P.) w V %.j r B H m H D H B l [ O.k y D m G D B l n b b l v l j v j r e S ^ j i.N l ` ` ` K n ;.;.j k G G G G l i u u i q N *.9 i n B n n B l r e i l n i r r 8.C.sX}.F.G..XC.] e 9 q V *.9 q q b V u.rXrXrXyX4X`.>X4X4X/./.Q.n.r.0.",
";X/.;XQ./.:X4XrXtXrX9X,X,X-X-X*X*X*XY.u.j l B v i n n l e u h 5 e l i i i j l l n B B v l l l l l r 6 4 q *.r 5 j l l i q &.4.3 5 u l l u u j i u e 9 b #.9 i v l l l l l i j i i i i y y j 8.V.].|.|.B.W z v l q v m E >X5X5X5XrXyX9X4X:X4X'.4X>X5X>XQ.L.r.0.X.",
";X;X5X4X).4X4XqXuXtX9X-X>X>X,X,X,X9X*Xy.B e l e q 3 9 9 ; * * * = * = ; < < ; < < 9 9 < < ; ; ; - ; & & ; r ; - ; < < < = V L * * ; < < - - < < < < - w b ; q u y e e e e q r e q r r e e q r W  . .Q Y r i l l q r v d.qXrX9XrXtXiXrX).(.(.`.qXrXqX3X>XQ.u.0.X.",
"/.;X:X/.(.).).4XqXpXeX,X-X/.>X9X5X>XJ.o.' e i r e r v b m m m v b v m N m N m N V V V V V N m v v b a t r v N V V V #.V V L H N N N m N N N b b n r < 0 v 9 r i v l l l j r j i i j v v v v l j j j j j j l l v r r m ;XrXrXqXtXiXiX9X).(.>X`.'.uXqX^.).W.n.y.6.",
";X:X5X/.W.).4XqXqXtXpX9X(./././.u.r.J.r.0.i < 1 1 0 1 1 1 1 0 0 0 0 0 0 0 0 0 9 9 q w q w w 0 0 1 1 < 0 N *.;.*.*.*.;.*.*.*.#.V #.*.;.*.*.*.#.*.#.H m v 9 ; < q q q e e e q q q q q q q q q q q 9 9 9 9 9 0 q 9 < ; ) tXtXtX5X(.>X>X0X0X4X4X`.`.5X4XW.W.I.y.r.0.",
"5X5X:X>X>X4XqXqXqXqXtXrX9X>X>X(.u.n.J.u.u.B o + + + @ + + X + + O + + + O + + + + & & + + + + O   + r ) ;.;.q.i.;.*.-.-.-.-.*.*.;.;.i.q.;.;.2.-.$.$.#.N v 0 = $ & * = - - - * * = = = = * & * = = = & & & & & & o . u.tXtXqXJ.y.>X4X4X0X>X>X/.T./.,X/.W.I.n.n.t.",
":X5X5X5X4X9XqXqX4X4X9XeX9X-X>X>X*X/.U.J.u.0.* @ @ @ @ + O O O O + O + + O + + @ * * * * + O X * w ) *.;.q.q.i.2.*.#.*.#.*.*.*.*.*.$.2.2.$.-.*.#.*.$.) V V V v q = & * - - - - - = - - * * = * = = = = = * * * & o - *XyXtX9X).(.4XqX>X).(.(./.U.W.>X>X>X^.m.n.t.",
";X;X:X;X/.4X9X>X/.(.-X,X-X*X-X(./.Q.U.L.L.u.9 + @ @ @ @ O O + + @ @ + O + * = * @ * * + o = r *.;.q.d.d.i.;.*.*.) #.#.V V ) #.) m V #.%.) ) V V V V ) ) ) ) N N v q - * - - - ; ; * ; ; - - - * - = = = * = * & o j wXtXtX5X/.4X4X'.(.).T.U.U.W.W.Q./.R.R.m.t.0.",
";X/.:X*X] u.(./.Y./.-X-X*XY.*X/./.{ n.L.L.n.B O @ = # # # @ # # # # @ @ = = * * + + + = i *.;.q.i.d.d.q.*.V N H H *.*.) ) ) $.#.b N V ) ) V V V ) ) ) ) ) *.#.V V V N e - * - ; - ; > ; * - - * = = = = = * * $ o t.tXtXtXu.X.4X'.)./.U.J.J.Q.)./.W.*X0.R.m.y.0.",
";X;X%XL.t.n.L.L.L.L.Y.P.k.j.k.P.L.0.r.u.u.n.{ @ O # # # O O # # @ @ @ # # = * & + = n *.q.q.q.q.q.*.V l j r r v v N ) ) B N N N v r v j v v v M N N B M v v N V V ) E V v e - * - - ; * * = * - * * = * * * * $ - /.tXtX4XI.L.Q.W.K.U.n.@.y.U.U.K.K.Q.Y.U.n.r.r.",
"*XQ.y.] ] 0.X.6.1.{ -.%.-.{ ] { -.] ( { r.y.0.< X O O O O O + @ @ O + # # + o * v 2.d.q.q.;.N r e q ; 3 3 3 q e e q r r e 0 q q 0 9 q 3 3 3 3 3 q e e 9 3 2 2 9 e j v B V V v q - & * * * * = * = * * $ % & $ o j 5XrX/.y.r.n.r.0.r.0.0.] ' 0.X.o.X.] ] X.X.r.0.",
"Q.u.' ] ] { { ] { ] ] -.] ] ] ( ( ( ( ] 1.{ r.l   X X + + O + + + @ * + O . q -.2.-.B j e e 3 ; < ; < 3 3 3 q q 9 3 q q q q 9 9 q 3 3 3 3 ; ; 3 3 q 9 3 3 3 2 3 3 3 ; 2 9 q r j j ; o o * * * & * * & $ % $ o o 0.>XL.y.o.o.r.o.{ X.' 0.o.' { ' ' ] ( ( ( ' ] t.",
"u.( R ( ( R ( ' ) ( ( ] ] G c ( ( ( ( ( { ( ( ( + X O O + O + + * * * + X . n B r e q 5 e q 3 3 q 3 3 3 3 3 q 9 3 3 9 9 q 9 9 9 3 3 q 5 3 3 3 3 5 e q 5 3 ; 3 3 2 3 ; ; ; - ; ; q 9 o o & & $ $ $ & & & % $ o * u.X.X.0.X.X.] { ] ' ' { { ' R T c ( ( ( ( ( ( q."
};
