/* XPM */
static char *west[] = {
/* columns rows colors chars-per-pixel */
"128 128 253 2 ",
"   c #153B3B",
".  c #163738",
"X  c #152A2E",
"o  c #26282D",
"O  c #3A392A",
"+  c #252B33",
"@  c #2B2D35",
"#  c #2B2B38",
"$  c #322E3A",
"%  c #312D35",
"&  c #2D3235",
"*  c #2C333B",
"=  c #273B3A",
"-  c #333235",
";  c #33343C",
":  c #3A353C",
">  c #343A3D",
",  c #3B3B3D",
"<  c #3B3834",
"1  c #302F2E",
"2  c #32331F",
"3  c #413E28",
"4  c #413C39",
"5  c #403E19",
"6  c #17413E",
"7  c #2B413E",
"8  c #3A433D",
"9  c #49491B",
"0  c #57561B",
"q  c #59580B",
"w  c #605E0C",
"e  c #69690A",
"r  c #79790D",
"t  c #676717",
"y  c #787817",
"u  c #706F0E",
"i  c #494827",
"p  c #565627",
"a  c #474537",
"s  c #545438",
"d  c #504E2D",
"f  c #787725",
"g  c #686826",
"h  c #605F25",
"j  c #183E41",
"k  c #2C3841",
"l  c #343542",
"z  c #3A3643",
"x  c #353B44",
"c  c #3B3B44",
"v  c #3D3D4A",
"b  c #373A4A",
"n  c #39374B",
"m  c #423D44",
"M  c #423E4B",
"N  c #463C45",
"B  c #423E51",
"V  c #164443",
"C  c #1B4443",
"Z  c #1B4A45",
"A  c #1C4C4B",
"S  c #164A48",
"D  c #1C524C",
"F  c #17524C",
"G  c #1B5853",
"H  c #2C4442",
"J  c #234C4B",
"K  c #294847",
"L  c #3C4344",
"P  c #3D424C",
"I  c #3E4B4B",
"U  c #364746",
"Y  c #23524D",
"T  c #2B534D",
"R  c #33534E",
"E  c #3D4552",
"W  c #3E4955",
"Q  c #3B4A56",
"!  c #245452",
"~  c #245A55",
"^  c #2C5B55",
"/  c #255D59",
"(  c #2B5857",
")  c #335353",
"_  c #3B5D5C",
"`  c #355A57",
"'  c #2C4C52",
"]  c #1B625C",
"[  c #2B635C",
"{  c #27635B",
"}  c #33645C",
"|  c #36665D",
" . c #296964",
".. c #346C62",
"X. c #3B6D63",
"o. c #3A6463",
"O. c #3C7266",
"+. c #3C7569",
"@. c #39766A",
"#. c #31776E",
"$. c #266362",
"%. c #434345",
"&. c #424B46",
"*. c #43444D",
"=. c #4A454D",
"-. c #434B4C",
";. c #4B4B4D",
":. c #4B4744",
">. c #52494D",
",. c #44524D",
"<. c #4A534D",
"1. c #495549",
"2. c #55574A",
"3. c #434552",
"4. c #4A4653",
"5. c #444A54",
"6. c #4A4B54",
"7. c #454C5A",
"8. c #4B4C5A",
"9. c #484659",
"0. c #524C55",
"q. c #524E5C",
"w. c #564B55",
"e. c #465353",
"r. c #4B5454",
"t. c #4C5955",
"y. c #46525A",
"u. c #4B535B",
"i. c #4D5B5B",
"p. c #465958",
"a. c #535455",
"s. c #535B55",
"d. c #53535C",
"f. c #5A545B",
"g. c #535C5B",
"h. c #5A5C5C",
"j. c #5B5755",
"k. c #62595A",
"l. c #4B615C",
"z. c #54625D",
"x. c #5B635D",
"c. c #58645A",
"v. c #5F6045",
"b. c #61665D",
"n. c #6D6D52",
"m. c #4D4E60",
"M. c #524E62",
"N. c #4C5362",
"B. c #4D5B63",
"V. c #455460",
"C. c #535463",
"Z. c #5A5564",
"A. c #545C62",
"S. c #5B5C63",
"D. c #555B6A",
"F. c #5B5C6B",
"G. c #575669",
"H. c #5E5F71",
"J. c #625D6D",
"K. c #625C64",
"L. c #615F71",
"P. c #476767",
"I. c #546363",
"U. c #5B6463",
"Y. c #5C6965",
"T. c #5B646B",
"R. c #556B6A",
"E. c #5C6B6B",
"W. c #556668",
"Q. c #427A6D",
"!. c #44736B",
"~. c #5C706E",
"^. c #5D6372",
"/. c #5D6B72",
"(. c #477B71",
"). c #5D7273",
"_. c #597576",
"`. c #456F70",
"'. c #626564",
"]. c #636A65",
"[. c #63646C",
"{. c #636C6B",
"}. c #6A6C6C",
"|. c #69656A",
" X c #64716D",
".X c #6B726E",
"XX c #636372",
"oX c #636C73",
"OX c #6C6B73",
"+X c #6C6C7B",
"@X c #666978",
"#X c #726D78",
"$X c #637373",
"%X c #6C7373",
"&X c #6B747B",
"*X c #6C7B7C",
"=X c #667779",
"-X c #717474",
";X c #74737C",
":X c #737B7B",
">X c #79777C",
",X c #71716D",
"<X c #817F12",
"1X c #807E21",
"2X c #827E63",
"3X c #478476",
"4X c #76817D",
"5X c #548153",
"6X c #878618",
"7X c #95961C",
"8X c #898827",
"9X c #A2A230",
"0X c #6C7882",
"qX c #7D7B84",
"wX c #7D7C8A",
"eX c #767784",
"rX c #73758A",
"tX c #827E8A",
"yX c #827C85",
"uX c #827F91",
"iX c #6D8384",
"pX c #788588",
"aX c #7B8C93",
"sX c #84828C",
"dX c #8A848D",
"fX c #88868A",
"gX c #928A8E",
"hX c #868392",
"jX c #8A8693",
"kX c #8D8A94",
"lX c #8D8B9A",
"zX c #868997",
"xX c #938C94",
"cX c #928E9A",
"vX c #968C94",
"bX c #94929C",
"nX c #9A949C",
"mX c #999499",
"MX c #869599",
"NX c #A2999D",
"BX c #918EA2",
"VX c #9593A2",
"CX c #9996A3",
"ZX c #9C9AA4",
"AX c #9D9BA9",
"SX c #9996A9",
"DX c #8E8EA0",
"FX c #A19DA3",
"GX c #A19DA9",
"HX c #A39FB1",
"JX c #A5A2AB",
"KX c #A9A4A8",
"LX c #ACA4A9",
/* pixels */
"*.4.6.6.4.3.v c c m M M *.*.*.*.M M *.4.6.4.q.4.3.4.4.4.*.M *.8.4.8.8.8.N.C.C.m.8.8.8.8.C.q.4.4.4.*.b v M v 7.m.E v v v v v v v v v v v v v v 3.3.c c c z c v c l c v c P 3.4.3.v *.8.C.C.C.C.C.N.N.7.8.5.4.u.u.8.7.8.4.4.4.4.*.*.M v v 3.*.*.*.*.*.4.*.4.4.*.3.",
"d.d.q.d.8.8.4.4.4.3.*.=.=.=.*.4.*.M *.6.q.d.8.8.4.4.6.q.8.8.8.8.8.C.C.C.C.C.F.F.C.G.G.C.C.C.Z.8.C.8.3.8.8.6.7.m.N.N.3.m.7.3.3.3.4.4.4.3.3.4.8.3.E v v v v v v v v 3.4.3.4.4.8.C.8.8.8.G.F.H.H.H.F.D.C.u.N.C.D.C.N.C.G.8.4.8.8.8.4.4.3.4.4.4.4.6.8.8.d.q.8.q.q.d.",
"F.XXF.Z.C.C.d.8.d.q.4.4.4.q.4.4.6.*.=.4.d.F.6.6.8.8.6.q.C.C.8.8.M.G.G.C.C.C.XXH.F.C.C.Z.C.F.J.C.C.F.C.q.q.d.4.7.7.7.8.7.8.4.5.4.3.4.8.7.3.8.8.3.4.8.7.3.4.3.3.3.4.4.8.4.4.8.C.C.C.N.C.F.XX@XXXXXXXH.C.C.C.C.C.C.D.G.C.C.8.4.8.q.6.4.4.4.4.4.8.q.Z.C.Z.C.8.C.F.[.",
"XXXXXXZ.C.Z.Z.8.6.d.Z.XXF.XXF.F.F.Z.C.F.C.d.q.6.d.d.4.4.8.C.m.C.m.C.C.M.C.G.F.C.8.8.C.@XF.XXXXJ.@XXXXXH.q.4.8.7.N.N.3.4.8.8.7.8.3.3.5.5.3.7.4.v 4.8.m.F.D.D.C.D.F.F.^.F.C.8.N.C.8.m.C.F.H.^.H.F.XXF.C.D.C.C.C.F.D.C.F.@XXXF.F.F.F.F.Z.F.q.4.8.Z.C.C.C.d.C.C.J.XX",
"XXXXF.Z.C.C.d.6.8.F.+XB.' `.` ) `.) _ P.U 4.6.d.C.C.C.8.8.8.8.C.C.C.C.8.F.F.8.8.9.G.@XB.` `.) _ `.' _ `.Q 8.8.5.7.5.3.3.4.5.m.4.4.v 3.C.5.*.P *.7.C.@XB.` `.) _ (.( o.!.) 8.C.C.C.8.8.C.C.C.d.d.F.Z.C.C.F.C.C.G.G.XX+XB.` `.) _ P.( o.P.' 8.q.Z.q.C.C.8.q.d.@XXX",
"C.C.C.C.Z.C.8.C.L.T._.K   O.Z A O.S Y } . ' W.G.Z.F.F.G.8.4.8.q.C.F.C.*.4.4.4.C.J.^.P.. C | D ! O.  K +.  K N.9.v v B 3.4.8.8.3.3.v 4.3.*.v 3.4.G.^.`.C C X.D / O.F { [ F } W.F.C.8.u.G.C.8.8.8.d.d.8.C.F.C.C.F.XXoX`.j J X.V ~ | S ~ | . ` W.C.8.8.8.8.8.8.Z.d.",
"8.C.C.8.C.C.F.@XI.J O.Y C O.D ~ Q.Z J X.. ! | Q Z.F.F.F.d.Z.J.J.@XC.4.4.4.8.C.XXB.J |   C X.C ! Q.C T Q.  J X.H 7.3.4.8.3.8.8.9.9.4.4.3.3.4.q.XXP.T X.C Y +.D { Q.G  .@.] { } ) C.q.C.C.8.8.8.d.Z.Z.C.C.d.C.J.+XB.T +.  J Q.Z ~ X.V  .X.. ^ } Q C.8.8.8.8.q.8.8.",
"^.XXT.XXF.F.T._.T C Q.Y D Q.~ ! 3XD ! O.  T |   ) W.@X@XXX@X+X0X+XF.H.F.F.F.F.`.J j X.j C O.Z ! (.C ^ Q.V ^ X.  ` u.C.F.D.G.G.F.F.F.F.C.D.F.^.`.J j Q.D ! +.G [ 3XG  .Q.]  ...F _ D.F.XXF.XXF.[.XX@XXX^.^.XX^._.C K O.Z ! 3XD ^ O.S #.X.. ` }   ` N.Z.F.F.XXXXXX",
"` (.P.K P.P.= X.J j (.J C (./ ~ 3XD { Q.j T X.. T X.( `.`.' `.`.( `.P.( (._ K O.J Z X.  j +.A / (.D { (.C } O.. ^ X.' P.!.' P.o.( `.o.( `.o./ O.Y A Q.D ~ 3X]  .3X] [ @.] ....D [ ..( P.P.' P.` ) (.` R `._ ! !.Z J Q.C ! 3XD [ Q.A #.Q.V ..... ^ ` ' !.o.( `.o.",
"j +.` X X.^ X !.T Z 3X! C (./ { 3XG [ Q.C ( Q.V ^ X.F ..| j } [   O.| S +.J . !.Y C Q.J K Q.D / 3XG  .3XZ } Q.  ` X.. | |   ..{ S ..~   X.~ D Q.! ! 3XA ~ 3XA  .3XG  .+.] ..O.V } } j | [   } Y S @.Y . O.D D Q.D / (.Z ( 3XD ..3XG #.3XS +.@.V ` ^ j ..{ V } Y ",
"V +.@.j !.R . !.^ A 3X~ A Q.~ { 3XG ~ Q.C R Q.S [ +.F ..X.  O...  Q.} S Q.T . Q.T j Q.Y Y Q.C J 3XD ~ 3XS ..Q.V } | . O.X.. X.[ V X.~ A Q.{ A (.! A 3XD ! 3XA [ 3XG #.3X] ....S ..`   | }   X.^ Z +.J . Q.~ D Q.A / (.A J 3XA } 3XV @.3XF +.Q.F | [ V O.[ A X.{ ",
"  A D j C . . .   V A V S A 6 6 D 6   6 . . C   Z Z S Z Z   D Z .     6 Z   . 6 . X 6 . .   . . C . .   . 6 6 . . . . 6 . X X . . 6 .   6     Z 6 6 C . . Z V V C F F D V Z A   6     . 6   6   . 6 . X 6 6     . . . X . 6 6   6 . C D 6 Z D F Z Z   C 6 V C 6 ",
"_ _ o._ o._ Q ) _ _ _ P._ o.P.P.P.V._ P.P.P._ P.o.| o.o._ o._ o._ ` _ o.o.o._ ` ) _ ` ) ) R ) ` ` ) ` ) ` ` ) ) ) ) ) R ) R U K K R ' ) R ' ` ` ` ` ` ` _ | o.o.| !.o.o.` ` o.| _ | _ _ | _ _ _ l.P.P._ l.P.P.p.p.P.B.P.P.P.P.P.P.P.`.`.`.!.`.`.!.!.o.!.!.P._ _ ",
"}.'.h.h.'.a.;.;.a.a.h.h.6.'.:X&XOXT.I.T.:X%XOX}.XXg.h.i.h.T.I.E.~.E.E.T.E.oXE.W.I./.A.i.A.A.a.s.h.s.g.g.a.a.a.s.a.a.r.<.g.h.s.<.&.-.<.,.t.<.i.I.i.t.t.i.I.z.I.E.{.U.U.g.z.I.g.g.h.g.g.[.Y.x.h.x.-XOX-X].,X,X:X-X}.:XsXkXfXaXpXpXpXfXpX:XfX:X4XpXpX&X&XpXpX$X{.%X",
"%X%XOX[.h.j.h.a.r.h.{.%XY.U.0X*X=XoXT.E.=X=X*XOXoXU.T.A.I.W.I.).=X$X$X$X=X=X=X_.=X).W.A.E.{.T.E.Y.U.E.Y.U.U.U.x.h.U.s.h.U.x.s.g.s.t.i.l.I.l.R.~.R.R.R.R.R.~.=X=X$XY. XU.I.$XE.T.Y.E.{.OX%X%X{.}.:X:X:X%XpX4XfX:X-XfXjXkXfXVXfXpXaXaXpXpXMXMXaXMXMXaXpXpXiX=XOX:X",
"%XOX[.OX{.j.h.h.d.h.[.OXU.g.=X*X*X=XE.=X=X$XoXU.U.I.I.g.E.~.W.$X=X$XI.E.=X=X*X=X=X).W.A.A.I.U.I.E.T.U.U.U.h.h.s.s.z.g.s.x.U.h.g.z.z.z.l.R.I.R.R.I.R.R.R.R.E.R.$X$XE.{.E.U.I.E.I.U..X{.OX-X%X{.].-X:X%X&X4X4XfX4X:XsXkXMXpXMXMXpXpXpXpXaXMXMXzXaXMXfXpXpX$XoX{.[.",
"'.S.A.J.h.<.j.h.d.-.h.U.S.r.T.oX$XoX$X0X$XoX$XT.I.A.U.I.z.E.E.E.~.oXE.~.=X=X=X).).).~./.E.E.U.z.U.E.U.U.U.U.s.s.a.U.x.s.h.x.U.g.g.E.I.E.).W.R.R.I.l.t.R.).E.R.I.E.=X$X=X).I.I.I.U.}.-X-X%X%X{.].-X%X-X:XpXfXpXpX:XpXsXfX:XiXaXpXpXpX*X*XaXaXpX*XeXeX0XeX{.oXoX[.",
"S.d.d.Z.r.%.:.6.6.%.&.r.g.r.I.I.U.z.E.=XE.E.=XE.T.I.g.I.i.I.I.E.$X$X~.$X=X).R.W.).R.E.E.$XE.I.U.E.U.U.T.U.x.h.g.g.h.U.s.h.U.Y.h.g.U.E.$X$X$X).~.R.l.e.I.E.~.).W.R.}.{.E.E.A.i.A.E.T.%X%XOX;X;X.X:X%X:XqXfX4X4X.X%XpXzXpX0X:XpXeXeX&X&XE.&X0X0X0X0X&X0X&XS.r.A.[.",
"6.4.*.4.%., L , c , , *.-.e.I.i.g.g.U.oXI.i.Y.E.E.g.t.I.I.g.g.Y.E.E.E.$X=X).W.~.=XR.W.~.E.U.U.E.I.I.I.T.g.h.h.h.g.Y.'.h.s.g.U.Y.U.Y.Y.{.=X).R.)._.R.t.i.I.).).E.$X$XU.Y.I.g.g.g.U.{.OX}.|.-X>X.X-X>XpXpXpX4X4X:X:XsXsXpX$X}.%X&X&XXXA.g.A.A.A.A.D.F.F.Z.r.-.%.0.",
"eX;X+X+X[.OXXX#X;X+XOX[.d.%.L &.,.e.A.g.I.I.z.U.T.t.<.i.g.i.r.g.g.I.E.E.$X$X~.).R.W.I.I.I.g.g.g.i.i.I.A.g.g.g.s.U.U.U.s.t.g.U.U.{.$XE. X).R.I.R.).).i.t.i.I.E.E.W.E.g.z.I.U.t.g.g.U.'.{.{.{.[.].{.-X%X-X:XpX:X.XY.;X:X&XT.S.I./.W.D.U.:XwXqXqXtXwXqXqXqXqXwXqXsX",
"lXjXtXwXeXtXuXhXkXjXtXtXwXeX[.6.> > i.B.A.i.t.r.g.i.t.t.r.-.-.,.r.i.A.g.T.I.I.W.W.p.B.i.i.i.5.-.-.e.r.d.r.r.s.h.U.x.g.x.I.U.s.x.$XE.Y.E.E.R.I.I.W.R.I.i.I.i.T.E.i.I.t.<.g.i.t.r.t.g.r.I.[.h.h.'.].'.{.%X&X%X%X{.I.T.+X@XS.r.e.A.[.qXnXJXZXZXAXJXSXAXZXZXVXSXAXAX",
"hXeXeXrXrXwXwXuXuXuXhXuXhXjXjXtX;XS.*.I I ,.&.-.5.-.r.,.-.r.;.-.,.r.r.r.i.g.i.A.A.p.p.y.5.5.I L -.-.e.6.-.-.g.x.U.h.h.U.Y.E.s.x.E.E.I.I.W.E.I.z.I.I.U.I.E.t.B.B.i.B.y.&.i.r.-.-.,.r.r.g.S.h.s.g.Y.{.x.'.].U.].h.g.S.[.I.r.a.OXsXkXnXZXZXZXbXVXSXVXVXbXbXbXVXlXlX",
"3.5.7.7.7.5.5.5.5.3.5.7.@XzXDXjXhXhXwX|.6.L L L L L L 8 , L , , L L L L &.-.-.-.5.I L I L x > & & &.&.-.5.-.i.s.z.h.h.x.U.{.h.U.{. XI.I.I.E.E.E.E.Y.Y.I.i.e.i.i.&.-.&.L 5.*.L L L %.L &.6.r.;.-.r.d.;.<.a.<.;.&.%.%.6.S.-XfXkXkXbXVXbXsX[.*.v *.*.M 4.3.3.3.P 3.",
"U P W P 3.P x P > x x x * b H.wXDXcXlXzXkXtX>XeXyXyXyXsXfXsXqXqXyXqXqX;X;XeXqXeXqXeX;XeXeXeXeX#X%.1 , %.%.-.r.r.U.h.h.U.I.E.U.'.Y.U.g.z.I.E.z.I.I.U.I.I.e.&.6.{.;XqXyXqXqXtXwXqXqXqXqXqXqX>X;X;X>X>X>X>X>X>X>X>X>X;X>XdXcXcXkXjXsXXX*.- 1 % > > > ; - ; x > > x ",
"y.D.W.D.B.N.N.y.y.7.y.7.P b k b 8.0XzXVXcXlXVXAXZXAXJXJXJXZXZXCXZXnXcXcXcXbXzXzXVXbXcXcXkXkXcXcXtXK.- - L L r.r.t.r.r.<.r.g.g.h.g.g.r.t.g.z.t.t.r.r.g.i.&.a.>XkXbXSXVXbXVXSXSXbXcXbXbXjXkXkXhXsXkXkXxXxXxXxXvXcXcXcXbXbXlXeX[.4.> # - < , m *.*.*.*.m %.3.y.7.i.",
"B.D.D.B.D.B.B.u.y.y.7.7.7.7.7.b * k b D.aXVXVXSXAXAXSXSXVXVXbXlXbXcXjXkXzXzXzXzXlXzXjXjXhXjXjXlXbXkX;X*.& L r.-.,.;.<.%.-.i.i.r.r.g.<.-.,.t.r.<.,.r.&.&.OXgXZXZXbXVXlXlXlXVXzXhXzXlXzXhXhXhXhXhXjXhXjXsXsXjXjXkXkXkXtX[.4.> - - c v %.m c *.6.r.;.*.%.5.5.i.i.i.",
"N.D.D.D.N.B.N.y.y.7.5.7.7.Q E E E b l + k 5.3.5.3.4.5.5.7.7.3.4.*.M *.P v 3.P *.*.P *.*.*.*.*.8.lXSXdXsXK.- , L %.L L , %.6.-.%.*.6.&.%.%.I %.&.L L a.>XCXZXcXd.P 5.7.7.7.5.4.3.P 3.3.5.7.5.5.5.3.5.3.5.5.3.E 7.5.5.P > x v *.*.4.4.*.%.4.4.4.6.;.=.=.4.3.i.i.u.",
"D.B.V.B.N.7.N.N.7.W 5.W E E E E E E E b l * > x c , > L L > > > x ; - * > ; ; > * > : ; : > , ; x eXSXdXjXeX+XeX>XqXtXtXdXjXjXtXsXwXtXsXsXyXjXfXdXqXsXZXAXwXv @ c L L I -.P c > ; > x l l l l l k l l x x x l x L c P *.e.6.6.6.7.y.4.4.4.4.4.4.4.=.*.5.5.y.p.B.",
"N.7.N.N.N.V.V.7.5.E P P W E E W E E E E E E E 3.3.4.4.*.5.5.*.*.*.*.L P P *.%.v v P *.*.*.=.;.*.> - F.VXlXhXcXcXcXZXAXAXGXGXHXAXSXSXZXVXJXZXGXJXJXnXbXbXXX- > P 6.6.e.e.r.u.5.3.3.P *.E 5.E E E 5.5.E E 3.3.E 3.7.7.5.7.A.i.4.7.u.7.4.4.4.4.6.6.4.4.4.5.3.7.u.N.",
"N.Q 7.7.7.7.y.7.7.3.E P W W E W E E 5.5.5.5.3.5.6.4.*.-.-.5.-.=.5.5.*.*.*.*.4.4.*.*.*.4.5.4.r.;.%.x - 6.hXSXhXhXhXkXVXAXCXSXSXSXAXGXZXVXZXZXbXGXGXZXcX8.+ x *.i.u.u.e.6.i.g.7.5.3.3.5.5.5.5.5.5.7.7.E 5.5.3.E E 5.7.y.y.i.u.4.5.7.7.7.8.4.8.6.8.u.u.7.7.7.y.y.C.",
"7.N.7.5.E 5.7.5.7.*.P E W W Q 7.7.Q 5.7.7.7.7.6.6.5.4.*.*.*.-.4.*.*.*.P 3.3.5.5.*.*.5.6.a.d.d.r.:.&.L > L wXSXhXjXcXcXVXlXcXDXVXcXVXCXCXVXVXbXnXJXsX%.* P *.5.u.6.h.i.5.6.d.7.5.3.7.5.3.3.7.E 5.7.7.3.E 3.E E P *.7.7.5.y.e.4.5.5.7.7.u.5.7.7.7.N.N.7.7.u.y.D.D.",
"C.D.N.7.E v *.P E *.E E 7.7.7.7.7.7.7.7.y.5.4.6.4.*.4.*.-.*.5.5.*.3.P *.4.8.3.4.-.5.*.=.;.e.r.r.6.5.-.%.8 8 XXVXcXzXlXlXlXlXlXcXDXlXzXcXVXbXcXVX@X- ; *.5.4.u.u.g.d.4.6.6.8.6.7.5.7.5.5.7.7.3.5.5.5.5.5.P 3.E P 3.4.7.y.7.6.3.3.8.6.5.u.7.7.y.7.N.y.y.y.y.N.N.N.",
"C.7.B.7.E v P P 5.3.P P W E W W 7.7.y.7.e.-.-.6.*.4.4.*.4.4.-.*.*.*.%.%.*.4.3.4.5.5.*.*.4.i.i.r.r.,.5.r.&.L 8 e.e.5.5.5.5.5.u.u.u.i.5.*.P 3.3.4.; , *.3.6.6.r.i.g.h.i.i.4.4.u.u.e.7.6.7.7.7.7.5.7.5.3.5.5.3.P E 5.3.5.5.3.5.3.3.7.5.5.7.7.7.7.7.y.y.y.y.N.N.N.D.",
"T.N.y.5.E E v P W L v v P W E W E 5.e.i.u.e.6.4.*.*.=.4.*.4.5.P 3.5.-.4.*.5.E 3.5.7.5.*.-.e.e.r.1.e.r.<.<.<.r.&.L L L I I L &.I e.-.U > > > > > P *.6.6.6.u.8.h.a.f.i.4.4.6.u.u.u.e.7.7.y.7.7.7.7.7.5.5.3.3.E 5.E P 3.5.3.7.3.5.5.3.5.7.7.5.7.5.7.7.N.y.N.N.B.D.",
"C.N.4.3.E P P P -.P P P 5.5.5.W P 5.5.y.u.e.6.*.*.*.=.*.4.4.5.5.5.5.-.=.*.5.3.5.4.5.3.*.3.6.e.e.t.y.e.r.<.t.r.r.1.s.-.r.<.t.t.z.i.L 5.*.E *.*.*.L P 7.6.4.4.8.0.=.=.4.4.4.4.i.e.u.u.7.7.u.7.8.7.7.5.5.5.E 5.7.3.*.P 3.5.7.7.3.5.5.5.5.8.7.y.y.8.y.N.B.N.7.B.F.C.",
"N.*.M M P c P *.-.I P P P P 5.5.3.4.3.7.e.e.e.=.=.*.*.*.*.*.*.5.5.7.*.%.*.5.5.5.*.*.*.5.6.C.6.,.r.i.t.e.,.&.L -.,.,.t.r.;.t.t.W.Y.e.y.-.-.-.-.5.P *.4.4.4.6.d.4.0.a.4.4.5.4.u.u.u.u.u.u.u.u.7.7.7.5.5.7.7.5.3.5.P P P 5.7.5.5.7.5.5.7.7.y.N.7.7.B.N.N.N.7.B.F.N.",
"4.M M v P v *.P I L v P %.c 3.3.4.4.5.5.7.u.r.5.%.*.5.=.*.*.5.3.5.6.5.*.*.4.5.3.*.*.*.-.u.u.5.e.i.g.i.i.e.-.&.-.I ,.e.;.r.i.t.Y.E.I.5.3.5.6.6.*.%.P 3.*.4.6.6.4.6.h.4.4.4.4.7.u.i.u.7.7.5.7.7.7.7.7.W 7.y.7.E 3.E P E 5.7.5.5.7.5.E 7.7.7.y.y.7.u.C.D.N.N.N.C.u.",
";.*.%.v P M v P 5.3.v %.%.P 3.E *.4.5.5.4.4.6.*.*.5.5.5.5.5.6.3.5.6.5.5.*.4.P *.c P P *.r.6.5.y.t.i.g.i.e.-.I L I ,.-.r.,.e.,.r.i.e.3.5.*.5.5.*.x L *.4.=.4.4.0.0.0.0.4.5.6.e.6.7.7.7.7.7.7.7.5.W 7.7.7.7.7.5.5.P 3.3.5.7.7.7.7.5.E E 5.W 7.N.7.7.N.T.N.N.N.B.D.",
"*.=.N *.M m %.P 3.3.%.v v P P E 3.3.4.4.4.=.*.*.4.5.*.*.*.6.7.7.7.6.e.-.6.u.5.*.P *.P -.7.6.u.e.r.t.i.u.-.&.L > = > > U > U > 8 I U > > > > - & ; P P *.4.q.6.0.0.4.7.7.7.7.u.i.e.u.u.u.7.7.7.5.5.7.7.5.5.y.7.7.5.5.5.7.7.5.5.5.3.P *.E 7.7.7.7.7.7.y.7.N.7.5.*.",
"*.*.N *.v c v P P v v v v P E 3.3.3.4.6.;.=.%.4.4.5.*.*.P 3.7.7.7.5.e.7.5.5.7.-.5.*.*.-.7.6.6.e.r.i.i.5.I L & P -.-.-.*.*.%.P *.*.*.5.%.*.*.*.4.o & c L *.4.6.0.4.4.4.5.8.u.u.i.6.i.i.i.7.7.5.5.5.5.7.7.5.7.5.5.P 3.5.5.7.3.3.E P P 5.E W 7.W 7.7.y.7.Q 7.5.7.7.",
"P m m 3.*.m v P L *.P P v P 5.5.7.5.4.4.5.*.*.4.4.5.*.P 3.5.7.5.5.7.5.3.*.3.5.5.3.3.7.L -.5.-.5.i.t.y.-.> & f.kXmXvXcXcXcXcXxXgXdXgXcXlXjXjXuXlXeX- o x %.*.4.8.*.*.*.3.4.u.u.A.u.u.i.i.7.5.6.5.5.5.5.7.7.5.3.3.-.E 3.3.5.3.E E P P 5.E E 7.7.7.7.7.7.Q Q Q 7.5.",
"*.%.*.*.E P P *.E P %.*.v v E 7.u.7.5.4.6.=.4.5.4.*.3.*.3.7.5.5.7.7.5.5.3.5.5.5.3.3.P L 5.5.6.5.e.e.&.> > #XnXxXxXmXnXnXxXdXmXgXdXdXjXlXtXtXsXjXCXhXM o > *.4.3.5.4.3.5.u.d.8.8.5.u.u.y.u.5.6.5.5.5.5.7.3.E 3.5.7.*.3.5.5.3.E E 5.3.5.W 5.7.7.7.7.7.7.7.Q E 7.P ",
"*.E 5.v P P *.P E P v v P P P 3.7.5.5.4.4.4.5.5.3.3.*.3.7.7.7.5.7.7.3.7.*.*.5.P L 3.3.-.;.-.6.6.L L & *.yXmXnXmXnXNXNXKXvXvXvXmXvXdXjXcXjXjXnXZXkXcXhXZ.o & v P 4.3.4.6.6.6.6.6.7.7.g.i.6.5.7.5.5.5.P *.P P P *.3.P 3.3.E 3.P 5.7.5.5.5.5.5.5.7.7.7.7.Q Q E E E ",
"5.v E P P *.*.3.P E 3.P b v E E 5.5.5.5.5.3.*.7.3.P *.3.5.3.3.3.3.3.*.*.*.P P P P -.-.-.&.=.=.c > = h.gXmXmXmXNXKXLXLXKXNXcXnXFXKXmXnXnXxXZXLXZXkXlXtXcXwX- o c *.3.5.*.5.5.-.-.I 3.u.7.-.*.3.7.3.P P v v v v P *.*.%.c P 4.P E 7.5.5.5.7.7.7.7.N.7.7.Q W E E P ",
"P P E E E E P 3.5.5.E E P v E 5.5.3.5.3.P ; * * * * * * * * > ; ; > > & @ * * & * > > > > - & 1 - OXvXxXxXyXdXkXcXxXxXxXcXhXkXjXjXdXtXjXxXbXbXjXhXtXkXjXZXbXq.o * > > - ; ; * > * * * > * ; * > > * * @ @ @ # @ * - ; c c L P E W W 7.7.7.7.7.y.7.7.7.Q W E E P ",
"E P E E P P P E 5.5.7.3.E P E 7.3.*.P * > 4.6.4.4.4.4.4.*.4.4.4.*.*.*.=.m %.%.%.v L P %.v c m =.>XxXxXdX|.U I -.&.-.<.r.t.g.<.r.<.;.a.a.a.U.'.h.[.h.;XVXcXnXKX|.*.4.4.4.4.4.5.5.5.4.4.4.4.4.4.4.4.4.4.4.*.4.*.%.%.*.; o + > P P E 5.7.7.7.y.y.y.7.7.7.Q W Q E P ",
"E E 7.7.E P P E E W 5.3.P P P P x * P J.jXJXJXJXJXFXJXKXGXJXbXcXcXkXjXlXkXkXkXcXjXdXwXwXeXeXdXxXkXdX>Xr.U I I I ,.e.,.t.s.t.s.<.s.2.h.s.;.s.{.h.h.j.a.h.hXbXdXnXnXZXZXJXZXZXnXZXJXJXJXJXGXJXZXJXZXZXnXnXnXcXcXvXgXxXxX}.m o + l P W 5.5.u.N.7.7.7.y.7.Q E E E E ",
"P E 5.3.P P v P P E 3.P v l @ > 4.;XlXGXGXJXJXKXKXKXKXKXnXZXbXkXkXkXsXdXxXdXgXxXdXdXdXdXyXtXxXdXyX'.L U I U e.t.t.z.z.z.t.&.1.x.c.x.'.x.h.s.'.|.}.'.'.s.<.&XcXbXnXnXFXFXNXFXnXnXFXKXKXKXGXJXFXFXnXnXcXcXnXxXgXgXgXgXmXnXxXqX6.@ + * P E 5.5.5.5.7.7.E E P P E E ",
"l * * * - * # # # * * + @ x S.sXGXJXGXZXbXkXbXbXbXcXkXkXzXsXsXsXsXsXsXsXsXsXtXtXtXyXyXtXqXqXqX;X;.U ,.e.I U p.I.U.{. X XY.s.x.x.]. X%X-X'.x.].].-X,X'.h.s.;.Y.hXkXjXkXkXkXcXkXkXjXjXkXbXcXbXcXkXkXkXjXdXdXsXyXdXsXdXbXxXyXgXvX>XS.x + + x l l l l l * * * * * * ",
"3.*.P *.%.%.*.*.*.4.4.4.OXcXGXGXGXnXkXqX[.A.A.u.e.B.B.B.i.y.t.i.t.i.A.B.I.I.B.i.p.p.e.e.5.e.e.y.I y.p.e.e.z.i.I.Y. X{.{. X].%Xs.x..X-X:X}..X X].}.,X-X{.x.x.s.;.s.<.r.t.r.h.r.g.g.g.g.h.h.h.g.r.;.;.<.r.<.r.<.s.h.s.{.qXtXcXgXfXdXfX#X6.c %.%.%.4.4.%.%.*.%.P P ",
"jXjXhXbXZXcXCXGXZXGXGXJXZXCXCXbXsXOXA.i.u.t.W.A.e.t.t.t.e.t.t.r.<.t.r.t.z.r.t.t.y.t.,.&.&.,.I p.I.z.I.I.Y.I.W.E.Y.$X{.z.E. XY.h.s.%X.X:X%X X%X].].-X:X-X}.'.].<.1.1.r.<.t.x.s.s.h.s.j.x.x.h.a.&.1.:.1.<.s.s.s.s.h.t.t.t.g.%XwXkXgXfXfXgXsXtXsXcXnXcXvXmXbXcXnXnX",
"cXgXgXnXnXnXCXFXZXZXFXZXxXdX;X[.Z.C.d.S.A.A.A.T.A.I.g.t.I.I.i.h.Y.z.g.i.z.z.I.I.I.I.<.<.<.t.t.i.I.Y.~.W.I.I.E.U.E.*X$X~.~.E.*X{.U.iX:X:X%X%X%X.X%X:X.X XU.{.%X'.s.s.h.g.x.Y.c.s.c.c.h.].].}.h.<.s.j.s.c.U.{.].x.x.z.z.s.<.,.,.U.wXkXxXfXyXdXdXdXxXxXmXmXgXxXnXnX",
"tXsXdXkXlXkXhXlXlXcXbXdX|.d.4.d.F.F.S.A.A.U.A.W.E.$XI.I.E.{.s.g. XY.].z.z.U.I.l.l.I.t.r.t.z.I. X$X~.=XY.I.U.x.U.=X*X0XiX=X=XiX*X=XaXpXpXpX&X*X&X:XpX%XY.Y..X.X].x.U.U.E.Y.c.x.x.c.s.h.}..X}.b.s.s.x.c.b.x.'.b.b.x.z.x.z.c.z.t.t.t.g.&XsXtXwXwXsXsXjXsXsXsXsXsXtX",
"XX@X^.+X0X+XoXXX@X@XXXd.4.6.a.h.[.XXU.[.{.U.I.I.T.E.r.g.E.Y.Y.U. XY.x.z.U.z.z.t.t.z.t.&.-.s.c.I.~.R.~. X{.U.{.Y.R.$X*XiXpXiXiX*X=XpXpXaXaX*X=X$X%X&X{.$X$X}.%XY.Y.Y.U.E.Y.c.{. XY.s.2.].}.|.U.c.c.b.'.].'.x.x.}.x.s.1.x.c.z.x.x.g.r.&.g.T.S.T.i.i.^.W.D.N.D.A.^.",
"F.A.C.oX@XXXT.A.h.d.d.a.;.0.a.j.|.[.h.S.r.r.t.I.g.z.r.&.s.h.g.g.z.r.<.s.z.g.t.<.8 L ,.8 8 <.s.I.W.z.I.z.z.I.U.h.z.U. X=XiXiX=X=XR.=X$XiXpX=X$Xz.E.Y.x.E.OX]. X{.U.I.U.I.g.r.s.U.U.s.2.s.h.s.h.s.1.2.x.].x.h.s.2.2.1.8 1.s.s.c.z.t.,.r.r.i.A.g.e.u.B.T.A.7.u.y.^.",
"l x x x %.%.v c m z v v %.m M m *.*.c x , c , l c > x > v 4.6.=.%.%.%., > c > , ; > > > x %.%.%.v c c x > # > ; ; > > x , x %.%.L c v v c x , > > ; x , x > > > - - - c > ; * @ - - # - z ; - ; > , , ; - - # ; - - # - < c > %.v x c , c v c l l x v z c - > x ",
"; : c m , 4 d a x c d :.8.=.M *.=.=.=.M m m : d d ; - 4 M 8.0.f.q.f.=.=.c , c :.d a > N *.4.q.4.4.B M M c 3 ; z 3 3 ; ; l m z m : m z @ - 3 < $ - i O % : % @ o # # # $ $ O i - # O O ; l l $ $ v ; z z # , i a c c d a M 4.=.4.4.*.;.0.%.c a d a z a a @ $ ; : ",
": c *.%., t t a 8 t e a 4.0.0.6.4.0.4.=., , g r i - 9 0 v 4.f.f.f.h.0.=.4 %.s 6Xg - O i v 6.4.6.q.C.f.M < a x p e i : a z 4.0.m =.;.M z < 0 : 4 t t 4 : % $ z $ $ z l # - q d - 5 w 0 - $ z M v z l z v m t t a &.y u a 4.q.q.0.w.4.0.4.v 9 e p c s u i l m : c ",
"v ;.0.M a t ;.;.f y a x 4.=.0.0.0.q.6.=.: t 6Xv.v p w O v q.Z.K.K.|.k.;.m s 6Xf 8.%.w i v ;.d.4.4.C.q.M $ ; p <Xs v i 0 z =.N m =.w.4.m - x :.y t =.%.i @ % : % @ $ ; $ 1 2 ; i e i > < @ c M 3.4.z ; # 4 w 4 %.6X6Xa x *.q.Z.f.f.f.f.4.a q i ; d <Xp ; , c c c ",
"6.a.0.*.%., ;.8X6X2., i *.*.=.0.w.q.6.3.< u s 4.h e i ; 3.q.L.OXXXJ.K.6.%.y f q.2.y t < *.=.4.*.q.8.4.z % 0 u s B p e 3 $ =.m - %.N m : $ a y f ;.;.t 0 @ % % % % @ ; @ o o i e p x i 9 o , m M 9.v ; # - a < y 6X2.%.d z 4.f.Z.k.f.q.4.a 5 % d r g %.< c *.M M ",
"6.0.0.0.M , y 6X2.4.t 0 M =.6.0.f.f.4.M < a *.0 r d - < l 6.J.J.J.Z.f.4.a g ;.2.6Xf a - =.0.*.0.w.w.N : < w i l d u i % : m >.=.N m =.: - t t 6.0.y u < ; $ $ : ; $ l z o 5 q i z i u i o : z M 4.4.v ; @ < w u 2.4.t 0 4.=.6.Z.K.j.f.0.m 1 i u 0 v s p l x m *.",
"4.h.a.4.%.t y 2.0.f 6Xa M =.4.4.w.0.B M z ; h <Xd 8.d 9 n q.|.Z.K.J.K.0., ;.:.<X6X6.:.i : =.f.K.k.k.w.m < 3 l p u d l 1 : =.w.w.>.=.=.z 4 0 =.;.1Xy , ; : z =.0.*.l $ l 1 q i z i e 0 ; % : z 4.f.4.: $ % 0 u 2.;.f u a M 6.0.Z.|.K.f.0.c 5 w p x a r p # v *.*.",
"0.f.d.4.a t a 6.f 7X2.%.c =.4.4.0.4.M z ; 9 u s 4.n.6XO n Z.J.F.Z.J.K.=.v 2.6X6Xs.a.y 0 $ : 6.f.k.j.6.$ % $ i u i # 3 9 4 =.>.>.0.N M : , , =.y y ;.c i ; =.=.6.q.z v v < 5 ; d u p : - $ m *.4.=.=.: % < t a ;.f r a ; N q.0.K.|.K.4.6.a q 0 > a r f %.; v c =.",
"'.|.S.4.4 < %.f 7Xn.[.2.z 4.0.4.=.M 3.l < u d c p r p # n Z.Z.L.G.F.|.0.%.u f h.j.y u 4 : : =.0.j.:.=.: 1 i e p l i e i N w.0.f.|.f.4.M $ a y y <.4.t 0 z ;.0.j.F.d.4.v ; @ i u p v i 9 ; N M q.=.N : z , - %.f 6Xs , 3 N 4.q.K.K.f.q.6.a 5 ; a r f a.=.c *.c v ",
"|.K.S.*.- - t r v.Z.8Xg l M q.4.4.M B l < s c d r p @ < v M.J.|.J.J.K.4.a t s.'.7X6X:.c : m =.>.>.m :.N 4 w i l d e 9 - 4 =.4.f.OX0.N m : t u ;.4.f y a 4.=.w.h.K.d.d.8.v O e p n a u i M N m 9.0.N N z : ; t 6Xs *.0 9 M =.q.j.w.0.f.6.c @ O r f 6.2.p x =.M v ",
"*.q.0.c @ 9 e a *.f 6Xs $ c 9.q.4.M M l @ - p r p n p p n M.G.G.F.J.Z.4.m ;.a.8X7X2.:.d c m %.>.>.>.:.m a i $ i u 0 @ - m z 0.w.k.=.=.; O t :.4.f 6Xs v *.M f.a.h.OXd.4.=.q p v a u 0 ; =.q.4.B B w.=.$ % 0 u a v p e O M 0.0.j.>.4.6.4.z a r 8XK.k.<Xh z *.3.v ",
"z 4.4.z - q a c h 6Xs c x M 4.Z.4.B n z $ i u p v s e i v q.Z.J.L.XXJ.4.c :.6X6Xj.d.f 0 c m =.k.j.=.;.:.< ; i e p l 3 i z M 0.w.w.4.4.M < :.*.f 7X2.%.a *.f.J.Z.OX;Xq.9.a 9 l s 6Xt - ; =.|.|.0.4.4.: $ 1 w a x h r i - : >.>.w.w.4.*.M , e f '.b.7Xf %.l M M l ",
"n v *.c - O > p r d x a v 4.3.Z.G.3.M z < e p c s u 9 - v 8.M.G.J.Z.J.0.c t 6Xj.d.8X6Xa : N >.j.j.>.:.a : i r p z a e i z N q.K.Z.8.q.8.M %.f 6X2.9.g 0 ; a.C.Z.[.J.C.8.c - a r f > O d 3.K.;XK.q.0.m % < O > h r s v O ; m =.=.0.>.4.v a g 6.b.9X8X;.x > v z l ",
"n 4.0.z - - 0 r p l 9 0 v *.3.M.q.3.M z < i x d r i @ - n M.Z.J.J.Z.S.4.a t :.r.8X7X2.c 4 =.w.w.a.j.:.m 4 e h v a e 0 - m 0.4.K.f.Z.M.9.M g 6X2.3.g r a $ 4.d.G.Z.d.Z.8.v O e t > a q i 3.f.'.Z.0.w.0.N - & 0 r s 3.d 9 ; m =.=.*.=.=.c , ;.2.9X9XS.2.d z 3.z l ",
"z *.6.x > 9 e d x 9 e 3 c =.9.9.3.M M z : @ i u p ; i 9 n 9.q.M.Z.Z.Z.4., a v f 6X2.;.a m =.=.=.;.>.=.m a i l a e 0 ; - *.0.4.q.w.0.9.B a t 2.8.g 6Xs l v B q.G.C.d.S.8.%.w 0 z 4 t q - =.h.k.q.0.w.>.N : 9 e i x p e O : m %.m m *.=.> > a y 8Xh.h.y p l *.l l ",
"z c c v < w O @ 9 w 9 - M 3.9.4.*.M z n z 5 w 9 @ O q i n m 4.4.d.Z.F.4.c %.t u a *.t p c =.*.=.>.=.=.=.%.- O e 9 @ O i 4.q.Z.f.q.M.9.9.%.a c 0 u s m 4 z =.d.8.3.6.8.8.:.0 > 4 w 0 1 - 0.w.Z.4.=.=.:.N a q i - i e d ; , 4 m m m *.m : < t 0 =.1.y t - # l $ l ",
"# ; $ ; < O o o O O @ : : v M M c z l l % O O o o O O % $ $ M 4.M 4.*.c : O i < ; < i 3 ; , c *.m m c m m , O 3 ; - O 4 z M 0.9.9.4.B z $ % < 3 1 @ < < v M *.%.P 4.3.4.=.c l a i - - , 0.;.=.m N 4 4 4 4 O @ 1 O O @ - % - - ; : : - : < i @ ; O i < @ # # o $ ",
"3.3.3.3.v v v v v v *.4.4.B 9.8.8.m.9.9.3.v v v v v v v 3.4.8.m.8.8.8.8.4.3.E 3.5.3.v 3.3.8.4.4.4.4.4.3.4.6.3.B 3.4.3.v 3.8.8.9.8.4.4.4.3.v E E b v b E 8.u.5.5.8.C.C.C.C.N.7.7.9.q.8.8.d.Z.4.4.q.q.8.6.q.8.4.4.3.4.4.4.4.8.8.8.d.8.4.8.C.m.8.3.3.3.3.4.5.9.4.4.",
"h.d.d.C.6.%.:.6.;.L -.6.i.5.A.I.I.I.T.$XT.I.E.I.A.i.i.t.i.I.A.I.E.E.T.E.~.E.I.I.R.W.W.W.T.T.g.i.I.I.I.A.h.g.r.r.r.a.r.<.r.g.h.r.r.U.A.E.W.I.I.I.I.p.I I.W.I.R.B.I.T.E.E.W.i.t.g.g.A.{.{.[.OX[.'.%X{.OX%XiX:X-X{.{.-XqXeX$X=X0X&X0X&X&XE.&X&X@XoX&XoXoX@XS.A.S.F.",
"d.4.;.6.*., L L %.> > -.r.r.A.t.g.g.U.$XI.i.E.U.T.g.s.z.i.g.g.E.E.E.E.$X=XE.I.I.).R.I.E.oXT.I.U.U.I.I.I.h.g.s.h.g.S.U.s.s.g.U.g.g.h.Y.E.).).R.R.R.I.e.i.I.~.).W.E.{.Y.I.I.i.t.g.Y.Y.{.}.|.-X;X}.-X-X:XpXpX%X:X.X-XpXsXpX=X%X&X&X&X[.E.g.W.T./.^./.XXoXT.a.%.-.d.",
"S.d.d.d.4.;.4.0.d.6.4.4.%.L i.r.i.i.A.E.I.i.z.E.T.r.r.g.I.g.g.I.I.Y.E.oX$X=X~.).).R.I.E.I.I.I.I.I.I.I.I.g.g.z.s.g.Y.Y.s.s.h.I.Y.E.{.Y.{.).~.R.~.).R.t.p.I.E.).E.~.E.z.I.I.A.g.g.z.[.}.}.[.OX%X}..X>X:X:X4XpX4X-X&XpXpX0XE.T.E.@X@XT.i.S.T.S.T.[.[.[.[.T.S.S.d.S.",
"kXdXqXeX0XwXwXtXjXhXqXeX+XS.=.L 8 I A.i.A.I.g.g.I.i.r.t.r.r.r.r.t.g.W.I.~.E.E.E.W.i.B.A.i.i.y.t.e.r.g.g.a.r.g.g.U.U.z.h.g.g.x.x.{.$XE.~.E.W.I.W.).~.i.t.l.i.E.E.I.I.i.t.I.A.t.r.t.S.g.T.[.'.U.'.].{.}.-X:X:X%X{.I.oX&X%XT.h.t.A.A.[.qXbXbXbXbXCXbXbXbXVXbXbXVXVX",
"lXqXeXwXrXtXhXhXhXhXjXhXhXhXwXOX6.L I i.i.t.,.e.t.t.r.t.r.r.;.<.r.r.i.i.I.A.A.W.W.p.B.i.e.e.-.I -.-.e.r.-.;.g.h.U.U.z.U.U.Y.s.x.oXE.U.E.E.E.I.z.I.W.I.i.E.i.I.W.i.I.t.-.i.r.r.r.t.r.a.g.U.g.g.U.'.{.].}.}.{.}.U.U.T.+XoXd.;.d.[.qXcXZXZXZXZXGXJXAXAXSXSXSXAXAXVX",
"N.8.m.N.C.C.C.C.C.G.G.F.wXlXlXhXuXeXS.-.> L L L L L I L , &.L 8 L L &.&.-.5.e.e.i.W I I I U > > L -.-.-.-.-.i.g.x.h.h.x.E.{.s.x.E.E.I.I.I.E.W.W.E.I.Y.I.I.t.B.B.e.p.-.L e.&.L L L -.&.-.r.d.r.<.g.U.a.s.h.s.s.;.-.;.d.d.h.OXyXkXlXVXSXbXqXA.8.C.C.C.N.N.C.C.N.N.",
"* @ @ > l * * ; > > > > l N.rXzXDXlXzXtX;XS.a.d.h.d.d.d.h.h.d.d.d.d.d.a.d.d.A.A.S.d.d.d.d.d.0.;.@ > L &.-.-.r.s.x.h.g.x.U.E.x.Y.{.E.I.I.I.E.E.E.E.Y.U.I.i.r.e.A.d.h.h.h.A.S.A.d.d.h.d.h.S.S.d.d.S.S.h.h.S.h.s.j.s.a.S.>XsXkXkXkXcXeXA.c @ o @ o + + @ @ * + @ + ",
"P P P 3.5.7.3.3.-.*.3.P L > l P H.aXDXDXlXkXkXbXbXVXZXZXZXZXbXbXnXbXkXkXkXlXhXhXcXkXjXkXjXjXxXjX|., & 8 L &.r.r.z.h.t.g.g.I.U.U.I.I.t.i.I.I.g.g.i.g.I.A.&.L S.qXkXbXbXlXlXVXVXcXkXcXcXjXjXhXtXsXdXdXdXdXdXdXgXgXkXdXkXbXbXsX;Xf.c @ + * x c P P c x P x x x c c ",
"E 3.7.7.u.6.7.6.6.7.7.5.5.5.P x > x N.rXDXSXAXJXJXJXJXJXGXSXSXVXZXCXcXcXcXbXlXlXVXcXcXcXkXlXcXcXlXwX0.- > L e.-.<.<.r.-.r.g.g.i.i.g.r.<.t.g.t.r.r.r.r.I i.-XcXZXSXSXVXbXVXAXbXlXcXVXcXjXkXkXjXjXkXjXkXjXjXxXcXcXbXcXkX;XS.x @ o @ ; x P P P P L %.L P P P P 3.3.",
"P 5.E 5.u.6.u.u.i.6.3.7.u.7.5.5.3.P x x E F.F.F.F.F.F.F.F.D.D.D.D.D.C.C.C.C.D.D.C.C.N.Z.Z.C.Z.F.VXbXtXOXc & L L &.%.L , L e.5.%.&.e.&.L I &.I &.L &.%.h.dXbXZXOXu.F.C.C.C.C.C.C.F.D.G.C.N.C.Z.A.C.Z.G.Z.C.C.Z.Z.A.Z.M 1 1 - : ; , L c P P 3.5.-.5.*.3.*.P P 3.P ",
"P 3.5.5.7.r.6.6.4.6.7.5.6.7.7.6.3.3.5.P P l * * l k l x * l * * k k k * * * * * * & ; - - & < - 4.zXCXdXqXf.4.d.d.d.d.d.S.[.S.S.S.Z.S.S.S.h.h.h.h.s.OXcXAXlXu.+ + * # # * * * * v c ; & & * > * & & & & @ - ; - < < % - : , v c %.L c P 3.3.5.-.5.*.*.6.P E 3.P ",
"E 3.7.y.5.6.4.4.;.6.5.5.3.5.7.4.3.5.7.5.7.3.P E 3.5.5.7.E P E P E 7.7.5.P E L P P P *.*.%.5.-.&.< x rXVXjXhXjXcXcXnXCXSXZXZXGXSXBXVXVXcXAXCXZXFXFXbXcXZXwXc * b b P b b P P P P 3.u.5.3.P -.P P *.%.c P %.%.%.L %.:., m %.%.c L *.%.P *.*.u.i.e.5.5.5.6.3.5.4.P ",
"3.*.3.5.7.7.;.4.=.4.-.-.-.5.3.3.3.5.5.5.7.7.3.E E 5.5.7.5.5.5.P E 7.7.5.P 3.W 5.5.P 5.6.&.3.6.;.%.; ; F.lXcXjXkXhXcXCXAXSXZXSXSXAXGXZXVXGXZXCXJXAXZXCX[.@ * E E b E 7.E E P P P 5.4.4.3.5.r.P P *.*.%.*.-.*.*.%.%.=.N m =.%.m m *.P *.L *.7.e.e.6.3.-.6.7.5.*.3.",
"-.&.W 4.7.3.=.-.-.-.*.*.*.*.5.P 5.u.p.i.6.7.4.3.P 3.7.5.5.5.3.P 5.7.E E 3.3.E 7.7.5.5.6.;.;.=.;.6.M x % 4.lXVXtXjXkXcXVXlXcXDXVXbXCXCXVXVXVXbXnXJXbXd.@ k P 5.7.E P 5.W P P P *.5.4.*.3.e.L P *.*.*.*.*.*.5.P %.=.L %.m P %.%.%.*.4.5.5.-.-.5.6.4.5.;.;.6.7.4.4.",
"d.e.3.3.5.*.=.5.6.*.%.=.*.*.3.3.5.u.i.i.8.5.4.3.P 3.5.5.E E 5.E W W E W 7.P P 3.3.5.e.r.6.r.6.;.0.4.%., - l eXAXVXcXDXBXDXVXDXSXVXVXVXSXAXCXnXZXsX%.* E E E 7.N.E E E E E E P *.4.4.*.3.I ,.-.*.5.*.4.*.*.*.P *.=.*.*.L %.%.%.4.5.5.*.-.6.r.e.&.;.*.4.;.d.6.*.4.",
"A.4.*.*.5.*.%.*.-.;.*.*.*.4.*.3.3.5.7.6.6.u.4.*.*.E 5.7.W W E E 5.5.5.W 5.5.E 5.3.E 5.e.7.4.u.6.6.4.*.%.c ; ; C.Z.C.C.C.G.F.D.T.F.^.^.^.^.^.F.F.b * 5.7.W 7.7.7.7.7.E E 7.P 3.5.*.6.6.3.e.e.-.*.5.=.*.*.*.*.P *.*.%.*.P L =.%.=.-.*.*.-.-.-.<.-.*.%.4.*.6.*.%.6.",
"d.r.5.6.5.*.*.*.%.*.*.%.P *.P *.*.3.e.g.r.4.4.*.*.P 3.7.5.5.P 5.5.5.7.5.5.5.E 5.7.e.i.i.4.4.6.4.6.4.4.=.%.%.%.8 ; - % > > x x U P E E P P b P x P 3.5.7.7.N.V.Q P 7.W E E 5.3.5.5.5.6.5.t.e.*.*.%.=.*.P 3.5.P P %.P *.P L %.%.*.%.%.*.-.r.r.,.r.5.*.=.7.6.a.6.a.",
"S.i.3.4.-.L =.P *.%.L *.*.P P 3.5.5.e.i.u.7.5.4.P 3.E 5.7.5.W 5.5.5.5.7.5.E 3.7.u.u.i.i.u.6.6.d.r.8.4.*.4.4.4.6.;.=.*.*.*.e.p.y.7.B.B.B.N.N.y.7.7.7.5.7.7.Q Q W 5.E E P E 5.E 5.5.4.6.u.t.y.3.5.*.%.%.P P *.P P *.P L P P %.*.4.*.4.*.5.t.r.h.g.g.6.d.d.h.d.6.d.",
"d.e.7.*.*.%.=.*.*.*.*.3.P *.3.4.6.u.i.g.A.i.6.-.P P 5.5.E 5.E 5.E 5.5.5.7.5.3.7.y.u.B.u.g.r.r.u.u.y.4.4.4.4.4.0.6.=.*.5.5.e.y.N.D.N.y.B.N.7.N.N.7.E W W E E E E E E E P P E 3.7.7.4.5.i.e.-.*.*.4.%.%.P *.*.*.P v *.*.%.*.*.-.5.*.5.5.e.t.s.h.s.r.;.0.d.U.I.d.d.",
"T.g.r.%.L P *.*.*.*.*.P P 4.5.4.u.r.t.t.r.i.5.5.5.P 3.E 5.E E 5.7.7.5.5.5.3.3.5.7.7.7.u.A.i.4.7.u.7.7.6.6.4.0.a.6.6.4.5.3.7.u.y.V.7.N.N.N.V.N.7.5.E P P E E E E E 5.5.E 3.5.5.5.5.6.4.-.7.6.;.*.5.-.P P %.=.%.P P P %.*.4.*.;.4.*.*.-.r.r.t.s.z.s.;.a.d.A.E.U.d.",
"A.A.a.*.%.P P %.%.*.*.E E 4.5.u.u.u.y.6.i.g.7.3.3.3.5.5.5.5.5.5.7.7.E 5.5.5.3.3.5.7.y.y.i.u.4.5.7.7.u.u.8.8.6.r.u.u.8.5.5.u.7.N.y.Q 7.7.W 7.7.W 5.P E P W Q E W E E 5.7.5.7.5.4.6.4.*.-.-.6.-.=.5.5.*.*.*.*.5.4.*.P %.4.*.5.6.;.=.*.-.-.,.t.t.g.r.6.h.g.U.A.A.A.",
"A.g.i.*.L v *.*.*.4.4.7.5.4.5.8.6.g.i.4.6.u.7.5.3.4.5.3.3.7.E E 7.7.5.W 3.E 3.*.3.7.7.5.7.6.4.4.5.7.6.u.6.6.3.-.7.5.3.3.5.5.y.y.5.7.E P b b P P E P P E E W W 7.7.7.5.y.y.7.u.7.6.5.5.-.-.*.4.4.*.*.*.P 3.*.5.5.*.*.4.4.r.r.a.r.:.-.-.-.<.t.h.r.r.r.e.i.g.i.i.I.",
"W.i.-.*.P P *.P *.*.6.5.7.4.8.u.g.d.4.6.6.8.6.7.5.7.5.5.7.7.5.5.5.5.5.5.E 3.3.*.4.3.5.7.7.6.*.3.7.6.5.u.7.*.x * * * * * * * * > * x > + + o @ o + > v E 7.7.7.7.7.7.7.y.y.6.6.r.4.*.4.*.5.4.5.5.*.3.P *.4.8.*.*.*.*.*.*.*.6.r.r.6.5.-.-.,.t.r.r.r.i.5.t.e.i.t.I.",
"A.z.r.-.P *.5.4.5.4.;.5.6.6.6.t.g.h.d.i.4.4.6.u.u.7.6.7.7.7.7.5.7.5.3.5.5.3.P E 5.3.5.5.3.5.*.3.5.4.3.E P * x OX>X#X#X;X;X+X+X#XOXOX;X+X+X+XOX0X4.o * x P E 5.5.7.7.p.e.t.5.6.r.4.4.4.4.5.4.-.*.*.*.%.%.*.4.3.4.5.5.*.*.5.i.i.r.6.-.5.r.,.<.r.g.t.r.t.r.t.t.i.z.",
"I.I.e.-.*.3.*.4.5.6.r.e.6.8.8.g.a.f.d.4.4.6.u.e.u.e.7.7.u.7.7.7.7.7.7.5.5.3.E 5.E P 3.5.3.5.E 5.3.*.P c * 3.tXmXxXnXnXnXbXcXnXxXjXxXcXcXjXhXhXjXCXF.o o x P E W E 5.y.i.i.e.r.6.*.4.4.4.*.*.4.*.3.6.-.5.*.5.E 3.5.7.5.*.*.7.e.r.,.e.r.<.<.r.h.s.t.t.r.g.g.t.g.z.",
"i.I 7.3.3.*.-.-.P *.7.6.4.4.q.0.;.=.4.4.4.6.i.e.u.u.7.7.u.u.7.7.7.5.5.5.3.5.7.3.P P P 3.7.7.E E P v l > Z.cXnXxXmXNXNXFXxXgXmXvXdXuXhXlXhXsXkXbXcXcX+X@ o x P E P 5.5.y.u.e.e.*.*.*.=.*.5.4.5.4.5.5.-.=.*.5.3.5.4.5.3.P -.6.6.,.t.y.e.r.<.t.s.a.<.s.-.t.r.t.t.g.",
"I.e.y.*.-.-.6.5.v P 5.6.4.6.d.4.a.a.4.4.4.4.u.7.6.u.7.6.7.7.5.5.5.5.E 7.5.3.E 3.P v P 3.7.3.3.P c * l OXmXmXmXNXNXNXKXKXvXvXcXZXNXvXcXbXjXcXGXFXkXcXtXhX4.X > P P *.3.5.6.e.r.=.*.%.*.*.*.*.*.5.3.5.*.P *.5.5.5.*.*.*.3.5.d.6.-.r.i.e.e.-.&.L -.<.,.y.r.<.r.e.I.",
"E.I.5.3.5.6.r.-.%.P 5.4.4.6.0.4.a.h.4.*.4.*.*.3.3.3.P P P *.*.3.P E v E 3.P b P v x b P L v v x @ P yXvXvXgXcXnXFXNXNXmXnXkXcXnXZXvXxXcXxXnXGXlXhXjXsXsXSX[.o @ v L P P *.5.-.L c c v v c v P P P *.P v c %.P P c c L P 5.7.5.e.i.g.i.t.e.&.&.-.&.,.e.;.r.t.r.U.",
"g.t.7.e.5.e.r.5.v %.-.5.=.4.4.0.0.6.4.x * - & & & * & @ @ @ & @ + # @ # # @ @ @ + + # @ & @ @ @ d.dXxXdX-Xe.i.g.d.g.g.g.I.I.h.S.g.d.h.S.S.OXOX[.OX'.wXVXcXGXdX; o @ @ @ @ @ & @ @ @ @ @ @ @ @ @ @ & @ @ @ @ @ @ o o o @ %.*.L e.t.i.g.i.t.,.&.&.,.r.e.r.r.t.<.r.",
"z.t.7.6.6.6.;.*.%.6.5.5.6.6.4.=.*.; - x Z.wXsXtXyXqXtXtXqXqXeX;X;X#XOX;XOXOX+X+XOX|.XXXXH.F.|.#XdXdXyXS.U U U U &.,.&.1.t.r.<.1.s.1.s.<.:.s.|.j.h.j.a.OXcXcXbXkX;XeXeXqXqXqX>XqXwXsXsXtXyXyXqXtXqXqXqXqX>X;X;X;X#X;X'., o @ c I -.e.i.u.-.-.-.e.,.e.y.i.y.t.,.r.",
"i.t.i.-.6.e.3.-.%.4.*.*.*.%.m : - %.[.kXGXKXKXKXLXKXKXLXGXJXCXcXcXxXjXkXcXkXcXcXjXjXtXtXqXtXxXxXfX,X-.U I I e.y.t.g.s.h.t.,.r.s.c.x.x.x.h.s.].|.}.'.'.<.g.wXcXxXnXFXFXJXGXKXFXFXKXLXKXLXKXKXJXJXnXnXnXmXnXvXxXxXxXxXnXvX-X4.@ @ > &.e.-.5.-.-.L I ,.e.5.e.y.p.i.",
",.,.I *.*.&.-.*.c c x c ; @ > d.qXAXAXZXbXnXZXZXZXnXbXbXcXlXkXhXhXhXsXdXdXdXsXdXyXyXdXdXyXtXsXqXh.U I ,.I U y.I.U.Y.{.{.x.<.s.x.x.]..X.X'.z.].].-X}.b.h.2.;.&XbXbXcXbXbXbXmXbXbXxXbXnXZXbXCXnXbXbXbXkXkXcXgXdXdXdXgXxXvXgXxXqXa.> 1 * L L L c x L I I -.-.-.e.e.",
"* * & * & & & & o o @ @ %.[.kXGXJXZXbXsX&XT.T.T.A.T.T.T.T.A.I.T.I.U.T.T.E./.T.T.A.A.A.A.g.g.A.i.U I p.e.,.t.i.I.Y. X X X Xx.%Xs.]..X-X:X}. X X].}..X.X'.x.h.<.a.U.g.U.Y.U.Y.U.[.U.U.'.[.[.[.[.U.h.h.U.U.g.h.g.U.[.U.;XjXyXdXgXfXyX|.=.& o @ + 1 o & & & & = * * ",
"OX+X@X;X;X#X;XqX>XqXtXtXbXGXZXnXkX>X[.A.u.i.I.i.5.y.e.y.,.e.e.,.,.t.e.t.i.e.p.e.,.e.&.&.I &.I y.z.l.l.I.I.I.I.Y.Y.$X{.I.{. XY.z.c..X.X:X%X.X%X'.].-X:X-X}.'.'.1.1.&.<.,.<.h.<.r.s.s.a.h.s.s.a.&.:.a &.1.<.1.1.s.s.<.t.i.T.pXjXdXfXfXfX>X|.[.|.#X;X;X#X#X;X#X#X#X",
"cXkXkXnXGXnXGXJXKXJXJXJXnXkXsXOXF.C.i.A.A.A.I.T.B.I.g.t.g.z.g.g.z.g.t.i.I.z.I.I.z.I.,.<.,.r.e.t.I.W.R.W.Y.I.E.U.E.=X XR.E.Y.=XY.z.:X&X:X%X X%X}..X-X%X.X].{..Xx.s.s.g.s.z.Y.c.s.x.c.h.].].{.h.<.s.a.s.s.U.].].x.x.c.s.s.,.,.i.%XhXkXfXfXdXdXdXxXmXxXmXNXmXnXFXFX",
"jXsXdXcXcXkXkXbXcXbXnXcX;XK.0.d.F.F.A.A.g.I.g.E.E.$XI.g.E.{.i.g. XY.Y.z.z.Y.I.z.z.I.t.<.t.g.I.E.$XR.=XW.z.U.z.U.=X*X*X*X=X$X*X*X=XaXeXpXpX*X:X&X:XpX%XY.U.}..X{.x.U.x.Y.Y.x.x.c.c.s.c.}..X}.b.s.s.h.c.x.x.].b.x.x.z.x.c.s.c.<.<.g.{.wXjXtXsXsXsXdXkXkXkXdXkXkXjX",
"+X0X+XeXrXeX+X+X0X;X+XF.4.6.a.h.[.XXI.[.E.U.U.I.E.$Xt.I.{.Y.U.I.$XE.U.z.U.z.z.t.l.z.i.,.<.z.z.U.$X~.$X X{.Y.{.].~.=XiXiXpXiXpX*X=XaXpXaXzX*X=X&X&X:X%X X X%X%XY.Y.Y.U.{.{.x.{. Xx.s.s.}..X}.'.c.x.b.b.].b.b.b.}.b.c.s.x.c.z.x.U.g.e.,.I.+XT.oXT.T.=X^.^.F.^.^.@X",
"^.^.T.0XrX&X@XT.[.[.F.h.d.j.h.K.OX#X'.OXY.U.U.{.T.{.g.t.Y.].{.Y. Xx.z.U.{.Y.z.z.,.t.i.&.-.s.x.E.$XR.$X X X{. XY. X$X4XiXaXaXiXpX).iXiXaXMXpX*X{.*X%X{.=X&X.X:X%X{.{.{.{.Y.c.Y.%X XU.c.'.].x.].x.s.x.}.%X{.].b.b.x.s.1.c.].b.].U.z.i.t.g.T.T.T.i.A.T.@X^.y.B.B./.",
"@XoX@XeXwXeX0XOX}.'.[.[.h.'.|.|.#X;XU.'.h.{.E.E.Y.{.T.t.U.Y.Y.x.Y.h.h.U.{.E.z.z.,.&.t.,.t.U.~.$X XW.R.U.{. X%X X X X*XaXaXpXaX*X=X4X*XaXMXaXiX=X=X=X=X&X:X&X%X=X XE.$X=X XE.Y.Y.Y.].x.].].'.].].c.x.]..X].].].c.c.c.1.c.b.x.c. XU.i.T.i.I.oX&X&XoX/.0X@X^.W.).0X",
"0X0XeXqXpXpXeX-X-X}.'.}.|.}.#X#X#X;X&X'.I.Y.Y.z.Y.{.U.g.U.U.s.a.x.].]. XY.Y.Y.U.<.U ,.I t.I.Y. XY.Y.I.I. X].*X%X X%XiXpXaXaXpX*XiXiX0XiXpXpX*X=X=X0X*X*X:X:X&X=X$XU.{.$X{.E.$XE.Y.U.U.{.%X}.}.].x.x.x.{.]. X].x.c.x.].c.c.b.Y.E.{.{.oXI.Y.&X0XeX&X0XaX&X@X@X0X0X",
"0XrXrXeXwXeX%X:X%XOX{.|.'.}.;X#X;X:X:X%XY.Y.:X X%X$XT.g.x.x.s.s.'.U.Y.{.z.U.U. Xl.I t.I p.z.z.Y.E.Y.z.I.].]..X].Y.=XpX4X4XaXiX~.*XaXiXiXiXiX=XE.=XiX*XiXpXpX=X=X$X$X}.{.E.{.{.{.E.Y.Y.]..X{.].].].s.s.x.%X.X].s.].]. Xc.c.].x.x.$X:X$X%X;XwX0X$X&XpXaX0X/.@X0X0X",
"^.+X&X@XeX&X}.}.}.|.U.'.k.k.|.#XOX{.}.%XU.U.Y.{.{.{.U.g.a.s.s.a.j.h.s.x.s.<.t.<.<.I r.t.p.t.i.g.h.g.z.z.Y.{. XU.Y.E.]. XY. XiX X=X=X*X*X*X*X$XE.=X=X=X*XpX0X$X$XoX{.Y.U.{.'.U.U.U.U.U.U.U.h.'.].b.s.s.2.].].].c.x.x.x.2.x.x.x.'.{.}.Y.U.&X0X&XU.&XeXpX0XD.W.$X=X",
"K K H x H H x H H H 7 > H 7 H U x 7 U K H 7 K ' K H 7 = 7 H H = 7 = = 7 7 = + . = + = = = = 7 7 H K 7 = H = H H 7 7 7 7 7 H U U K K K ' K K K K ' U H U U K U K K H = K K K K H H > H = = = & = > 7 = = = 7 7 = > = = = 7 H U H 7 H > = H U H H U H U ' * * H k ",
" .#.$.! / ~ !  .{  . .{  .#. ./ [ {  .#.{  .#. . . ./  . . .#.#. . .{  .{ ~ J / ! ~ ^ { { [ ~ {  . . .! ! Y { / { { G { / C A A A ~ D A / / / { ~ ~ [ ! / { ~ ~  .{  . . . . .~ { /  ./ { ! ~ Y Y [ { ~ ~ T J ~ ! ! [ / / [ ~ / [ ~ ~ ^ ! / [ ~ [ ! J ! ! /  . .",
"G +.} V Q.} C (.^ D 3X~ ! 3X ./ 3XD [ 3XD } 3XG #.+.G @.X.G +.@.F Q...G 3X^ C Q.T A (./ ~ 3XY { 3X ...3XZ ..(.V ..+.F @.O.V Q...G 3X..S 3X..G 3X/ ! 3X{ / (./  .3X$.#.3X] #.O.V X.X.F O.^ V +.^ C O.T   Q.K C (.Y ! 3XD  .(.A  .Q.C ..Q.A @.+.D +.^ j o.~ A X.#.",
"A ..^ S X.^   O.~ D 3XY A 3X~ / +.A ~ Q.Z ^ Q.G [ O.V [ ..S @.} V +.[ F +.! 6 O.Y Z Q.J Y (.~ ^ 3XG #.3Xj ..Q.V [ } S } } V X.[ F +.^ S Q.! Z +.~ ! 3X~ { Q.G  .3X$.#.@.G ..| V } ..S } T   | ^   X.Y   X.Y Z Q.Z J Q.D ^ 3XD [ Q.S ` Q.V ....S ..^ j ` ! S ..! ",
". R K   ' H . | { D +.Y A (.Y ~ +.A / +.Z ^ O.D ~ ^ . ' R C ( J   R T C R H 6 O.Y Z X.C ~ Q.Z ! (.A #.3XS ^ O.V ^ ^ . ' T   ) K   R H   R H A O.J A Q.A / 3XD  .3X] #.+.G  .} S [ T . K H . K 7 . R = . ) = C +.C J Q.A ~ (.A [ +.G ..+.j } ..  ^ J . T J Z R = ",
"; > ; z x z * ` Y Z Q.J C Q.Y J Q.D ~ X.  ! | V H c 3.4.8.3.4.4.3.v c *.M *.P ` Z C | 6 ! +.G / (.j ( Q.V T | . = x M 3.B B v v v v v z l z x ` C C Q.C ! +.G / Q.G  .@.G [ } V K * l c c c x l l c c x l ; * } Z A X.C ~ Q.A [ +.G  .+.  ` } . K x c c c l > ; ",
"v v v 5.9.7.B c =   O.J C +.D ~ +.A T | . T ` + z 8.F.C.F.F.XXL.C.C.C.F.q.8.4.4.k C } . C X.A ~ Q.C J Q.  K ^ + v 8.C.G.C.G.G.m.m.C.m.3.9.9.B z = Z X.C J +.D  .+.G  .@.G [ T = l v 3.N.5.3.3.3.3.3.3.3.5.P c l = A O.  J Q.Z ^ X.V [ O.. ^ ^ = c 3.4.3.4.3.v v ",
"4.*.3.3.4.8.3.v z * ` D C X.D Y +.Z J | . . x c 3.C.C.C.8.C.F.XXC.C.F.H.8.4.4.4.3.x ) . j |   J O.. Y X.  = x 3.F.XXG.C.m.G.H.G.C.G.C.9.9.m.9.B v x ` 6 A ..A ! +.F { @.G J x v 3.5.4.8.4.3.5.5.5.5.7.7.5.3.P v z > ) . J X.V J |   [ } . H x v v 4.4.3.4.3.4.4.",
"4.*.*.3.3.5.3.3.P v c = . R     )   = K + v 8.C.C.8.C.C.C.m.m.F.8.4.4.8.*.v *.4.*.4.*.* X K . = R . H R + ; v d.H.C.8.C.8.m.F.H.G.M.M.M.8.8.7.7.8.3.v k   R C J ) C K T K *.8.C.Z.Z.C.5.8.4.4.5.5.7.7.5.E *.P E 5.v l = = R . H R . J K + z 3.8.4.4.4.4.*.3.3.4.",
"*.*.3.5.4.4.3.3.*.3.*.M z c c c z z c c M C.F.L.C.C.C.C.8.4.4.8.4.v 3.4.*.M v 3.4.C.C.3.v M v *.*.c z v 3.3.5.v *.4.3.9.M.m.8.8.m.8.M.8.8.7.7.9.8.8.9.3.M v M v v c v M 9.C.Z.F.XXXXF.N.N.8.5.4.7.8.7.5.7.5.3.E 7.3.P v l z x x v v v v 3.7.C.C.C.d.4.4.4.3.3.4.",
"3.4.5.8.4.8.3.3.M 3.4.8.8.8.C.C.8.8.C.Z.8.C.F.F.H.F.8.8.8.3.v v c c *.c 4.8.8.4.8.Z.C.8.C.q.8.C.C.4.3.4.3.M 3.3.5.3.q.8.8.m.9.4.4.3.4.4.5.5.8.9.7.8.M.m.M.G.G.m.8.8.8.G.F.F.G.XXXXXXF.F.N.N.8.7.8.7.5.5.5.3.5.7.3.3.3.E P E 5.8.4.7.C.N.C.C.C.8.C.C.4.7.7.8.4.3.",
"4.5.7.3.3.v v 4.8.3.v 4.C.3.4.q.C.8.C.Z.8.C.C.C.H.C.4.3.4.3.v v v l x c c M 8.4.*.4.8.8.8.4.8.d.7.8.3.6.4.v v 4.3.M 4.8.3.4.v 3.5.5.3.3.4.5.v 3.7.3.8.8.M.C.G.8.8.C.m.G.G.F.F.F.XXF.H.D.N.C.N.N.8.3.3.3.v P P E P v v 5.5.3.5.7.7.7.8.N.N.N.m.8.N.8.3.5.7.5.4.3.",
"v P 3.v M c v 4.4.3.*.*.3.v M 4.7.5.4.8.4.8.8.8.8.4.4.v v c z v x - - ; v v l c c v v c *.v v v v v v M 4.c v 4.x v c 3.3.c > z v c c c c c x v 3.3.M 8.M.4.8.8.8.C.M.8.C.C.F.C.F.F.F.C.8.7.7.7.3.v P b v v v v x x x v P v P 3.5.7.4.5.5.7.7.4.5.E E E E v v v "
};
